; generated by PrusaSlicer 2.5.2+win64 on 2023-05-19 at 12:59:37 UTC


;
;
; 

; external perimeters extrusion width = 0.45mm
; perimeters extrusion width = 0.45mm
; infill extrusion width = 0.45mm
; solid infill extrusion width = 0.45mm
; top infill extrusion width = 0.40mm
; first layer extrusion width = 0.42mm

M73 P0 R76
M73 Q0 S77
M201 X1000 Y1000 Z200 E5000 ; sets maximum accelerations, mm/sec^2
M203 X200 Y200 Z12 E120 ; sets maximum feedrates, mm / sec
M204 P1250 R1250 T1250 ; sets acceleration (P, T) and retract acceleration (R), mm/sec^2
M205 X8.00 Y8.00 Z0.40 E4.50 ; sets the jerk limits, mm/sec
M205 S0 T0 ; sets the minimum extruding and travel feed rate, mm/sec
M107
;TYPE:Custom
M862.3 P "MK3S" ; printer model check
M862.1 P0.4 ; nozzle diameter check
M115 U3.12.2 ; tell printer latest fw version
G90 ; use absolute coordinates
M83 ; extruder relative mode
M104 S240 ; set extruder temp
M140 S85 ; set bed temp
M190 S85 ; wait for bed temp
M109 S240 ; wait for extruder temp
G28 W ; home all without mesh bed level
G80 ; mesh bed leveling

G1 Z0.2 F720
G1 Y-3 F1000 ; go outside print area
G92 E0
G1 X60 E9 F1000 ; intro line
G1 X100 E12.5 F1000 ; intro line

G92 E0
M221 S95

; Don't change E values below. Excessive value can damage the printer.

M907 E538 ; set extruder motor current
G21 ; set units to millimeters
G90 ; use absolute coordinates
M83 ; use relative distances for extrusion
M900 K0.08 ; Filament gcode LA 1.5
M900 K45 ; Filament gcode LA 1.0
M107
;LAYER_CHANGE
;Z:0.2
;HEIGHT:0.2
;BEFORE_LAYER_CHANGE
G92 E0.0
;0.2


G1 E-1 F2100
G1 Z.2 F720
;AFTER_LAYER_CHANGE
;0.2
G1 Z.4
G1 X71.782 Y85.652 F10800
G1 Z.2 F720
G1 E1 F2100
M204 S800
;TYPE:Skirt/Brim
;WIDTH:0.42
M73 P0 R75
G1 F1200
G1 X72.66 Y84.917 E.03591
G1 X73.6 Y84.723 E.03008
G1 X176.4 Y84.723 E3.22322
G1 X177.707 Y85.115 E.04278
G1 X178.583 Y86.16 E.04278
G1 X178.777 Y87.1 E.03008
G1 X178.777 Y122.9 E1.12248
G1 X178.385 Y124.207 E.04278
G1 X177.34 Y125.083 E.04278
G1 X176.4 Y125.277 E.03008
G1 X73.6 Y125.277 E3.22322
G1 X72.293 Y124.885 E.04278
G1 X71.417 Y123.84 E.04278
G1 X71.223 Y122.9 E.03008
G1 X71.223 Y87.1 E1.12248
G1 X71.615 Y85.793 E.04278
G1 X71.736 Y85.691 E.00498
M204 S1000
; printing object Víko v5 id:0 copy 0
;WIPE_START
G1 F8640
G1 X72.66 Y84.917 E-.27834
G1 X73.6 Y84.723 E-.22155
G1 X75.549 Y84.723 E-.45011
;WIPE_END
G1 E-.05 F2100
G1 Z.4 F720
G1 X175.613 Y107.195 F10800
G1 Z.2 F720
G1 E1 F2100
M204 S800
;TYPE:Perimeter
;WIDTH:0.419999
G1 F1200
G1 X175.613 Y122.113 E.46773
G1 X74.387 Y122.113 E3.17386
G1 X74.387 Y106.204 E.49882
G1 X74.366 Y105.553 E.02042
;WIDTH:0.376862
G1 X74.349 Y105 E.01536
G1 X74.366 Y104.447 E.01536
;WIDTH:0.419999
G1 X74.387 Y103.822 E.01961
G1 X74.387 Y87.887 E.49962
G1 X175.613 Y87.887 E3.17386
G1 X175.613 Y96.035 E.25549
G1 X175.613 Y103.961 E.2485
G1 X175.628 Y104.284 E.01014
;WIDTH:0.390833
G1 X175.642 Y104.607 E.00936
;WIDTH:0.361666
G1 X175.65 Y105.117 E.01351
;WIDTH:0.383011
G1 X175.631 Y105.415 E.00846
;WIDTH:0.419999
G1 X175.613 Y105.714 E.00938
G1 X175.613 Y107.135 E.04457
M204 S1000
;WIPE_START
G1 F8640
G1 X175.613 Y111.25 E-.95
;WIPE_END
G1 E-.05 F2100
G1 Z.4 F720
G1 X175.99 Y122.49 F10800
G1 Z.2 F720
G1 E1 F2100
M204 S800
;TYPE:External perimeter
G1 F1200
G1 X74.01 Y122.49 E3.19751
G1 X74.01 Y87.51 E1.09677
G1 X175.99 Y87.51 E3.19751
G1 X175.99 Y122.43 E1.09489
M204 S1000
M73 P1 R75
M73 Q1 S77
G1 X175.592 Y122.446 F10800
;WIPE_START
G1 F8640
G1 X171.876 Y122.432 E-.95
;WIPE_END
G1 E-.05 F2100
G1 Z.4 F720
G1 X171.751 Y107.014 F10800
G1 Z.2 F720
G1 E1 F2100
M204 S800
;TYPE:Perimeter
G1 F1200
G1 X171.343 Y106.713 E.01592
G1 X170.959 Y106.232 E.01927
G1 X170.721 Y105.698 E.01833
G1 X170.618 Y105.077 E.01973
G1 X170.677 Y104.466 E.01927
G1 X170.877 Y103.916 E.01833
G1 X171.235 Y103.398 E.01973
G1 X171.703 Y103 E.01927
G1 X172.253 Y102.736 E.01912
G1 X172.826 Y102.623 E.01833
G1 X173.301 Y102.635 E.01488
G1 X173.891 Y102.789 E.01912
G1 X174.423 Y103.087 E.01912
G1 X174.861 Y103.51 E.01912
G1 X175.178 Y104.031 E.01912
G1 X175.251 Y104.324 E.00947
;WIDTH:0.390833
G1 X175.324 Y104.617 E.00873
;WIDTH:0.361666
G1 X175.341 Y105.209 E.01568
;WIDTH:0.385588
G1 X175.29 Y105.513 E.0088
;WIDTH:0.419999
G1 X175.24 Y105.818 E.00968
G1 X174.972 Y106.336 E.01829
G1 X174.548 Y106.813 E.01999
G1 X174.038 Y107.146 E.01912
G1 X173.46 Y107.339 E.01912
G1 X172.851 Y107.379 E.01912
G1 X172.316 Y107.287 E.01704
G1 X171.849 Y107.087 E.01593
G1 X171.799 Y107.05 E.00193
M204 S1000
G1 X172.263 Y106.855 F10800
M204 S800
;TYPE:External perimeter
G1 F1200
G1 X171.96 Y106.717 E.01044
G1 X171.562 Y106.405 E.01587
G1 X171.254 Y105.996 E.01603
G1 X171.063 Y105.532 E.01575
G1 X170.991 Y105.026 E.01603
G1 X171.051 Y104.514 E.01616
G1 X171.232 Y104.046 E.01572
G1 X171.539 Y103.621 E.01645
G1 X171.938 Y103.295 E.01616
G1 X172.405 Y103.081 E.01611
G1 X172.922 Y102.993 E.01645
G1 X173.217 Y103.003 E.00924
G1 X173.716 Y103.123 E.01611
G1 X174.169 Y103.366 E.01611
G1 X174.545 Y103.716 E.01611
G1 X174.82 Y104.15 E.01611
G1 X174.976 Y104.64 E.01611
G1 X175.004 Y105.149 E.016
G1 X174.899 Y105.655 E.0162
G1 X174.683 Y106.095 E.01535
G1 X174.333 Y106.503 E.01688
G1 X173.908 Y106.792 E.01611
G1 X173.424 Y106.964 E.01611
G1 X172.912 Y107.007 E.01611
G1 X172.406 Y106.919 E.01609
G1 X172.318 Y106.879 E.00303
M204 S1000
G1 X172.006 Y107.066 F10800
;WIPE_START
G1 F8640
G1 X171.96 Y106.717 E-.09075
G1 X171.562 Y106.405 E-.11685
G1 X171.254 Y105.996 E-.11802
G1 X171.063 Y105.532 E-.11602
G1 X170.991 Y105.026 E-.11804
G1 X171.051 Y104.514 E-.11903
G1 X171.232 Y104.046 E-.11573
G1 X171.539 Y103.621 E-.12115
G1 X171.654 Y103.527 E-.03442
;WIPE_END
G1 E-.05 F2100
G1 Z.4 F720
G1 X115.305 Y97.951 F10800
G1 Z.2 F720
G1 E1 F2100
M204 S800
;TYPE:Perimeter
G1 F1200
G1 X115.646 Y97.505 E.01762
G1 X116.019 Y97.061 E.01816
G1 X116.413 Y96.637 E.01816
G1 X116.827 Y96.232 E.01816
G1 X117.26 Y95.847 E.01816
G1 X117.711 Y95.484 E.01816
G1 X118.179 Y95.143 E.01816
G1 X118.664 Y94.825 E.01816
G1 X119.163 Y94.53 E.01816
G1 X119.675 Y94.261 E.01816
G1 X120.2 Y94.016 E.01816
G1 X120.737 Y93.797 E.01816
G1 X121.283 Y93.604 E.01816
G1 X121.838 Y93.438 E.01816
G1 X122.4 Y93.298 E.01816
G1 X122.968 Y93.186 E.01816
G1 X123.542 Y93.102 E.01817
G1 X124.118 Y93.045 E.01816
G1 X124.697 Y93.017 E.01816
G1 X125.276 Y93.016 E.01816
G1 X125.855 Y93.044 E.01816
G1 X126.431 Y93.099 E.01816
G1 X127.005 Y93.182 E.01816
G1 X127.573 Y93.292 E.01816
G1 X128.136 Y93.43 E.01816
G1 X128.691 Y93.595 E.01816
G1 X129.238 Y93.787 E.01816
G1 X129.775 Y94.005 E.01816
G1 X130.3 Y94.248 E.01816
G1 X130.814 Y94.517 E.01816
G1 X131.313 Y94.81 E.01816
G1 X131.798 Y95.127 E.01816
G1 X132.267 Y95.467 E.01816
G1 X132.719 Y95.829 E.01816
G1 X133.153 Y96.213 E.01816
G1 X133.568 Y96.617 E.01816
G1 X133.963 Y97.041 E.01816
G1 X134.337 Y97.483 E.01816
G1 X134.69 Y97.943 E.01816
G1 X135.019 Y98.42 E.01816
G1 X135.325 Y98.911 E.01816
G1 X135.608 Y99.417 E.01816
G1 X135.865 Y99.936 E.01816
G1 X136.097 Y100.467 E.01816
G1 X136.303 Y101.009 E.01816
G1 X136.483 Y101.559 E.01816
G1 X136.635 Y102.118 E.01816
G1 X136.761 Y102.684 E.01816
G1 X136.859 Y103.254 E.01816
G1 X136.93 Y103.83 E.01816
G1 X136.972 Y104.407 E.01816
G1 X136.986 Y104.954 E.01716
G1 X136.974 Y105.564 E.01912
G1 X136.932 Y106.143 E.01821
G1 X136.863 Y106.718 E.01816
G1 X136.766 Y107.29 E.01816
G1 X136.642 Y107.855 E.01816
G1 X136.49 Y108.415 E.01816
G1 X136.312 Y108.966 E.01816
G1 X136.107 Y109.508 E.01816
G1 X135.876 Y110.039 E.01816
G1 X135.62 Y110.559 E.01816
G1 X135.339 Y111.065 E.01816
G1 X135.034 Y111.558 E.01816
G1 X134.706 Y112.035 E.01816
G1 X134.354 Y112.495 E.01816
G1 X133.981 Y112.939 E.01816
G1 X133.587 Y113.363 E.01816
G1 X133.173 Y113.768 E.01816
G1 X132.74 Y114.153 E.01816
G1 X132.289 Y114.516 E.01816
G1 X131.821 Y114.857 E.01816
G1 X131.336 Y115.175 E.01816
G1 X130.837 Y115.47 E.01816
G1 X130.325 Y115.739 E.01816
G1 X129.8 Y115.984 E.01816
G1 X129.263 Y116.203 E.01817
G1 X128.717 Y116.396 E.01816
G1 X128.162 Y116.562 E.01816
G1 X127.6 Y116.702 E.01816
G1 X127.032 Y116.814 E.01816
G1 X126.458 Y116.898 E.01817
G1 X125.882 Y116.955 E.01816
G1 X125.303 Y116.983 E.01816
G1 X124.724 Y116.984 E.01816
G1 X124.145 Y116.956 E.01816
G1 X123.569 Y116.901 E.01816
G1 X122.995 Y116.818 E.01816
G1 X122.427 Y116.708 E.01816
G1 X121.864 Y116.57 E.01816
G1 X121.309 Y116.405 E.01816
G1 X120.762 Y116.213 E.01816
G1 X120.225 Y115.995 E.01817
G1 X119.7 Y115.752 E.01816
G1 X119.186 Y115.483 E.01816
G1 X118.687 Y115.19 E.01816
G1 X118.202 Y114.873 E.01816
M73 Q1 S76
G1 X117.733 Y114.533 E.01816
G1 X117.281 Y114.171 E.01816
G1 X116.847 Y113.787 E.01816
G1 X116.432 Y113.383 E.01816
G1 X116.037 Y112.959 E.01816
G1 X115.663 Y112.517 E.01816
G1 X115.31 Y112.057 E.01816
G1 X114.981 Y111.58 E.01816
G1 X114.675 Y111.089 E.01816
G1 X114.392 Y110.583 E.01816
G1 X114.135 Y110.064 E.01816
G1 X113.903 Y109.533 E.01816
G1 X113.697 Y108.991 E.01816
G1 X113.517 Y108.441 E.01816
G1 X113.365 Y107.882 E.01816
G1 X113.239 Y107.316 E.01816
G1 X113.141 Y106.746 E.01816
G1 X113.07 Y106.17 E.01816
G1 X113.028 Y105.593 E.01816
G1 X113.014 Y105.046 E.01716
G1 X113.026 Y104.436 E.01912
G1 X113.068 Y103.857 E.01821
G1 X113.137 Y103.282 E.01816
G1 X113.234 Y102.71 E.01816
G1 X113.358 Y102.145 E.01816
G1 X113.51 Y101.585 E.01816
G1 X113.688 Y101.034 E.01816
G1 X113.893 Y100.492 E.01816
G1 X114.124 Y99.961 E.01816
G1 X114.38 Y99.441 E.01816
G1 X114.661 Y98.935 E.01816
G1 X114.966 Y98.442 E.01816
G1 X115.27 Y98 E.01683
M204 S1000
G1 X115.603 Y98.182 F10800
M204 S800
;TYPE:External perimeter
G1 F1200
G1 X115.945 Y97.734 E.0177
G1 X116.307 Y97.305 E.01759
G1 X116.689 Y96.894 E.01759
G1 X117.09 Y96.501 E.01759
G1 X117.51 Y96.129 E.01759
G1 X117.947 Y95.778 E.01759
G1 X118.401 Y95.448 E.01759
G1 X118.87 Y95.14 E.01759
G1 X119.354 Y94.855 E.01759
G1 X119.85 Y94.594 E.01759
G1 X120.359 Y94.358 E.01759
G1 X120.879 Y94.146 E.01759
G1 X121.408 Y93.96 E.01759
G1 X121.946 Y93.799 E.01759
G1 X122.49 Y93.664 E.01759
G1 X123.041 Y93.556 E.01759
G1 X123.596 Y93.475 E.01759
G1 X124.154 Y93.421 E.01759
G1 X124.715 Y93.393 E.01759
G1 X125.276 Y93.393 E.01759
G1 X125.836 Y93.42 E.01759
G1 X126.395 Y93.474 E.01759
G1 X126.95 Y93.555 E.01759
G1 X127.501 Y93.663 E.01759
G1 X128.046 Y93.797 E.01759
G1 X128.583 Y93.957 E.01759
G1 X129.113 Y94.143 E.01759
G1 X129.632 Y94.354 E.01759
G1 X130.141 Y94.59 E.01759
G1 X130.638 Y94.851 E.01759
G1 X131.122 Y95.135 E.01759
G1 X131.591 Y95.443 E.01759
G1 X132.046 Y95.772 E.01759
G1 X132.483 Y96.123 E.01759
G1 X132.903 Y96.495 E.01759
G1 X133.305 Y96.887 E.01759
G1 X133.687 Y97.298 E.01759
G1 X134.049 Y97.726 E.01759
G1 X134.39 Y98.172 E.01759
G1 X134.709 Y98.634 E.01759
G1 X135.005 Y99.11 E.01759
G1 X135.278 Y99.601 E.01759
G1 X135.527 Y100.103 E.01759
G1 X135.751 Y100.618 E.01759
G1 X135.95 Y101.142 E.01759
G1 X136.124 Y101.676 E.01759
G1 X136.272 Y102.217 E.01759
G1 X136.393 Y102.765 E.01759
G1 X136.488 Y103.318 E.01759
G1 X136.555 Y103.875 E.01759
G1 X136.596 Y104.435 E.01759
G1 X136.609 Y104.964 E.01659
G1 X136.597 Y105.556 E.01858
G1 X136.556 Y106.116 E.01761
G1 X136.489 Y106.673 E.01759
G1 X136.395 Y107.226 E.01759
G1 X136.274 Y107.774 E.01759
G1 X136.127 Y108.315 E.01759
G1 X135.953 Y108.849 E.01759
G1 X135.755 Y109.374 E.01759
G1 X135.531 Y109.888 E.01759
G1 X135.282 Y110.391 E.01759
G1 X135.01 Y110.882 E.01759
G1 X134.714 Y111.359 E.01759
G1 X134.395 Y111.821 E.01759
G1 X134.055 Y112.266 E.01759
G1 X133.693 Y112.695 E.01759
G1 X133.311 Y113.106 E.01759
G1 X132.91 Y113.499 E.01759
G1 X132.49 Y113.871 E.01759
G1 X132.053 Y114.222 E.01759
G1 X131.599 Y114.552 E.01759
G1 X131.13 Y114.86 E.01759
G1 X130.646 Y115.145 E.01759
G1 X130.15 Y115.406 E.01759
G1 X129.641 Y115.642 E.01759
G1 X129.121 Y115.854 E.01759
G1 X128.592 Y116.04 E.01759
G1 X128.054 Y116.201 E.01759
G1 X127.51 Y116.336 E.01759
G1 X126.959 Y116.444 E.01759
G1 X126.404 Y116.525 E.01759
G1 X125.846 Y116.579 E.01759
G1 X125.285 Y116.607 E.01759
G1 X124.724 Y116.607 E.01759
G1 X124.164 Y116.58 E.01759
G1 X123.605 Y116.526 E.01759
G1 X123.05 Y116.445 E.01759
G1 X122.499 Y116.337 E.01759
G1 X121.954 Y116.203 E.01759
G1 X121.417 Y116.043 E.01759
G1 X120.887 Y115.857 E.01759
G1 X120.368 Y115.646 E.01759
G1 X119.859 Y115.41 E.01759
G1 X119.362 Y115.149 E.01759
G1 X118.878 Y114.865 E.01759
G1 X118.409 Y114.557 E.01759
G1 X117.954 Y114.228 E.01759
G1 X117.517 Y113.877 E.01759
G1 X117.097 Y113.505 E.01759
G1 X116.695 Y113.113 E.01759
G1 X116.313 Y112.702 E.01759
G1 X115.951 Y112.274 E.01759
G1 X115.61 Y111.828 E.01759
G1 X115.291 Y111.366 E.01759
G1 X114.995 Y110.89 E.01759
G1 X114.722 Y110.399 E.01759
G1 X114.473 Y109.897 E.01759
G1 X114.249 Y109.382 E.01759
G1 X114.05 Y108.858 E.01759
G1 X113.876 Y108.324 E.01759
G1 X113.728 Y107.783 E.01759
G1 X113.607 Y107.235 E.01759
G1 X113.512 Y106.682 E.01759
G1 X113.445 Y106.125 E.01759
G1 X113.404 Y105.565 E.01759
G1 X113.391 Y105.036 E.01659
G1 X113.403 Y104.444 E.01858
G1 X113.444 Y103.884 E.01761
G1 X113.511 Y103.327 E.01759
G1 X113.605 Y102.774 E.01759
G1 X113.726 Y102.226 E.01759
G1 X113.873 Y101.685 E.01759
G1 X114.047 Y101.151 E.01759
G1 X114.245 Y100.626 E.01759
G1 X114.469 Y100.112 E.01759
G1 X114.718 Y99.609 E.01759
G1 X114.99 Y99.118 E.01759
G1 X115.286 Y98.641 E.01759
G1 X115.569 Y98.232 E.01561
M204 S1000
G1 X115.44 Y97.817 F10800
;WIPE_START
G1 F8640
G1 X115.945 Y97.734 E-.14416
G1 X116.307 Y97.305 E-.12955
G1 X116.689 Y96.894 E-.12955
G1 X117.09 Y96.501 E-.12956
G1 X117.51 Y96.129 E-.12956
G1 X117.947 Y95.778 E-.12955
G1 X118.401 Y95.448 E-.12956
G1 X118.504 Y95.38 E-.02851
;WIPE_END
G1 E-.05 F2100
G1 Z.4 F720
G1 X79.155 Y104.006 F10800
G1 Z.2 F720
G1 E1 F2100
M204 S800
;TYPE:Perimeter
G1 F1200
G1 X79.319 Y104.449 E.01481
G1 X79.382 Y105.075 E.01973
G1 X79.373 Y105.225 E.0047
G1 X79.267 Y105.748 E.01675
G1 X79.049 Y106.217 E.01622
G1 X78.659 Y106.711 E.01973
G1 X78.166 Y107.079 E.01927
G1 X77.625 Y107.3 E.01833
G1 X77.001 Y107.383 E.01973
G1 X76.392 Y107.305 E.01927
G1 X75.827 Y107.075 E.01912
G1 X75.339 Y106.71 E.01912
G1 X74.959 Y106.232 E.01912
G1 X74.725 Y105.67 E.01911
;WIDTH:0.394977
G1 X74.653 Y105.068 E.01775
;WIDTH:0.376862
G1 X74.698 Y104.468 E.01669
;WIDTH:0.419999
G1 X74.877 Y103.916 E.0182
G1 X75.235 Y103.398 E.01973
G1 X75.703 Y103 E.01927
G1 X76.253 Y102.736 E.01912
G1 X76.826 Y102.623 E.01833
G1 X77.301 Y102.635 E.01488
G1 X77.831 Y102.762 E.01709
G1 X78.304 Y103.004 E.01667
G1 X78.768 Y103.4 E.01912
G1 X79.134 Y103.95 E.02071
M204 S1000
G1 X78.641 Y103.866 F10800
M204 S800
;TYPE:External perimeter
G1 F1200
G1 X78.816 Y104.139 E.01018
G1 X78.97 Y104.615 E.0157
G1 X79.007 Y105.115 E.01572
G1 X78.904 Y105.644 E.01687
G1 X78.683 Y106.095 E.01575
G1 X78.359 Y106.482 E.01583
G1 X77.944 Y106.774 E.01591
G1 X77.447 Y106.957 E.0166
G1 X76.912 Y107.007 E.01688
G1 X76.405 Y106.919 E.01611
G1 X75.938 Y106.705 E.01611
G1 X75.54 Y106.38 E.01611
G1 X75.238 Y105.965 E.01611
G1 X75.052 Y105.495 E.01585
G1 X74.991 Y104.976 E.01638
G1 X75.063 Y104.468 E.01609
G1 X75.25 Y104.015 E.01535
G1 X75.574 Y103.585 E.01688
G1 X75.979 Y103.27 E.01611
G1 X76.451 Y103.067 E.01609
G1 X76.922 Y102.993 E.01497
G1 X77.217 Y103.003 E.00924
G1 X77.716 Y103.123 E.01611
G1 X78.169 Y103.366 E.01611
G1 X78.545 Y103.716 E.01611
G1 X78.609 Y103.815 E.00369
M204 S1000
G1 X78.964 Y103.83 F10800
;WIPE_START
G1 F8640
G1 X78.816 Y104.139 E-.08882
G1 X78.97 Y104.615 E-.11564
G1 X79.007 Y105.115 E-.11575
G1 X78.904 Y105.644 E-.12423
G1 X78.683 Y106.095 E-.11599
G1 X78.359 Y106.482 E-.11657
G1 X77.944 Y106.774 E-.11714
G1 X77.447 Y106.957 E-.12225
G1 X77.303 Y106.971 E-.0336
;WIPE_END
G1 E-.05 F2100
G1 Z.4 F720
G1 X174.678 Y88.057 F10800
G1 Z.2 F720
G1 E1 F2100
M204 S800
;TYPE:Solid infill
;WIDTH:0.421301
G1 F1200
G1 X175.274 Y88.652 E.02649
G1 X175.274 Y89.187 E.01684
G1 X174.313 Y88.226 E.04275
G1 X173.778 Y88.226 E.01684
G1 X175.274 Y89.722 E.06656
G1 X175.274 Y90.257 E.01684
G1 X173.243 Y88.226 E.09037
G1 X172.707 Y88.226 E.01684
G1 X175.274 Y90.793 E.11418
G1 X175.274 Y91.328 E.01684
G1 X172.172 Y88.226 E.13799
G1 X171.637 Y88.226 E.01684
G1 X175.274 Y91.863 E.1618
