; generated by PrusaSlicer 2.5.2+win64 on 2023-05-19 at 12:52:20 UTC


;
;
; 

; external perimeters extrusion width = 0.45mm
; perimeters extrusion width = 0.45mm
; infill extrusion width = 0.45mm
; solid infill extrusion width = 0.45mm
; top infill extrusion width = 0.40mm
; first layer extrusion width = 0.42mm

M73 P0 R61
M73 Q0 S62
M201 X1000 Y1000 Z200 E5000 ; sets maximum accelerations, mm/sec^2
M203 X200 Y200 Z12 E120 ; sets maximum feedrates, mm / sec
M204 P1250 R1250 T1250 ; sets acceleration (P, T) and retract acceleration (R), mm/sec^2
M205 X8.00 Y8.00 Z0.40 E4.50 ; sets the jerk limits, mm/sec
M205 S0 T0 ; sets the minimum extruding and travel feed rate, mm/sec
M107
;TYPE:Custom
M862.3 P "MK3S" ; printer model check
M862.1 P0.4 ; nozzle diameter check
M115 U3.12.2 ; tell printer latest fw version
G90 ; use absolute coordinates
M83 ; extruder relative mode
M104 S240 ; set extruder temp
M140 S85 ; set bed temp
M190 S85 ; wait for bed temp
M109 S240 ; wait for extruder temp
G28 W ; home all without mesh bed level
G80 ; mesh bed leveling

G1 Z0.2 F720
G1 Y-3 F1000 ; go outside print area
G92 E0
G1 X60 E9 F1000 ; intro line
G1 X100 E12.5 F1000 ; intro line

G92 E0
M221 S95

; Don't change E values below. Excessive value can damage the printer.

M907 E538 ; set extruder motor current
G21 ; set units to millimeters
G90 ; use absolute coordinates
M83 ; use relative distances for extrusion
M900 K0.08 ; Filament gcode LA 1.5
M900 K45 ; Filament gcode LA 1.0
M107
;LAYER_CHANGE
;Z:0.2
;HEIGHT:0.2
;BEFORE_LAYER_CHANGE
G92 E0.0
;0.2


G1 E-1 F2100
G1 Z.2 F720
;AFTER_LAYER_CHANGE
;0.2
G1 Z.4
G1 X112.258 Y94.122 F10800
G1 Z.2 F720
G1 E1 F2100
M204 S800
;TYPE:Skirt/Brim
;WIDTH:0.42
G1 F1200
G1 X113.708 Y92.623 E.06541
G1 X114.935 Y91.607 E.04994
G1 X116.149 Y90.775 E.04615
G1 X117.432 Y90.053 E.04615
G1 X118.797 Y89.437 E.04697
G1 X120.754 Y88.793 E.06458
G1 X122.192 Y88.483 E.04615
G1 X123.773 Y88.291 E.04994
G1 X125.245 Y88.248 E.04615
G1 X126.74 Y88.337 E.04697
G1 X128.772 Y88.676 E.06458
G1 X130.304 Y89.108 E.04993
G1 X131.679 Y89.635 E.04615
G1 X133.001 Y90.281 E.04615
G1 X134.769 Y91.389 E.06541
G1 X135.925 Y92.299 E.04615
G1 X137.082 Y93.394 E.04994
G1 X138.054 Y94.499 E.04615
G1 X139.258 Y96.203 E.06541
G1 X139.975 Y97.488 E.04615
G1 X140.621 Y98.944 E.04994
G1 X141.092 Y100.338 E.04615
G1 X141.439 Y101.768 E.04615
G1 X141.663 Y103.267 E.04752
G1 X141.751 Y105.308 E.06403
G1 X141.659 Y106.776 E.04615
G1 X141.415 Y108.35 E.04994
G1 X140.872 Y110.364 E.06541
G1 X140.34 Y111.737 E.04615
G1 X139.689 Y113.057 E.04615
G1 X138.858 Y114.415 E.04994
G1 X137.58 Y116.064 E.06541
G1 X136.561 Y117.126 E.04615
G1 X135.452 Y118.094 E.04615
G1 X134.161 Y119.027 E.04994
G1 X132.856 Y119.797 E.04752
G1 X130.997 Y120.643 E.06403
G1 X129.601 Y121.109 E.04615
G1 X128.051 Y121.473 E.04994
G1 X126.593 Y121.678 E.04615
G1 X124.508 Y121.746 E.06541
G1 X123.041 Y121.639 E.04615
G1 X121.47 Y121.377 E.04994
G1 X120.004 Y120.991 E.04752
G1 X118.095 Y120.265 E.06403
G1 X116.677 Y119.54 E.04994
G1 X115.433 Y118.753 E.04615
G1 X113.798 Y117.458 E.06541
G1 X112.748 Y116.427 E.04615
G1 X111.792 Y115.307 E.04615
G1 X110.873 Y114.007 E.04994
G1 X110.137 Y112.732 E.04615
G1 X109.292 Y110.825 E.06541
G1 X108.841 Y109.424 E.04615
G1 X108.494 Y107.87 E.04994
G1 X108.306 Y106.41 E.04615
G1 X108.26 Y104.325 E.06541
G1 X108.384 Y102.858 E.04615
G1 X108.662 Y101.29 E.04994
G1 X109.051 Y99.87 E.04615
G1 X109.812 Y97.928 E.06541
G1 X110.552 Y96.518 E.04993
G1 X111.352 Y95.283 E.04615
G1 X112.221 Y94.17 E.04427
M204 S1000
G1 X112.518 Y94.401 F10800
M204 S800
G1 F1200
G1 X113.968 Y92.897 E.0655
G1 X115.072 Y91.976 E.04511
G1 X116.342 Y91.099 E.04838
G1 X117.596 Y90.393 E.04511
G1 X118.931 Y89.79 E.04593
G1 X120.856 Y89.156 E.06354
G1 X122.262 Y88.854 E.04511
G1 X123.69 Y88.676 E.04511
G1 X125.232 Y88.625 E.04838
G1 X126.695 Y88.712 E.04593
G1 X128.693 Y89.045 E.06354
G1 X130.179 Y89.464 E.04838
G1 X131.522 Y89.978 E.04511
G1 X132.815 Y90.609 E.04511
G1 X134.554 Y91.699 E.06437
G1 X135.764 Y92.658 E.04838
G1 X136.805 Y93.65 E.04511
G1 X137.756 Y94.73 E.04511
G1 X138.941 Y96.406 E.06437
G1 X139.641 Y97.663 E.04511
G1 X140.267 Y99.074 E.04838
G1 X140.888 Y101.03 E.06437
G1 X141.175 Y102.44 E.04511
G1 X141.344 Y103.973 E.04838
G1 X141.371 Y105.412 E.04511
G1 X141.272 Y106.847 E.04511
G1 X140.913 Y108.868 E.06437
G1 X140.512 Y110.25 E.04511
G1 X139.949 Y111.687 E.04838
G1 X139.305 Y112.973 E.04511
G1 X138.195 Y114.7 E.06437
G1 X137.293 Y115.821 E.04511
G1 X136.22 Y116.929 E.04838
G1 X134.639 Y118.239 E.06437
G1 X133.44 Y119.034 E.04511
G1 X132.082 Y119.766 E.04838
G1 X130.758 Y120.331 E.04511
G1 X128.795 Y120.931 E.06437
G1 X127.382 Y121.202 E.04511
G1 X125.951 Y121.349 E.04511
G1 X124.513 Y121.369 E.04511
G1 X122.974 Y121.251 E.04838
G1 X121.556 Y121.01 E.04511
G1 X120.122 Y120.633 E.04648
G1 X118.244 Y119.918 E.06299
G1 X116.961 Y119.268 E.04511
G1 X115.654 Y118.448 E.04838
G1 X114.045 Y117.173 E.06437
G1 X113.019 Y116.165 E.04511
G1 X112.021 Y114.987 E.04838
G1 X111.195 Y113.81 E.04511
G1 X110.475 Y112.564 E.04511
G1 X109.643 Y110.688 E.06437
G1 X109.176 Y109.217 E.04838
G1 X108.867 Y107.812 E.04511
G1 X108.682 Y106.385 E.04511
G1 X108.637 Y104.333 E.06437
G1 X108.772 Y102.796 E.04838
G1 X109.028 Y101.38 E.04511
G1 X109.408 Y99.992 E.04511
G1 X110.157 Y98.081 E.06437
G1 X110.874 Y96.715 E.04838
G1 X111.656 Y95.507 E.04511
G1 X112.481 Y94.448 E.04209
M204 S1000
; printing object Body1 id:0 copy 0
;WIPE_START
G1 F8640
G1 X113.968 Y92.897 E-.49614
G1 X115.072 Y91.976 E-.33219
G1 X115.506 Y91.676 E-.12166
;WIPE_END
G1 E-.05 F2100
G1 Z.4 F720
G1 X132.944 Y108.059 F10800
G1 Z.2 F720
G1 E1 F2100
M204 S800
;TYPE:Perimeter
;WIDTH:0.419999
G1 F1200
G1 X133.295 Y107.797 E.01374
G1 X133.785 Y107.301 E.02184
G1 X134.169 Y106.721 E.02183
G1 X134.433 Y106.077 E.02183
G1 X134.555 Y105.503 E.0184
G1 X134.571 Y105.222 E.00883
G1 X134.546 Y104.577 E.02023
G1 X134.434 Y104.014 E.01798
G1 X134.17 Y103.37 E.02185
G1 X133.779 Y102.782 E.02214
G1 X133.336 Y102.338 E.01967
G1 X136.665 Y102.323 E.10439
G1 X137.746 Y102.225 E.03402
G1 X137.917 Y102.043 E.00784
G1 X138.137 Y103.592 E.04904
G1 X138.186 Y104.17 E.01819
G1 X138.21 Y105.29 E.03513
G1 X138.184 Y105.87 E.0182
G1 X138.133 Y106.448 E.0182
G1 X138.057 Y107.023 E.01817
G1 X137.828 Y108.284 E.0402
G1 X137.646 Y108.163 E.00685
G1 X136.772 Y108.085 E.0275
G1 X135.938 Y108.057 E.02619
G1 X133.004 Y108.059 E.09196
M204 S1000
;WIPE_START
G1 F8640
M73 Q0 S61
G1 X133.295 Y107.797 E-.09046
G1 X133.785 Y107.301 E-.16086
G1 X134.169 Y106.721 E-.16074
G1 X134.433 Y106.077 E-.16074
G1 X134.555 Y105.503 E-.13548
G1 X134.571 Y105.222 E-.06504
G1 X134.546 Y104.577 E-.14896
G1 X134.523 Y104.459 E-.02774
;WIPE_END
G1 E-.05 F2100
G1 Z.4 F720
G1 X112.169 Y108.233 F10800
G1 Z.2 F720
G1 E1 F2100
M204 S800
G1 F1200
G1 X111.991 Y107.313 E.02939
G1 X111.902 Y106.737 E.01827
G1 X111.838 Y106.16 E.01821
G1 X111.8 Y105.58 E.0182
G1 X111.787 Y105 E.0182
G1 X111.8 Y104.42 E.0182
G1 X111.838 Y103.84 E.0182
G1 X111.902 Y103.261 E.01829
G1 X112.079 Y102.048 E.03843
G1 X112.243 Y102.225 E.00758
G1 X112.904 Y102.297 E.02086
G1 X113.409 Y102.326 E.01585
G1 X116.238 Y102.329 E.08869
G1 X116.738 Y102.304 E.01571
G1 X116.373 Y102.61 E.01493
G1 X115.95 Y103.16 E.02173
G1 X115.643 Y103.785 E.02184
G1 X115.483 Y104.351 E.01846
G1 X115.417 Y105.154 E.02526
G1 X115.483 Y105.737 E.0184
G1 X115.726 Y106.505 E.02526
G1 X116.071 Y107.11 E.02183
G1 X116.527 Y107.639 E.02189
G1 X117.065 Y108.059 E.02141
G1 X113.761 Y108.067 E.10359
G1 X113.018 Y108.093 E.02332
G1 X112.354 Y108.162 E.02093
G1 X112.225 Y108.212 E.00433
M204 S1000
G1 X112.237 Y108.758 F10800
M204 S800
;TYPE:External perimeter
G1 F1200
G1 X112.337 Y108.552 E.00716
G1 X113.054 Y108.468 E.02264
G1 X114.472 Y108.434 E.04449
G1 X117.025 Y108.436 E.08005
;WIDTH:0.433441
G1 X117.531 Y108.44 E.01642
G1 X118.351 Y108.495 E.02667
;WIDTH:0.419591
G1 X118.973 Y108.531 E.01952
;WIDTH:0.422532
G1 X119.55 Y108.484 E.01828
G1 X120.27 Y108.279 E.02363
;WIDTH:0.419747
G1 X120.878 Y107.98 E.02122
;WIDTH:0.423066
G1 X121.349 Y107.617 E.0188
;WIDTH:0.425262
G1 X121.74 Y107.194 E.01831
;WIDTH:0.426909
G1 X122.061 Y106.707 E.01862
G1 X122.221 Y106.37 E.01191
;WIDTH:0.418155
G1 X122.375 Y105.894 E.01562
G1 X122.377 Y105.751 E.00446
G1 X122.038 Y105.742 E.01059
G1 X121.866 Y106.249 E.01672
;WIDTH:0.417685
G1 X121.579 Y106.777 E.01871
;WIDTH:0.415683
G1 X121.196 Y107.242 E.01869
;WIDTH:0.418394
G1 X120.73 Y107.627 E.01884
;WIDTH:0.421928
G1 X120.243 Y107.89 E.01745
G1 X119.62 Y108.087 E.02059
;WIDTH:0.418668
G1 X119.021 Y108.153 E.01883
G1 X118.425 Y108.125 E.01864
;WIDTH:0.457782
G1 X117.838 Y108.032 E.02053
G1 X117.647 Y107.932 E.00743
;WIDTH:0.43177
G1 X117.22 Y107.712 E.0155
;WIDTH:0.419999
G1 X116.763 Y107.345 E.0184
G1 X116.36 Y106.869 E.01956
G1 X116.057 Y106.324 E.01954
G1 X115.897 Y105.83 E.01628
G1 X115.807 Y105.253 E.01831
G1 X115.845 Y104.454 E.02507
G1 X116.006 Y103.888 E.01846
G1 X116.286 Y103.331 E.01955
G1 X116.668 Y102.845 E.01938
G1 X117.167 Y102.449 E.01996
;WIDTH:0.431796
G1 X117.76 Y102.216 E.0206
G1 X118.338 Y102.114 E.01898
;WIDTH:0.407354
G1 X118.894 Y102.061 E.01694
;WIDTH:0.390292
G1 X119.468 Y102.086 E.01658
;WIDTH:0.423359
G1 X120.039 Y102.177 E.0183
G1 X120.59 Y102.387 E.01865
;WIDTH:0.421723
G1 X121.089 Y102.746 E.01938
;WIDTH:0.416083
G1 X121.504 Y103.204 E.01917
;WIDTH:0.418846
G1 X121.815 Y103.722 E.01889
G1 X122.016 Y104.259 E.01793
;WIDTH:0.41775
G1 X122.362 Y104.25 E.01077
G1 X122.321 Y104.004 E.00776
;WIDTH:0.418846
G1 X122.14 Y103.534 E.01576
;WIDTH:0.422729
G1 X121.89 Y103.098 E.01585
;WIDTH:0.425957
G1 X121.532 Y102.653 E.0182
;WIDTH:0.43011
G1 X121.11 Y102.275 E.01824
;WIDTH:0.45617
G1 X120.426 Y101.866 E.02739
G1 X119.982 Y101.804 E.01541
;WIDTH:0.424746
G1 X119.538 Y101.741 E.01424
;WIDTH:0.393321
G1 X118.936 Y101.732 E.01753
;WIDTH:0.405566
G1 X118.325 Y101.752 E.01842
;WIDTH:0.429338
G1 X117.212 Y101.902 E.0361
;WIDTH:0.419999
G1 X116.384 Y101.945 E.026
G1 X113.41 Y101.949 E.09325
G1 X112.284 Y101.85 E.03542
G1 X112.123 Y101.637 E.00839
;WIDTH:0.421079
G1 X112.316 Y100.968 E.0219
;WIDTH:0.421345
G1 X112.505 Y100.418 E.01829
G1 X112.772 Y99.746 E.02274
;WIDTH:0.417167
G1 X113.025 Y99.194 E.01891
;WIDTH:0.419164
G1 X113.302 Y98.652 E.01902
G1 X113.604 Y98.125 E.01902
G1 X113.929 Y97.612 E.01902
G1 X114.278 Y97.114 E.01902
G1 X114.65 Y96.633 E.01902
;WIDTH:0.421939
G1 X115.237 Y95.956 E.02824
G1 X115.856 Y95.331 E.02773
;WIDTH:0.42048
G1 X116.342 Y94.892 E.02056
;WIDTH:0.419098
G1 X116.812 Y94.507 E.01901
G1 X117.3 Y94.144 E.01901
G1 X117.804 Y93.803 E.01902
;WIDTH:0.423808
G1 X118.435 Y93.427 E.02327
;WIDTH:0.424822
G1 X119.398 Y92.926 E.03446
;WIDTH:0.419595
G1 X119.957 Y92.682 E.01913
;WIDTH:0.419752
G1 X120.525 Y92.464 E.01905
;WIDTH:0.419916
G1 X121.102 Y92.272 E.01906
;WIDTH:0.420218
G1 X121.674 Y92.111 E.01864
;WIDTH:0.420765
G1 X122.534 Y91.924 E.02768
;WIDTH:0.421549
G1 X123.404 Y91.787 E.02773
G1 X123.98 Y91.73 E.01822
G1 X124.564 Y91.698 E.0184
G1 X125.155 Y91.692 E.0186
;WIDTH:0.421881
G1 X125.732 Y91.712 E.01821
;WIDTH:0.422044
G1 X126.315 Y91.757 E.01842
;WIDTH:0.422166
G1 X126.892 Y91.827 E.01835
G1 X127.712 Y91.97 E.02623
;WIDTH:0.418998
G1 X128.304 Y92.108 E.01901
;WIDTH:0.421815
G1 X129.174 Y92.363 E.02854
;WIDTH:0.424636
G1 X130.26 Y92.776 E.03689
;WIDTH:0.42227
G1 X130.792 Y93.019 E.01843
;WIDTH:0.422141
G1 X131.312 Y93.284 E.01843
;WIDTH:0.421991
G1 X131.818 Y93.571 E.01834
;WIDTH:0.42178
G1 X132.561 Y94.049 E.02783
;WIDTH:0.420345
G1 X133.181 Y94.501 E.02407
;WIDTH:0.419419
G1 X133.652 Y94.885 E.01903
;WIDTH:0.419548
G1 X134.105 Y95.291 E.01904
;WIDTH:0.424415
G1 X134.563 Y95.75 E.02057
;WIDTH:0.424594
G1 X135.345 Y96.623 E.03718
;WIDTH:0.420423
G1 X135.7 Y97.083 E.01824
G1 X136.065 Y97.605 E.02002
;WIDTH:0.416076
G1 X136.391 Y98.118 E.01886
;WIDTH:0.421161
G1 X136.649 Y98.562 E.01615
;WIDTH:0.421437
G1 X136.918 Y99.078 E.01831
;WIDTH:0.421604
G1 X137.167 Y99.607 E.0184
;WIDTH:0.424911
G1 X137.588 Y100.687 E.03682
;WIDTH:0.423029
G1 X137.847 Y101.521 E.02762
;WIDTH:0.41855
G1 X137.879 Y101.668 E.00469
;WIDTH:0.419999
G1 X137.712 Y101.85 E.00775
G1 X136.631 Y101.948 E.03402
G1 X133.398 Y101.949 E.10138
;WIDTH:0.425007
G1 X132.437 Y101.857 E.03066
G1 X131.566 Y101.606 E.02881
;WIDTH:0.422397
G1 X130.824 Y101.572 E.02343
;WIDTH:0.420554
G1 X130.163 Y101.66 E.02093
G1 X129.518 Y101.903 E.02163
;WIDTH:0.422546
G1 X129.334 Y101.986 E.0064
G1 X128.917 Y102.27 E.01591
;WIDTH:0.426211
G1 X128.645 Y102.479 E.01093
G1 X128.29 Y102.856 E.01652
;WIDTH:0.4242
G1 X128.004 Y103.296 E.01662
;WIDTH:0.419452
G1 X127.819 Y103.618 E.01163
G1 X127.648 Y104.089 E.01568
;WIDTH:0.417588
G1 X127.637 Y104.25 E.00503
G1 X127.984 Y104.259 E.01079
;WIDTH:0.419452
G1 X128.173 Y103.748 E.01707
;WIDTH:0.4242
G1 X128.583 Y103.099 E.02434
;WIDTH:0.426211
G1 X128.915 Y102.75 E.01534
G1 X129.136 Y102.562 E.00925
;WIDTH:0.414805
G1 X129.617 Y102.262 E.01754
;WIDTH:0.41545
G1 X130.181 Y102.046 E.01868
;WIDTH:0.42152
G1 X130.737 Y101.948 E.0178
G1 X131.379 Y101.961 E.02019
;WIDTH:0.419309
G1 X131.968 Y102.089 E.01886
;WIDTH:0.419999
G1 X132.795 Y102.421 E.02795
G1 X133.109 Y102.642 E.01204
G1 X133.511 Y103.047 E.0179
G1 X133.852 Y103.573 E.01964
G1 X134.083 Y104.152 E.01955
G1 X134.175 Y104.644 E.01569
G1 X134.194 Y105.216 E.01793
G1 X134.117 Y105.752 E.01699
G1 X134.053 Y106.033 E.00903
G1 X133.822 Y106.572 E.0184
G1 X133.474 Y107.089 E.01954
G1 X133.031 Y107.528 E.01954
G1 X132.507 Y107.869 E.0196
;WIDTH:0.436451
G1 X131.916 Y108.085 E.02061
G1 X131.301 Y108.146 E.02021
;WIDTH:0.420594
G1 X130.737 Y108.141 E.01769
;WIDTH:0.424515
G1 X129.978 Y107.972 E.02469
;WIDTH:0.426826
G1 X129.514 Y107.765 E.01621
G1 X129.27 Y107.627 E.00896
;WIDTH:0.418415
G1 X128.83 Y107.269 E.01771
;WIDTH:0.417431
G1 X128.442 Y106.807 E.01878
;WIDTH:0.415384
G1 X128.149 Y106.279 E.0187
;WIDTH:0.420306
G1 X127.961 Y105.743 E.01783
G1 X127.624 Y105.752 E.0106
G1 X127.646 Y105.989 E.00747
;WIDTH:0.426588
G1 X127.928 Y106.686 E.02399
G1 X128.241 Y107.169 E.01836
;WIDTH:0.425263
G1 X128.628 Y107.596 E.01833
;WIDTH:0.423035
G1 X129.036 Y107.921 E.01647
;WIDTH:0.418415
G1 X129.641 Y108.246 E.02146
;WIDTH:0.424515
G1 X129.883 Y108.342 E.00826
G1 X130.621 Y108.502 E.02395
;WIDTH:0.415327
G1 X131.276 Y108.519 E.0203
;WIDTH:0.435618
G1 X132.576 Y108.457 E.04248
;WIDTH:0.419999
G1 X133.26 Y108.436 E.02145
G1 X135.938 Y108.434 E.08396
G1 X136.76 Y108.461 E.02579
G1 X137.607 Y108.538 E.02665
G1 X137.755 Y108.645 E.00574
;WIDTH:0.415924
G1 X137.762 Y108.786 E.00438
;WIDTH:0.423183
G1 X137.489 Y109.586 E.02671
;WIDTH:0.423909
G1 X137.16 Y110.399 E.0278
G1 X136.916 Y110.925 E.01835
;WIDTH:0.422455
G1 X136.645 Y111.442 E.01844
;WIDTH:0.424338
G1 X136.022 Y112.455 E.03771
;WIDTH:0.417873
G1 X135.492 Y113.188 E.02821
;WIDTH:0.419102
G1 X135.108 Y113.658 E.01897
G1 X134.705 Y114.108 E.01889
;WIDTH:0.423212
G1 X134.144 Y114.667 E.02504
;WIDTH:0.424784
G1 X133.267 Y115.43 E.03691
;WIDTH:0.421565
G1 X132.803 Y115.781 E.01831
;WIDTH:0.423153
G1 X132.066 Y116.271 E.02799
G1 X131.638 Y116.532 E.01585
;WIDTH:0.419658
G1 X130.842 Y116.96 E.02833
;WIDTH:0.419762
G1 X130.29 Y117.214 E.01902
;WIDTH:0.419892
G1 X129.731 Y117.442 E.01893
;WIDTH:0.420122
G1 X129.165 Y117.643 E.01883
;WIDTH:0.420383
G1 X128.606 Y117.813 E.01835
;WIDTH:0.424626
G1 X128.044 Y117.951 E.01837
G1 X127.176 Y118.124 E.02808
;WIDTH:0.422985
G1 X126.308 Y118.245 E.0277
;WIDTH:0.421434
G1 X125.728 Y118.289 E.01831
;WIDTH:0.421606
G1 X125.144 Y118.308 E.0184
;WIDTH:0.421763
G1 X124.56 Y118.301 E.01841
;WIDTH:0.421908
G1 X123.976 Y118.269 E.01842
;WIDTH:0.42204
G1 X123.394 Y118.211 E.01842
G1 X122.819 Y118.128 E.01834
G1 X122.01 Y117.969 E.02598
;WIDTH:0.421046
G1 X121.14 Y117.736 E.02832
;WIDTH:0.424426
G1 X120.009 Y117.336 E.03805
;WIDTH:0.422444
G1 X119.472 Y117.105 E.01844
G1 X118.946 Y116.851 E.01844
;WIDTH:0.42229
G1 X118.432 Y116.574 E.01843
G1 X117.932 Y116.276 E.01835
;WIDTH:0.422033
G1 X117.199 Y115.782 E.02785
;WIDTH:0.42032
G1 X116.627 Y115.346 E.02257
;WIDTH:0.419215
