; generated by PrusaSlicer 2.5.2+win64 on 2023-05-19 at 12:51:26 UTC


;
;
; 

; external perimeters extrusion width = 0.45mm
; perimeters extrusion width = 0.45mm
; infill extrusion width = 0.45mm
; solid infill extrusion width = 0.45mm
; top infill extrusion width = 0.40mm
; first layer extrusion width = 0.42mm

M73 P0 R71
M73 Q0 S72
M201 X1000 Y1000 Z200 E5000 ; sets maximum accelerations, mm/sec^2
M203 X200 Y200 Z12 E120 ; sets maximum feedrates, mm / sec
M204 P1250 R1250 T1250 ; sets acceleration (P, T) and retract acceleration (R), mm/sec^2
M205 X8.00 Y8.00 Z0.40 E4.50 ; sets the jerk limits, mm/sec
M205 S0 T0 ; sets the minimum extruding and travel feed rate, mm/sec
M107
;TYPE:Custom
M862.3 P "MK3S" ; printer model check
M862.1 P0.4 ; nozzle diameter check
M115 U3.12.2 ; tell printer latest fw version
G90 ; use absolute coordinates
M83 ; extruder relative mode
M104 S240 ; set extruder temp
M140 S85 ; set bed temp
M190 S85 ; wait for bed temp
M109 S240 ; wait for extruder temp
G28 W ; home all without mesh bed level
G80 ; mesh bed leveling

G1 Z0.2 F720
G1 Y-3 F1000 ; go outside print area
G92 E0
G1 X60 E9 F1000 ; intro line
G1 X100 E12.5 F1000 ; intro line

G92 E0
M221 S95

; Don't change E values below. Excessive value can damage the printer.

M907 E538 ; set extruder motor current
G21 ; set units to millimeters
G90 ; use absolute coordinates
M83 ; use relative distances for extrusion
M900 K0.08 ; Filament gcode LA 1.5
M900 K45 ; Filament gcode LA 1.0
M107
;LAYER_CHANGE
;Z:0.2
;HEIGHT:0.2
;BEFORE_LAYER_CHANGE
G92 E0.0
;0.2


G1 E-1 F2100
G1 Z.2 F720
;AFTER_LAYER_CHANGE
;0.2
G1 Z.4
G1 X88.562 Y74.721 F10800
G1 Z.2 F720
G1 E1 F2100
M204 S800
;TYPE:Skirt/Brim
;WIDTH:0.42
G1 F1200
G1 X90.634 Y72.388 E.09782
G1 X91.812 Y71.19 E.05269
G1 X94.11 Y69.079 E.09782
G1 X95.403 Y68.006 E.05269
G1 X97.902 Y66.138 E.09782
G1 X99.298 Y65.201 E.05269
G1 X100.656 Y64.356 E.05018
G1 X103.384 Y62.842 E.09782
G1 X104.893 Y62.102 E.0527
G1 X107.76 Y60.871 E.09782
G1 X109.336 Y60.287 E.0527
G1 X112.313 Y59.353 E.09782
G1 X113.94 Y58.932 E.05269
G1 X116.996 Y58.304 E.09782
G1 X118.658 Y58.05 E.05269
G1 X121.762 Y57.734 E.09782
G1 X125.192 Y57.626 E.10762
G1 X128.158 Y57.729 E.09306
G1 X129.833 Y57.87 E.05269
G1 X132.924 Y58.291 E.09782
G1 X134.576 Y58.601 E.05269
G1 X137.609 Y59.332 E.09783
G1 X139.221 Y59.808 E.05269
G1 X142.165 Y60.842 E.09782
G1 X143.72 Y61.479 E.05269
G1 X146.544 Y62.805 E.09782
G1 X148.027 Y63.596 E.05269
G1 X149.412 Y64.397 E.05018
G1 X152.032 Y66.092 E.09782
G1 X153.395 Y67.075 E.05269
G1 X155.829 Y69.026 E.09782
G1 X157.086 Y70.142 E.0527
G1 X159.311 Y72.33 E.09782
G1 X160.448 Y73.567 E.0527
G1 X162.44 Y75.969 E.09782
G1 X163.446 Y77.315 E.05269
G1 X165.185 Y79.905 E.09782
G1 X167.033 Y83.152 E.11714
G1 X168.862 Y87.092 E.13619
G1 X169.593 Y89.014 E.06447
G1 X170.426 Y91.544 E.08353
G1 X170.874 Y93.164 E.0527
G1 X171.554 Y96.209 E.09782
G1 X171.836 Y97.866 E.0527
G1 X172.205 Y100.964 E.09782
G1 X172.318 Y102.64 E.05269
G1 X172.371 Y105.76 E.09782
G1 X172.314 Y107.44 E.05269
G1 X172.051 Y110.549 E.09783
G1 X171.824 Y112.214 E.05269
G1 X171.248 Y115.28 E.09783
G1 X170.854 Y116.914 E.05269
G1 X169.971 Y119.906 E.09783
G1 X168.771 Y123.122 E.10762
G1 X167.553 Y125.828 E.09306
G1 X166.787 Y127.325 E.05269
G1 X165.227 Y130.027 E.09782
G1 X164.314 Y131.438 E.0527
G1 X162.489 Y133.968 E.09782
G1 X161.438 Y135.279 E.05269
G1 X159.366 Y137.612 E.09782
G1 X158.188 Y138.81 E.05269
G1 X155.89 Y140.921 E.09782
G1 X154.597 Y141.994 E.05269
G1 X152.098 Y143.862 E.09782
G1 X150.702 Y144.799 E.05269
G1 X149.344 Y145.644 E.05018
G1 X146.616 Y147.158 E.09782
G1 X145.107 Y147.898 E.0527
G1 X142.24 Y149.129 E.09782
G1 X140.664 Y149.713 E.0527
G1 X137.687 Y150.647 E.09782
G1 X136.06 Y151.068 E.05269
G1 X133.004 Y151.696 E.09782
G1 X131.342 Y151.95 E.05269
G1 X128.238 Y152.266 E.09782
G1 X124.96 Y152.377 E.10286
G1 X121.842 Y152.271 E.09782
G1 X120.167 Y152.13 E.05269
G1 X117.076 Y151.709 E.09782
G1 X115.424 Y151.399 E.05269
G1 X112.391 Y150.668 E.09783
G1 X110.779 Y150.192 E.05269
G1 X107.835 Y149.158 E.09782
G1 X106.354 Y148.553 E.05018
G1 X104.821 Y147.864 E.05269
G1 X102.043 Y146.443 E.09782
G1 X100.588 Y145.603 E.05269
G1 X97.968 Y143.908 E.09782
G1 X96.605 Y142.925 E.05269
G1 X94.171 Y140.974 E.09782
G1 X91.435 Y138.429 E.11714
G1 X88.511 Y135.217 E.13619
G1 X86.601 Y132.75 E.09782
G1 X85.641 Y131.371 E.05269
G1 X83.991 Y128.723 E.09782
G1 X83.175 Y127.254 E.05269
G1 X81.801 Y124.453 E.09783
G1 X81.138 Y122.908 E.05269
G1 X80.055 Y119.982 E.09783
G1 X79.574 Y118.456 E.05018
G1 X79.126 Y116.836 E.0527
G1 X78.446 Y113.791 E.09782
G1 X78.164 Y112.134 E.0527
G1 X77.795 Y109.036 E.09782
G1 X77.682 Y107.36 E.05269
G1 X77.629 Y104.24 E.09782
G1 X77.686 Y102.56 E.05269
G1 X77.949 Y99.451 E.09783
G1 X78.176 Y97.786 E.05269
G1 X78.752 Y94.72 E.09783
M73 Q0 S71
G1 X79.146 Y93.086 E.05269
G1 X80.029 Y90.094 E.09783
G1 X81.229 Y86.878 E.10762
G1 X82.447 Y84.172 E.09306
G1 X83.213 Y82.675 E.05269
G1 X84.773 Y79.974 E.09782
G1 X85.686 Y78.562 E.0527
G1 X87.511 Y76.032 E.09782
G1 X88.525 Y74.768 E.05081
M204 S1000
; printing object Body1 id:0 copy 0
;WIPE_START
G1 F8640
G1 X90.634 Y72.388 E-.73425
G1 X91.289 Y71.722 E-.21575
;WIPE_END
G1 E-.05 F2100
G1 Z.4 F720
G1 X81.312 Y111.785 F10800
G1 Z.2 F720
G1 E1 F2100
M204 S800
;TYPE:Perimeter
;WIDTH:0.419999
G1 F1200
G1 X81.096 Y110.215 E.0497
G1 X80.945 Y108.729 E.04683
G1 X80.844 Y107.239 E.04682
G1 X80.793 Y105.747 E.04683
G1 X80.793 Y104.253 E.04683
G1 X80.844 Y102.761 E.04683
G1 X80.945 Y101.271 E.04682
G1 X81.096 Y99.785 E.04683
G1 X81.297 Y98.306 E.0468
G1 X81.578 Y96.688 E.05149
G1 X81.849 Y95.37 E.04219
G1 X82.199 Y93.918 E.04683
G1 X82.597 Y92.479 E.04682
G1 X83.044 Y91.054 E.04683
G1 X83.539 Y89.645 E.04683
G1 X84.082 Y88.253 E.04683
G1 X84.671 Y86.881 E.04683
G1 X85.306 Y85.529 E.04683
G1 X85.986 Y84.199 E.04683
G1 X86.711 Y82.894 E.04683
G1 X87.479 Y81.613 E.04682
G1 X88.29 Y80.359 E.04683
G1 X89.143 Y79.133 E.04682
G1 X90.038 Y77.937 E.04683
G1 X90.972 Y76.772 E.04683
G1 X91.944 Y75.638 E.04683
G1 X92.955 Y74.539 E.04683
G1 X94.002 Y73.474 E.04683
G1 X95.084 Y72.445 E.04682
G1 X96.201 Y71.453 E.04683
G1 X97.35 Y70.5 E.04682
G1 X98.531 Y69.586 E.04683
G1 X99.743 Y68.712 E.04683
G1 X100.983 Y67.879 E.04682
G1 X102.25 Y67.089 E.04683
G1 X103.543 Y66.343 E.04682
G1 X104.86 Y65.64 E.0468
G1 X106.337 Y64.922 E.05149
G1 X107.564 Y64.37 E.04219
G1 X108.947 Y63.805 E.04683
G1 X110.347 Y63.286 E.04683
G1 X111.764 Y62.815 E.04683
G1 X113.197 Y62.392 E.04683
G1 X114.642 Y62.018 E.04683
G1 X116.1 Y61.692 E.04683
G1 X117.568 Y61.416 E.04683
G1 X119.044 Y61.19 E.04683
G1 X120.527 Y61.014 E.04683
G1 X122.015 Y60.888 E.04682
G1 X123.506 Y60.812 E.0468
G1 X125.148 Y60.79 E.05149
G1 X126.493 Y60.812 E.04219
G1 X127.985 Y60.888 E.04683
G1 X129.473 Y61.014 E.04682
G1 X130.956 Y61.19 E.04683
G1 X132.432 Y61.416 E.04683
G1 X133.9 Y61.692 E.04683
G1 X135.358 Y62.018 E.04683
G1 X136.803 Y62.392 E.04683
G1 X138.236 Y62.815 E.04683
G1 X139.653 Y63.286 E.04683
G1 X141.053 Y63.805 E.04683
G1 X142.436 Y64.37 E.04683
G1 X143.798 Y64.982 E.04682
G1 X145.139 Y65.64 E.04683
G1 X146.457 Y66.343 E.04683
G1 X147.75 Y67.089 E.04682
G1 X149.017 Y67.879 E.04683
G1 X150.257 Y68.712 E.04682
G1 X151.469 Y69.586 E.04683
G1 X152.65 Y70.5 E.04683
G1 X153.799 Y71.453 E.04683
G1 X154.916 Y72.445 E.04683
G1 X155.998 Y73.474 E.04682
G1 X157.045 Y74.539 E.04683
G1 X158.056 Y75.639 E.04683
G1 X159.028 Y76.772 E.04683
G1 X159.962 Y77.937 E.04683
G1 X160.856 Y79.133 E.04683
G1 X161.71 Y80.359 E.04683
G1 X162.521 Y81.613 E.04683
G1 X163.289 Y82.894 E.04682
G1 X164.014 Y84.199 E.04683
G1 X164.694 Y85.529 E.04683
G1 X165.329 Y86.88 E.0468
G1 X165.972 Y88.391 E.05148
G1 X166.461 Y89.645 E.04219
G1 X166.956 Y91.054 E.04683
G1 X167.403 Y92.479 E.04683
G1 X167.801 Y93.918 E.04682
G1 X168.151 Y95.37 E.04683
G1 X168.452 Y96.833 E.04683
G1 X168.703 Y98.305 E.04683
G1 X168.904 Y99.785 E.04682
G1 X169.055 Y101.271 E.04683
G1 X169.156 Y102.761 E.04682
G1 X169.196 Y103.95 E.0373
G1 X169.207 Y105.747 E.05635
G1 X169.156 Y107.239 E.04683
G1 X169.055 Y108.729 E.04682
G1 X168.904 Y110.215 E.04683
G1 X168.703 Y111.694 E.0468
G1 X168.422 Y113.312 E.05149
G1 X168.151 Y114.63 E.04219
G1 X167.801 Y116.082 E.04683
G1 X167.403 Y117.521 E.04682
G1 X166.956 Y118.946 E.04683
G1 X166.461 Y120.355 E.04683
G1 X165.918 Y121.747 E.04683
G1 X165.329 Y123.119 E.04683
G1 X164.694 Y124.471 E.04683
G1 X164.014 Y125.801 E.04683
G1 X163.289 Y127.106 E.04683
G1 X162.521 Y128.387 E.04682
G1 X161.71 Y129.641 E.04683
G1 X160.857 Y130.867 E.04682
G1 X159.962 Y132.063 E.04683
G1 X159.028 Y133.228 E.04683
G1 X158.056 Y134.362 E.04683
G1 X157.045 Y135.461 E.04683
G1 X155.998 Y136.526 E.04683
G1 X154.916 Y137.555 E.04682
G1 X153.799 Y138.547 E.04683
G1 X152.65 Y139.5 E.04682
G1 X151.469 Y140.414 E.04683
G1 X150.257 Y141.288 E.04683
G1 X149.017 Y142.121 E.04682
G1 X147.75 Y142.911 E.04683
G1 X146.457 Y143.657 E.04682
G1 X145.14 Y144.36 E.0468
G1 X143.663 Y145.078 E.05149
G1 X142.436 Y145.63 E.04219
G1 X141.053 Y146.195 E.04683
G1 X139.653 Y146.714 E.04683
G1 X138.236 Y147.185 E.04683
G1 X136.803 Y147.608 E.04683
G1 X135.358 Y147.982 E.04683
G1 X133.9 Y148.308 E.04683
G1 X132.432 Y148.584 E.04683
G1 X130.956 Y148.81 E.04683
G1 X129.473 Y148.986 E.04683
G1 X127.985 Y149.112 E.04682
G1 X126.493 Y149.188 E.04683
G1 X125 Y149.213 E.04683
G1 X123.507 Y149.188 E.04683
G1 X122.015 Y149.112 E.04683
G1 X120.527 Y148.986 E.04682
G1 X119.044 Y148.81 E.04683
G1 X117.568 Y148.584 E.04683
G1 X116.1 Y148.308 E.04683
G1 X114.642 Y147.982 E.04683
G1 X113.197 Y147.608 E.04683
G1 X111.764 Y147.185 E.04683
G1 X110.347 Y146.714 E.04683
G1 X108.947 Y146.195 E.04683
G1 X107.564 Y145.63 E.04683
G1 X106.202 Y145.018 E.04682
G1 X104.861 Y144.36 E.04683
G1 X103.543 Y143.657 E.04683
G1 X102.25 Y142.911 E.04682
G1 X100.983 Y142.121 E.04683
G1 X99.743 Y141.288 E.04682
G1 X98.531 Y140.414 E.04683
G1 X97.35 Y139.5 E.04683
G1 X96.201 Y138.547 E.04683
G1 X95.084 Y137.555 E.04683
G1 X94.002 Y136.526 E.04682
G1 X92.955 Y135.461 E.04683
G1 X91.944 Y134.361 E.04683
G1 X90.972 Y133.228 E.04683
G1 X90.038 Y132.063 E.04683
G1 X89.144 Y130.867 E.04683
G1 X88.29 Y129.641 E.04683
G1 X87.479 Y128.387 E.04683
G1 X86.711 Y127.106 E.04682
G1 X85.986 Y125.801 E.04683
G1 X85.306 Y124.471 E.04683
G1 X84.671 Y123.12 E.0468
G1 X84.028 Y121.609 E.05148
G1 X83.539 Y120.355 E.04219
G1 X83.044 Y118.946 E.04683
G1 X82.597 Y117.521 E.04683
G1 X82.199 Y116.082 E.04682
G1 X81.849 Y114.63 E.04683
G1 X81.548 Y113.167 E.04683
G1 X81.323 Y111.845 E.04207
M204 S1000
G1 X80.941 Y111.849 F10800
M204 S800
;TYPE:External perimeter
G1 F1200
G1 X80.721 Y110.26 E.0503
G1 X80.569 Y108.761 E.04723
G1 X80.467 Y107.258 E.04722
G1 X80.416 Y105.753 E.04723
G1 X80.416 Y104.247 E.04722
G1 X80.467 Y102.742 E.04723
G1 X80.569 Y101.239 E.04722
G1 X80.721 Y99.74 E.04723
G1 X80.924 Y98.248 E.04721
G1 X81.207 Y96.618 E.05189
G1 X81.481 Y95.288 E.04258
G1 X81.834 Y93.823 E.04722
G1 X82.236 Y92.372 E.04722
G1 X82.687 Y90.935 E.04723
G1 X83.186 Y89.514 E.04723
G1 X83.733 Y88.11 E.04723
G1 X84.327 Y86.726 E.04723
G1 X84.967 Y85.363 E.04723
G1 X85.653 Y84.022 E.04723
G1 X86.384 Y82.705 E.04723
G1 X87.159 Y81.414 E.04722
G1 X87.977 Y80.149 E.04723
G1 X88.838 Y78.913 E.04722
G1 X89.739 Y77.706 E.04723
G1 X90.681 Y76.531 E.04723
G1 X91.662 Y75.388 E.04723
G1 X92.682 Y74.279 E.04723
G1 X93.738 Y73.205 E.04723
G1 X94.829 Y72.167 E.04722
G1 X95.955 Y71.167 E.04723
G1 X97.115 Y70.205 E.04722
G1 X98.306 Y69.283 E.04723
G1 X99.527 Y68.402 E.04723
G1 X100.778 Y67.563 E.04722
G1 X102.056 Y66.766 E.04723
G1 X103.36 Y66.013 E.04722
G1 X104.689 Y65.304 E.04722
G1 X106.177 Y64.58 E.05189
G1 X107.416 Y64.024 E.04257
G1 X108.81 Y63.453 E.04723
G1 X110.222 Y62.93 E.04723
G1 X111.651 Y62.455 E.04723
G1 X113.096 Y62.028 E.04723
G1 X114.554 Y61.651 E.04723
G1 X116.024 Y61.323 E.04723
G1 X117.504 Y61.045 E.04723
G1 X118.993 Y60.816 E.04723
G1 X120.489 Y60.639 E.04723
G1 X121.99 Y60.512 E.04722
G1 X123.494 Y60.436 E.04722
G1 X125.148 Y60.413 E.05188
G1 X126.506 Y60.435 E.04257
G1 X128.01 Y60.512 E.04723
G1 X129.511 Y60.639 E.04722
G1 X131.007 Y60.816 E.04723
G1 X132.496 Y61.045 E.04723
G1 X133.976 Y61.323 E.04723
G1 X135.446 Y61.651 E.04723
G1 X136.904 Y62.028 E.04723
G1 X138.349 Y62.455 E.04723
G1 X139.778 Y62.93 E.04723
G1 X141.19 Y63.453 E.04723
G1 X142.584 Y64.024 E.04723
G1 X143.958 Y64.641 E.04722
G1 X145.311 Y65.304 E.04723
G1 X146.64 Y66.013 E.04723
G1 X147.944 Y66.766 E.04722
G1 X149.222 Y67.563 E.04723
G1 X150.473 Y68.402 E.04722
G1 X151.694 Y69.283 E.04723
G1 X152.885 Y70.205 E.04723
G1 X154.045 Y71.167 E.04722
G1 X155.171 Y72.167 E.04723
G1 X156.262 Y73.205 E.04722
G1 X157.318 Y74.279 E.04723
G1 X158.338 Y75.388 E.04723
G1 X159.319 Y76.531 E.04723
G1 X160.261 Y77.706 E.04723
G1 X161.162 Y78.913 E.04723
G1 X162.023 Y80.149 E.04723
G1 X162.841 Y81.414 E.04723
G1 X163.616 Y82.705 E.04722
G1 X164.347 Y84.022 E.04723
G1 X165.033 Y85.363 E.04723
G1 X165.673 Y86.726 E.04722
G1 X166.321 Y88.248 E.05188
G1 X166.814 Y89.514 E.04257
G1 X167.313 Y90.935 E.04723
M73 P1 R71
M73 Q1 S71
G1 X167.764 Y92.372 E.04723
G1 X168.166 Y93.823 E.04722
G1 X168.519 Y95.288 E.04722
G1 X168.823 Y96.763 E.04723
G1 X169.076 Y98.248 E.04723
G1 X169.279 Y99.74 E.04722
G1 X169.431 Y101.239 E.04723
G1 X169.533 Y102.742 E.04722
G1 X169.584 Y104.557 E.05695
G1 X169.584 Y105.753 E.0375
G1 X169.533 Y107.258 E.04723
G1 X169.431 Y108.761 E.04722
G1 X169.279 Y110.26 E.04723
M73 P1 R70
G1 X169.076 Y111.752 E.04721
G1 X168.793 Y113.382 E.05189
G1 X168.519 Y114.712 E.04258
G1 X168.166 Y116.177 E.04722
G1 X167.764 Y117.628 E.04722
G1 X167.313 Y119.065 E.04723
G1 X166.814 Y120.486 E.04723
G1 X166.267 Y121.89 E.04723
G1 X165.673 Y123.274 E.04723
G1 X165.033 Y124.637 E.04723
G1 X164.347 Y125.978 E.04723
G1 X163.616 Y127.295 E.04723
G1 X162.841 Y128.586 E.04722
G1 X162.023 Y129.851 E.04723
G1 X161.162 Y131.087 E.04722
G1 X160.261 Y132.294 E.04723
G1 X159.319 Y133.469 E.04723
G1 X158.338 Y134.612 E.04723
G1 X157.318 Y135.721 E.04723
G1 X156.262 Y136.795 E.04723
G1 X155.171 Y137.833 E.04722
G1 X154.045 Y138.833 E.04723
G1 X152.885 Y139.795 E.04722
G1 X151.694 Y140.717 E.04723
G1 X150.473 Y141.598 E.04723
G1 X149.222 Y142.437 E.04722
G1 X147.944 Y143.234 E.04723
G1 X146.64 Y143.987 E.04722
G1 X145.311 Y144.696 E.04722
G1 X143.823 Y145.42 E.05189
G1 X142.584 Y145.976 E.04257
G1 X141.19 Y146.547 E.04723
G1 X139.778 Y147.07 E.04723
G1 X138.349 Y147.545 E.04723
G1 X136.904 Y147.972 E.04723
G1 X135.446 Y148.349 E.04723
G1 X133.976 Y148.677 E.04723
G1 X132.496 Y148.955 E.04723
G1 X131.007 Y149.184 E.04723
G1 X129.511 Y149.361 E.04723
G1 X128.01 Y149.488 E.04722
G1 X126.506 Y149.565 E.04723
G1 X125 Y149.59 E.04723
G1 X123.494 Y149.565 E.04723
G1 X121.99 Y149.488 E.04723
G1 X120.489 Y149.361 E.04722
G1 X118.993 Y149.184 E.04723
G1 X117.504 Y148.955 E.04723
G1 X116.024 Y148.677 E.04723
G1 X114.554 Y148.349 E.04723
G1 X113.096 Y147.972 E.04723
G1 X111.651 Y147.545 E.04723
G1 X110.222 Y147.07 E.04723
G1 X108.81 Y146.547 E.04723
G1 X107.416 Y145.976 E.04723
G1 X106.042 Y145.359 E.04722
G1 X104.689 Y144.696 E.04723
G1 X103.36 Y143.987 E.04723
G1 X102.056 Y143.234 E.04722
G1 X100.778 Y142.437 E.04723
G1 X99.527 Y141.598 E.04722
G1 X98.306 Y140.717 E.04723
G1 X97.115 Y139.795 E.04723
G1 X95.955 Y138.833 E.04722
G1 X94.829 Y137.833 E.04723
G1 X93.738 Y136.795 E.04722
G1 X92.682 Y135.721 E.04723
G1 X91.662 Y134.612 E.04723
G1 X90.681 Y133.469 E.04723
G1 X89.739 Y132.294 E.04723
G1 X88.838 Y131.087 E.04723
G1 X87.977 Y129.851 E.04723
G1 X87.159 Y128.586 E.04723
G1 X86.384 Y127.295 E.04722
G1 X85.653 Y125.978 E.04723
G1 X84.967 Y124.637 E.04723
G1 X84.327 Y123.274 E.04722
G1 X83.679 Y121.752 E.05188
G1 X83.186 Y120.486 E.04257
G1 X82.687 Y119.065 E.04723
G1 X82.236 Y117.628 E.04723
G1 X81.834 Y116.177 E.04722
G1 X81.481 Y114.712 E.04722
G1 X81.177 Y113.237 E.04723
G1 X80.951 Y111.908 E.04227
M204 S1000
G1 X81.252 Y111.598 F10800
;WIPE_START
G1 F8640
G1 X80.721 Y110.26 E-.38426
G1 X80.569 Y108.761 E-.34781
