; generated by PrusaSlicer 2.5.2+win64 on 2023-05-19 at 12:52:51 UTC


;
;
; 

; external perimeters extrusion width = 0.45mm
; perimeters extrusion width = 0.45mm
; infill extrusion width = 0.45mm
; solid infill extrusion width = 0.45mm
; top infill extrusion width = 0.40mm
; first layer extrusion width = 0.42mm

M73 P0 R66
M73 Q0 S66
M201 X1000 Y1000 Z200 E5000 ; sets maximum accelerations, mm/sec^2
M203 X200 Y200 Z12 E120 ; sets maximum feedrates, mm / sec
M204 P1250 R1250 T1250 ; sets acceleration (P, T) and retract acceleration (R), mm/sec^2
M205 X8.00 Y8.00 Z0.40 E4.50 ; sets the jerk limits, mm/sec
M205 S0 T0 ; sets the minimum extruding and travel feed rate, mm/sec
M107
;TYPE:Custom
M862.3 P "MK3S" ; printer model check
M862.1 P0.4 ; nozzle diameter check
M115 U3.12.2 ; tell printer latest fw version
G90 ; use absolute coordinates
M83 ; extruder relative mode
M104 S240 ; set extruder temp
M140 S85 ; set bed temp
M190 S85 ; wait for bed temp
M109 S240 ; wait for extruder temp
G28 W ; home all without mesh bed level
G80 ; mesh bed leveling

G1 Z0.2 F720
G1 Y-3 F1000 ; go outside print area
G92 E0
G1 X60 E9 F1000 ; intro line
G1 X100 E12.5 F1000 ; intro line

G92 E0
M221 S95

; Don't change E values below. Excessive value can damage the printer.

M907 E538 ; set extruder motor current
G21 ; set units to millimeters
G90 ; use absolute coordinates
M83 ; use relative distances for extrusion
M900 K0.08 ; Filament gcode LA 1.5
M900 K45 ; Filament gcode LA 1.0
M107
;LAYER_CHANGE
;Z:0.2
;HEIGHT:0.2
;BEFORE_LAYER_CHANGE
G92 E0.0
;0.2


G1 E-1 F2100
G1 Z.2 F720
;AFTER_LAYER_CHANGE
;0.2
G1 Z.4
G1 X91.032 Y72.063 F10800
G1 Z.2 F720
G1 E1 F2100
M204 S800
;TYPE:Skirt/Brim
;WIDTH:0.42
G1 F1200
G1 X92.872 Y69.766 E.09227
G1 X95.833 Y66.658 E.13459
G1 X99.093 Y63.865 E.13459
G1 X102.618 Y61.416 E.1346
G1 X106.301 Y59.372 E.13208
G1 X110.245 Y57.675 E.1346
G1 X114.339 Y56.386 E.13459
G1 X118.543 Y55.518 E.1346
G1 X122.814 Y55.08 E.13459
G1 X125.756 Y55.03 E.09227
G1 X130.039 Y55.324 E.13459
G1 X134.269 Y56.049 E.13459
G1 X138.405 Y57.199 E.13459
G1 X142.33 Y58.729 E.13208
G1 X146.154 Y60.681 E.1346
G1 X149.76 Y63.009 E.13459
G1 X153.112 Y65.69 E.1346
G1 X155.276 Y67.75 E.09366
G1 X158.093 Y70.93 E.1332
G1 X160.601 Y74.414 E.13459
G1 X162.744 Y78.133 E.13459
G1 X164.499 Y82.051 E.13459
G1 X165.849 Y86.125 E.13459
G1 X166.767 Y90.237 E.13208
G1 X167.277 Y94.499 E.13459
G1 X167.354 Y98.791 E.13459
G1 X166.996 Y103.069 E.13459
G1 X166.207 Y107.288 E.13459
G1 X164.995 Y111.407 E.13459
G1 X163.373 Y115.381 E.13459
G1 X161.357 Y119.171 E.13459
G1 X158.968 Y122.737 E.13459
G1 X157.128 Y125.034 E.09227
G1 X154.167 Y128.142 E.13459
G1 X150.907 Y130.935 E.13459
G1 X147.382 Y133.384 E.1346
G1 X143.699 Y135.428 E.13208
G1 X139.755 Y137.125 E.1346
G1 X135.661 Y138.414 E.13459
G1 X131.457 Y139.282 E.1346
G1 X127.186 Y139.72 E.13459
G1 X124.244 Y139.77 E.09227
G1 X119.961 Y139.476 E.13459
G1 X115.731 Y138.751 E.13459
G1 X111.595 Y137.601 E.13459
G1 X107.67 Y136.071 E.13208
G1 X103.846 Y134.119 E.1346
G1 X100.24 Y131.791 E.13459
G1 X96.888 Y129.11 E.1346
M73 P0 R65
G1 X94.724 Y127.05 E.09366
G1 X91.907 Y123.87 E.1332
G1 X89.399 Y120.386 E.13459
G1 X87.256 Y116.667 E.13459
G1 X85.501 Y112.749 E.13459
G1 X84.151 Y108.675 E.13459
G1 X83.233 Y104.563 E.13208
G1 X82.723 Y100.301 E.13459
G1 X82.646 Y96.009 E.13459
G1 X83.004 Y91.731 E.13459
G1 X83.793 Y87.512 E.13459
G1 X85.005 Y83.393 E.13459
G1 X86.627 Y79.419 E.13459
G1 X88.643 Y75.629 E.13459
G1 X90.999 Y72.113 E.13271
M204 S1000
; printing object Body1 id:0 copy 0
;WIPE_START
G1 F8640
G1 X92.872 Y69.766 E-.69329
G1 X93.639 Y68.961 E-.25671
;WIPE_END
G1 E-.05 F2100
G1 Z.4 F720
G1 X155.438 Y100.746 F10800
G1 Z.2 F720
G1 E1 F2100
M204 S800
;TYPE:Perimeter
;WIDTH:0.419999
G1 F1200
G1 X154.632 Y100.763 E.02528
G1 X153.774 Y100.553 E.02769
G1 X152.999 Y100.129 E.02769
G1 X152.361 Y99.518 E.02769
G1 X151.903 Y98.763 E.02769
G1 X151.656 Y97.915 E.0277
G1 X151.637 Y97.388 E.01651
G1 X151.656 Y96.885 E.01579
G1 X151.847 Y96.174 E.0231
G1 X152.271 Y95.399 E.02769
G1 X152.724 Y94.919 E.02069
G1 X152.999 Y94.671 E.01161
G1 X153.637 Y94.303 E.0231
G1 X154.132 Y94.126 E.01649
G1 X154.907 Y94.019 E.02453
G1 X155.437 Y94.041 E.01662
G1 X156.226 Y94.247 E.02557
G1 X157.001 Y94.671 E.02769
G1 X157.587 Y95.231 E.02541
G1 X157.759 Y95.453 E.00882
G1 X158.097 Y96.037 E.02116
G1 X158.153 Y96.174 E.00463
G1 X158.344 Y96.885 E.0231
G1 X158.363 Y97.4 E.01615
G1 X158.347 Y97.905 E.01585
G1 X158.153 Y98.626 E.0234
G1 X157.759 Y99.347 E.02576
G1 X157.583 Y99.573 E.00897
G1 X157.118 Y100.039 E.02065
G1 X156.584 Y100.369 E.0197
G1 X156.226 Y100.553 E.0126
G1 X155.498 Y100.745 E.02362
M204 S1000
;WIPE_START
G1 F8640
G1 X154.632 Y100.763 E-.19999
G1 X153.774 Y100.553 E-.20395
G1 X152.999 Y100.129 E-.20395
G1 X152.361 Y99.518 E-.20395
G1 X152.051 Y99.006 E-.13816
;WIPE_END
G1 E-.05 F2100
G1 Z.4 F720
G1 X156.325 Y100.081 F10800
G1 Z.2 F720
G1 E1 F2100
M204 S800
;TYPE:External perimeter
G1 F1200
G1 X156.129 Y100.189 E.00703
G1 X155.417 Y100.38 E.0231
G1 X154.632 Y100.386 E.02463
G1 X153.871 Y100.189 E.02463
G1 X153.188 Y99.802 E.02463
G1 X152.628 Y99.251 E.02463
G1 X152.23 Y98.574 E.02463
G1 X152.02 Y97.817 E.02463
G1 X152.014 Y97.032 E.02463
G1 X152.211 Y96.271 E.02463
G1 X152.598 Y95.588 E.02463
G1 X152.991 Y95.186 E.01763
G1 X153.188 Y94.998 E.00854
G1 X153.826 Y94.63 E.0231
G1 X154.245 Y94.487 E.01387
G1 X154.957 Y94.392 E.02254
G1 X155.417 Y94.42 E.01445
G1 X156.129 Y94.611 E.0231
G1 X156.812 Y94.998 E.02463
G1 X157.32 Y95.497 E.02234
G1 X157.77 Y96.226 E.02685
G1 X157.981 Y96.986 E.02473
G1 X157.986 Y97.768 E.02453
G1 X157.789 Y98.529 E.02463
G1 X157.433 Y99.159 E.0227
G1 X156.851 Y99.772 E.0265
G1 X156.378 Y100.052 E.01725
M204 S1000
G1 X156.335 Y100.305 F10800
;WIPE_START
G1 F8640
G1 X156.129 Y100.189 E-.0656
G1 X155.417 Y100.38 E-.17012
G1 X154.632 Y100.386 E-.18137
G1 X153.871 Y100.189 E-.18137
G1 X153.188 Y99.802 E-.18137
G1 X152.663 Y99.285 E-.17016
;WIPE_END
G1 E-.05 F2100
G1 Z.4 F720
G1 X122.956 Y136.559 F10800
G1 Z.2 F720
G1 E1 F2100
M204 S800
;TYPE:Perimeter
G1 F1200
G1 X121.692 Y136.473 E.03972
G1 X120.375 Y136.339 E.04153
G1 X119.062 Y136.161 E.04153
G1 X117.756 Y135.938 E.04153
G1 X116.459 Y135.671 E.04153
G1 X115.171 Y135.361 E.04153
G1 X113.895 Y135.007 E.04153
G1 X112.631 Y134.611 E.04153
G1 X111.381 Y134.172 E.04153
G1 X110.147 Y133.691 E.04153
G1 X108.93 Y133.169 E.04153
G1 X107.731 Y132.605 E.04153
G1 X106.552 Y132.002 E.04153
G1 X105.394 Y131.359 E.04153
G1 X104.258 Y130.678 E.04153
G1 X103.141 Y129.955 E.0417
G1 X102.059 Y129.202 E.04136
G1 X100.998 Y128.409 E.04153
G1 X99.964 Y127.58 E.04153
G1 X98.959 Y126.717 E.04153
G1 X97.984 Y125.821 E.04153
G1 X97.039 Y124.892 E.04153
G1 X96.127 Y123.932 E.04153
G1 X95.247 Y122.942 E.04153
G1 X94.401 Y121.923 E.04153
G1 X93.591 Y120.875 E.04153
G1 X92.816 Y119.801 E.04153
G1 X92.077 Y118.701 E.04153
G1 X91.374 Y117.572 E.0417
G1 X90.714 Y116.43 E.04136
G1 X90.091 Y115.261 E.04153
G1 X89.508 Y114.072 E.04153
G1 X88.965 Y112.864 E.04153
G1 X88.463 Y111.638 E.04153
G1 X88.002 Y110.391 E.0417
G1 X87.586 Y109.139 E.04136
G1 X87.21 Y107.869 E.04153
G1 X86.877 Y106.581 E.0417
G1 X86.59 Y105.293 E.04136
G1 X86.345 Y103.992 E.04153
G1 X86.144 Y102.677 E.0417
G1 X85.988 Y101.367 E.04136
G1 X85.877 Y100.047 E.04153
G1 X85.81 Y98.724 E.04153
G1 X85.787 Y97.4 E.04153
G1 X85.81 Y96.076 E.04153
G1 X85.877 Y94.753 E.04153
G1 X85.988 Y93.433 E.04153
G1 X86.145 Y92.118 E.04153
G1 X86.345 Y90.808 E.04153
G1 X86.59 Y89.507 E.04153
G1 X86.878 Y88.214 E.04153
G1 X87.21 Y86.931 E.04153
G1 X87.586 Y85.661 E.04153
G1 X88.003 Y84.404 E.04153
G1 X88.465 Y83.157 E.0417
G1 X88.965 Y81.936 E.04136
G1 X89.508 Y80.728 E.04153
G1 X90.094 Y79.534 E.04171
G1 X90.714 Y78.37 E.04136
G1 X91.377 Y77.223 E.04153
G1 X92.077 Y76.099 E.04153
G1 X92.816 Y74.999 E.04153
G1 X93.591 Y73.925 E.04153
G1 X94.401 Y72.877 E.04153
G1 X95.247 Y71.858 E.04153
G1 X96.127 Y70.867 E.04153
G1 X97.039 Y69.908 E.04153
G1 X97.984 Y68.979 E.04153
G1 X98.959 Y68.083 E.04153
G1 X99.964 Y67.22 E.04153
G1 X100.998 Y66.391 E.04153
G1 X102.059 Y65.598 E.04153
G1 X103.146 Y64.842 E.04153
G1 X104.258 Y64.122 E.04153
G1 X105.398 Y63.438 E.0417
G1 X106.552 Y62.798 E.04136
G1 X107.731 Y62.195 E.04153
G1 X108.935 Y61.629 E.0417
G1 X110.147 Y61.109 E.04136
G1 X111.381 Y60.628 E.04153
G1 X112.631 Y60.189 E.04153
G1 X113.895 Y59.793 E.04153
G1 X115.171 Y59.439 E.04153
G1 X116.459 Y59.129 E.04153
G1 X117.756 Y58.862 E.04153
G1 X119.062 Y58.639 E.04153
G1 X120.375 Y58.461 E.04153
G1 X121.692 Y58.327 E.04153
G1 X123.014 Y58.238 E.04153
G1 X124.338 Y58.193 E.04153
G1 X125.668 Y58.193 E.0417
G1 X126.986 Y58.238 E.04136
G1 X128.308 Y58.327 E.04153
G1 X129.625 Y58.461 E.04153
G1 X130.938 Y58.639 E.04153
G1 X132.244 Y58.862 E.04153
G1 X133.541 Y59.129 E.04153
G1 X134.829 Y59.439 E.04153
G1 X136.105 Y59.793 E.04153
G1 X137.369 Y60.189 E.04153
G1 X138.619 Y60.628 E.04153
G1 X139.853 Y61.109 E.04153
G1 X141.07 Y61.631 E.04153
G1 X142.269 Y62.195 E.04153
G1 X143.448 Y62.798 E.04153
G1 X144.606 Y63.441 E.04153
G1 X145.747 Y64.125 E.0417
G1 X146.854 Y64.842 E.04136
G1 X147.941 Y65.599 E.04153
G1 X149.002 Y66.391 E.04153
G1 X150.036 Y67.22 E.04153
G1 X151.041 Y68.083 E.04153
G1 X152.016 Y68.979 E.04153
G1 X152.961 Y69.908 E.04153
G1 X153.873 Y70.867 E.04153
G1 X154.753 Y71.858 E.04153
G1 X155.599 Y72.877 E.04153
G1 X156.409 Y73.925 E.04153
G1 X157.184 Y74.999 E.04153
G1 X157.923 Y76.099 E.04153
G1 X158.623 Y77.223 E.04153
G1 X159.286 Y78.37 E.04153
G1 X159.909 Y79.539 E.04153
G1 X160.492 Y80.728 E.04153
G1 X161.035 Y81.936 E.04153
G1 X161.537 Y83.162 E.04153
G1 X161.998 Y84.409 E.0417
G1 X162.414 Y85.661 E.04136
G1 X162.79 Y86.931 E.04153
G1 X163.122 Y88.214 E.04153
G1 X163.41 Y89.507 E.04153
G1 X163.655 Y90.808 E.04153
G1 X163.856 Y92.123 E.0417
G1 X164.012 Y93.433 E.04136
G1 X164.123 Y94.753 E.04153
G1 X164.19 Y96.076 E.04153
G1 X164.212 Y97.449 E.04308
G1 X164.19 Y98.724 E.03998
G1 X164.123 Y100.047 E.04153
G1 X164.012 Y101.367 E.04153
G1 X163.855 Y102.682 E.04153
G1 X163.655 Y103.992 E.04153
G1 X163.41 Y105.293 E.04153
G1 X163.122 Y106.586 E.04153
G1 X162.79 Y107.869 E.04153
G1 X162.414 Y109.139 E.04153
G1 X161.997 Y110.396 E.04153
G1 X161.535 Y111.643 E.0417
G1 X161.035 Y112.864 E.04136
G1 X160.492 Y114.072 E.04153
G1 X159.906 Y115.266 E.04171
G1 X159.286 Y116.43 E.04136
G1 X158.623 Y117.577 E.04153
G1 X157.923 Y118.701 E.04153
G1 X157.184 Y119.801 E.04153
G1 X156.409 Y120.875 E.04153
G1 X155.599 Y121.923 E.04153
G1 X154.753 Y122.942 E.04153
G1 X153.873 Y123.932 E.04153
G1 X152.961 Y124.892 E.04153
G1 X152.016 Y125.821 E.04153
G1 X151.041 Y126.717 E.04153
G1 X150.036 Y127.58 E.04153
G1 X149.002 Y128.409 E.04153
G1 X147.941 Y129.202 E.04153
G1 X146.854 Y129.958 E.04153
G1 X145.742 Y130.678 E.04153
G1 X144.602 Y131.362 E.0417
G1 X143.448 Y132.002 E.04136
G1 X142.269 Y132.605 E.04153
G1 X141.065 Y133.171 E.0417
G1 X139.853 Y133.691 E.04136
G1 X138.619 Y134.172 E.04153
G1 X137.369 Y134.611 E.04153
G1 X136.105 Y135.007 E.04153
G1 X134.829 Y135.361 E.04153
G1 X133.541 Y135.671 E.04153
G1 X132.244 Y135.938 E.04153
G1 X130.938 Y136.161 E.04153
G1 X129.625 Y136.339 E.04153
G1 X128.308 Y136.473 E.04153
G1 X126.986 Y136.562 E.04153
G1 X125.662 Y136.607 E.04153
G1 X124.338 Y136.607 E.04153
G1 X123.016 Y136.563 E.04146
M204 S1000
G1 X122.931 Y136.935 F10800
M204 S800
;TYPE:External perimeter
G1 F1200
G1 X121.661 Y136.849 E.03992
G1 X120.33 Y136.714 E.04193
G1 X119.005 Y136.533 E.04193
G1 X117.687 Y136.309 E.04193
G1 X116.377 Y136.039 E.04193
G1 X115.077 Y135.726 E.04193
G1 X113.788 Y135.369 E.04193
G1 X112.512 Y134.969 E.04193
G1 X111.25 Y134.526 E.04193
G1 X110.004 Y134.04 E.04193
G1 X108.775 Y133.513 E.04193
G1 X107.565 Y132.944 E.04193
G1 X106.374 Y132.335 E.04193
G1 X105.205 Y131.686 E.04193
G1 X104.058 Y130.998 E.04193
G1 X102.931 Y130.268 E.0421
G1 X101.838 Y129.507 E.04176
G1 X100.767 Y128.707 E.04193
G1 X99.723 Y127.87 E.04193
G1 X98.709 Y126.999 E.04193
G1 X97.724 Y126.095 E.04193
G1 X96.77 Y125.157 E.04193
G1 X95.849 Y124.188 E.04193
G1 X94.961 Y123.188 E.04193
G1 X94.107 Y122.159 E.04193
G1 X93.288 Y121.101 E.04193
G1 X92.506 Y120.016 E.04193
G1 X91.761 Y118.906 E.04193
G1 X91.051 Y117.766 E.0421
G1 X90.385 Y116.613 E.04176
G1 X89.756 Y115.433 E.04193
G1 X89.167 Y114.232 E.04193
G1 X88.619 Y113.013 E.04193
G1 X88.112 Y111.775 E.04193
G1 X87.646 Y110.516 E.0421
G1 X87.226 Y109.252 E.04176
G1 X86.847 Y107.969 E.04193
G1 X86.511 Y106.669 E.0421
G1 X86.22 Y105.369 E.04176
G1 X85.973 Y104.055 E.04193
G1 X85.77 Y102.728 E.0421
G1 X85.613 Y101.405 E.04176
G1 X85.5 Y100.073 E.04193
G1 X85.433 Y98.737 E.04193
G1 X85.41 Y97.4 E.04193
G1 X85.433 Y96.063 E.04193
G1 X85.5 Y94.727 E.04193
M73 Q1 S66
G1 X85.613 Y93.395 E.04193
M73 P1 R65
G1 X85.771 Y92.067 E.04193
G1 X85.973 Y90.745 E.04193
G1 X86.22 Y89.431 E.04193
G1 X86.512 Y88.125 E.04193
G1 X86.847 Y86.831 E.04193
G1 X87.226 Y85.548 E.04193
G1 X87.648 Y84.279 E.04193
G1 X88.114 Y83.02 E.0421
G1 X88.619 Y81.787 E.04176
G1 X89.167 Y80.568 E.04193
G1 X89.758 Y79.362 E.04211
G1 X90.385 Y78.187 E.04176
G1 X91.053 Y77.029 E.04193
G1 X91.761 Y75.894 E.04193
G1 X92.506 Y74.784 E.04193
G1 X93.288 Y73.699 E.04193
G1 X94.107 Y72.641 E.04193
G1 X94.961 Y71.612 E.04193
G1 X95.849 Y70.612 E.04193
G1 X96.77 Y69.643 E.04193
G1 X97.724 Y68.705 E.04193
G1 X98.709 Y67.801 E.04193
G1 X99.723 Y66.93 E.04193
G1 X100.767 Y66.093 E.04193
G1 X101.838 Y65.293 E.04193
G1 X102.936 Y64.529 E.04193
G1 X104.058 Y63.802 E.04193
G1 X105.21 Y63.111 E.0421
G1 X106.374 Y62.465 E.04176
G1 X107.565 Y61.856 E.04193
G1 X108.78 Y61.285 E.0421
G1 X110.004 Y60.76 E.04176
G1 X111.25 Y60.274 E.04193
G1 X112.512 Y59.831 E.04193
G1 X113.788 Y59.431 E.04193
G1 X115.077 Y59.074 E.04193
G1 X116.377 Y58.761 E.04193
G1 X117.687 Y58.491 E.04193
G1 X119.005 Y58.267 E.04193
G1 X120.33 Y58.086 E.04193
G1 X121.661 Y57.951 E.04193
G1 X122.995 Y57.861 E.04193
G1 X124.331 Y57.816 E.04193
G1 X125.674 Y57.816 E.0421
G1 X127.005 Y57.861 E.04176
G1 X128.339 Y57.951 E.04193
G1 X129.67 Y58.086 E.04193
G1 X130.995 Y58.267 E.04193
G1 X132.313 Y58.491 E.04193
G1 X133.623 Y58.761 E.04193
G1 X134.923 Y59.074 E.04193
G1 X136.212 Y59.431 E.04193
G1 X137.488 Y59.831 E.04193
G1 X138.75 Y60.274 E.04193
G1 X139.996 Y60.76 E.04193
G1 X141.225 Y61.287 E.04193
G1 X142.435 Y61.856 E.04193
G1 X143.626 Y62.465 E.04193
G1 X144.795 Y63.114 E.04193
G1 X145.946 Y63.805 E.0421
G1 X147.064 Y64.529 E.04176
G1 X148.162 Y65.293 E.04193
G1 X149.233 Y66.093 E.04193
G1 X150.277 Y66.93 E.04193
G1 X151.291 Y67.801 E.04193
G1 X152.276 Y68.705 E.04193
G1 X153.23 Y69.643 E.04193
G1 X154.151 Y70.612 E.04193
G1 X155.039 Y71.612 E.04193
G1 X155.893 Y72.641 E.04193
G1 X156.712 Y73.699 E.04193
G1 X157.494 Y74.784 E.04193
G1 X158.239 Y75.894 E.04193
G1 X158.947 Y77.029 E.04193
G1 X159.615 Y78.187 E.04193
G1 X160.244 Y79.367 E.04193
G1 X160.833 Y80.568 E.04193
G1 X161.381 Y81.787 E.04193
G1 X161.888 Y83.025 E.04193
G1 X162.354 Y84.284 E.0421
G1 X162.774 Y85.548 E.04176
G1 X163.153 Y86.831 E.04193
G1 X163.488 Y88.125 E.04193
G1 X163.78 Y89.431 E.04193
G1 X164.027 Y90.745 E.04193
G1 X164.23 Y92.072 E.0421
G1 X164.387 Y93.395 E.04176
G1 X164.5 Y94.727 E.04193
G1 X164.567 Y96.063 E.04193
G1 X164.589 Y97.456 E.04368
G1 X164.567 Y98.737 E.04018
G1 X164.5 Y100.073 E.04193
G1 X164.387 Y101.405 E.04193
G1 X164.229 Y102.733 E.04193
G1 X164.027 Y104.055 E.04193
G1 X163.78 Y105.369 E.04193
G1 X163.488 Y106.675 E.04193
G1 X163.153 Y107.969 E.04193
G1 X162.774 Y109.252 E.04193
G1 X162.352 Y110.521 E.04193
G1 X161.886 Y111.78 E.0421
G1 X161.381 Y113.013 E.04176
G1 X160.833 Y114.232 E.04193
G1 X160.242 Y115.438 E.04211
G1 X159.615 Y116.613 E.04176
G1 X158.947 Y117.771 E.04193
G1 X158.239 Y118.906 E.04193
G1 X157.494 Y120.016 E.04193
G1 X156.712 Y121.101 E.04193
G1 X155.893 Y122.159 E.04193
G1 X155.039 Y123.188 E.04193
G1 X154.151 Y124.188 E.04193
G1 X153.23 Y125.157 E.04193
G1 X152.276 Y126.095 E.04193
G1 X151.291 Y126.999 E.04193
G1 X150.277 Y127.87 E.04193
G1 X149.233 Y128.707 E.04193
