; generated by PrusaSlicer 2.5.2+win64 on 2023-05-19 at 12:57:22 UTC


;
;
; 

; external perimeters extrusion width = 0.45mm
; perimeters extrusion width = 0.45mm
; infill extrusion width = 0.45mm
; solid infill extrusion width = 0.45mm
; top infill extrusion width = 0.40mm
; first layer extrusion width = 0.42mm

M73 P0 R71
M73 Q0 S72
M201 X1000 Y1000 Z200 E5000 ; sets maximum accelerations, mm/sec^2
M203 X200 Y200 Z12 E120 ; sets maximum feedrates, mm / sec
M204 P1250 R1250 T1250 ; sets acceleration (P, T) and retract acceleration (R), mm/sec^2
M205 X8.00 Y8.00 Z0.40 E4.50 ; sets the jerk limits, mm/sec
M205 S0 T0 ; sets the minimum extruding and travel feed rate, mm/sec
M107
;TYPE:Custom
M862.3 P "MK3S" ; printer model check
M862.1 P0.4 ; nozzle diameter check
M115 U3.12.2 ; tell printer latest fw version
G90 ; use absolute coordinates
M83 ; extruder relative mode
M104 S240 ; set extruder temp
M140 S85 ; set bed temp
M190 S85 ; wait for bed temp
M109 S240 ; wait for extruder temp
G28 W ; home all without mesh bed level
G80 ; mesh bed leveling

G1 Z0.2 F720
G1 Y-3 F1000 ; go outside print area
G92 E0
G1 X60 E9 F1000 ; intro line
G1 X100 E12.5 F1000 ; intro line

G92 E0
M221 S95

; Don't change E values below. Excessive value can damage the printer.

M907 E538 ; set extruder motor current
G21 ; set units to millimeters
G90 ; use absolute coordinates
M83 ; use relative distances for extrusion
M900 K0.08 ; Filament gcode LA 1.5
M900 K45 ; Filament gcode LA 1.0
M107
;LAYER_CHANGE
;Z:0.2
;HEIGHT:0.2
;BEFORE_LAYER_CHANGE
G92 E0.0
;0.2


M73 Q0 S71
G1 E-1 F2100
G1 Z.2 F720
;AFTER_LAYER_CHANGE
;0.2
G1 Z.4
G1 X74.711 Y75.7 F10800
G1 Z.2 F720
G1 E1 F2100
M204 S800
;TYPE:Skirt/Brim
;WIDTH:0.42
G1 F1200
G1 X75.8 Y74.878 E.04278
G1 X76.752 Y74.732 E.03022
G1 X160.25 Y79.108 E2.62162
G1 X162.016 Y79.3 E.05568
G1 X163.703 Y79.767 E.05489
G1 X165.129 Y80.455 E.04966
G1 X166.48 Y81.486 E.05328
G1 X167.571 Y82.739 E.05208
G1 X168.281 Y83.955 E.04415
G1 X168.84 Y85.503 E.05162
G1 X169.133 Y87.191 E.0537
G1 X169.139 Y123.091 E1.12562
G1 X169.012 Y124.049 E.0303
G1 X168.746 Y125.169 E.03612
G1 X168.416 Y126.082 E.03044
G1 X168.02 Y126.892 E.02826
G1 X167.571 Y127.599 E.02626
G1 X166.858 Y128.473 E.03537
G1 X166.171 Y129.129 E.02978
G1 X165.261 Y129.801 E.03545
G1 X164.369 Y130.289 E.0319
G1 X163.168 Y130.754 E.04038
G1 X161.951 Y131.05 E.03928
G1 X160.63 Y131.208 E.0417
G1 X76.752 Y135.606 E2.63354
G1 X75.427 Y135.283 E.04278
G1 X74.711 Y134.638 E.03022
G1 X74.465 Y134.302 E.01305
G1 X73.992 Y133.349 E.03335
G1 X73.805 Y132.424 E.02962
G1 X73.805 Y77.914 E1.7091
G1 X73.992 Y76.989 E.02962
M73 P0 R70
G1 X74.465 Y76.036 E.03335
G1 X74.675 Y75.749 E.01117
M204 S1000
; printing object Body1 id:0 copy 0
;WIPE_START
G1 F8640
G1 X75.8 Y74.878 E-.32835
G1 X76.752 Y74.732 E-.22254
G1 X78.478 Y74.822 E-.39912
;WIPE_END
G1 E-.05 F2100
G1 Z.4 F720
G1 X77.369 Y132.322 F10800
G1 Z.2 F720
G1 E1 F2100
M204 S800
;TYPE:Perimeter
;WIDTH:0.419999
G1 F1200
G1 X77.369 Y108.95 E.73281
G1 X165.936 Y108.951 E2.77696
G1 X165.936 Y122.135 E.41336
G1 X165.893 Y122.959 E.02589
G1 X165.791 Y123.658 E.02214
G1 X165.576 Y124.459 E.026
G1 X165.334 Y125.054 E.02013
G1 X164.99 Y125.661 E.02187
G1 X164.411 Y126.373 E.02878
G1 X164.019 Y126.709 E.01619
G1 X163.437 Y127.129 E.02251
G1 X162.602 Y127.526 E.029
G1 X162.043 Y127.697 E.01832
G1 X161.419 Y127.848 E.02013
G1 X160.774 Y127.942 E.02044
G1 X77.429 Y132.319 E2.61683
M204 S1000
G1 X76.992 Y132.72 F10800
M204 S800
;TYPE:External perimeter
G1 F1200
G1 X76.992 Y108.573 E.75709
G1 X166.218 Y108.574 E2.79763
G1 X166.273 Y108.592 E.00181
G1 X166.313 Y108.669 E.00273
G1 X166.313 Y122.145 E.42251
G1 X166.269 Y122.997 E.02675
G1 X166.16 Y123.735 E.02338
G1 X165.934 Y124.579 E.02742
G1 X165.674 Y125.219 E.02163
G1 X165.303 Y125.874 E.02364
G1 X164.682 Y126.637 E.03082
G1 X164.071 Y127.162 E.02526
G1 X163.623 Y127.458 E.01685
G1 X162.738 Y127.879 E.0307
G1 X162.153 Y128.057 E.01919
G1 X161.491 Y128.218 E.02137
G1 X160.808 Y128.318 E.02165
G1 X77.052 Y132.717 E2.62972
M204 S1000
G1 X77.186 Y132.37 F10800
;WIPE_START
M73 P1 R70
M73 Q1 S71
G1 F8640
G1 X77.041 Y128.602 E-.95
;WIPE_END
G1 E-.05 F2100
G1 Z.4 F720
G1 X145.26 Y116.057 F10800
G1 Z.2 F720
G1 E1 F2100
M204 S800
;TYPE:Perimeter
G1 F1200
G1 X144.989 Y116.834 E.02579
G1 X144.5 Y117.582 E.02802
G1 X143.877 Y118.169 E.02684
G1 X143.131 Y118.598 E.02699
G1 X142.28 Y118.846 E.02777
G1 X141.421 Y118.886 E.02695
G1 X140.55 Y118.716 E.02785
G1 X139.77 Y118.36 E.02687
G1 X139.092 Y117.831 E.02695
G1 X138.542 Y117.138 E.02776
G1 X138.171 Y116.324 E.02802
G1 X138.008 Y115.484 E.02683
G1 X138.044 Y114.626 E.02693
G1 X138.278 Y113.802 E.02687
G1 X138.713 Y113.03 E.02778
G1 X139.301 Y112.4 E.02701
G1 X140.04 Y111.913 E.02775
G1 X140.852 Y111.622 E.02704
G1 X141.702 Y111.528 E.02683
G1 X142.21 Y111.563 E.01595
G1 X143.008 Y111.774 E.02588
G1 X143.769 Y112.176 E.02699
G1 X144.433 Y112.762 E.02777
G1 X144.927 Y113.468 E.02702
G1 X145.249 Y114.294 E.02779
G1 X145.369 Y115.215 E.02913
G1 X145.28 Y116.001 E.0248
M204 S1000
G1 X144.943 Y115.632 F10800
M204 S800
;TYPE:External perimeter
G1 F1200
G1 X144.906 Y115.954 E.01018
G1 X144.635 Y116.704 E.02498
G1 X144.188 Y117.37 E.02516
G1 X143.623 Y117.89 E.02408
G1 X142.949 Y118.268 E.02424
G1 X142.181 Y118.482 E.02498
G1 X141.411 Y118.509 E.02418
G1 X140.628 Y118.347 E.02504
G1 X139.933 Y118.02 E.02411
G1 X139.33 Y117.538 E.0242
G1 X138.841 Y116.909 E.02498
G1 X138.517 Y116.174 E.02516
G1 X138.38 Y115.419 E.02408
G1 X138.421 Y114.649 E.02419
G1 X138.639 Y113.911 E.02412
G1 X139.038 Y113.22 E.02501
G1 X139.572 Y112.662 E.02421
G1 X140.242 Y112.232 E.02498
G1 X140.973 Y111.979 E.02425
G1 X141.737 Y111.903 E.02408
G1 X142.21 Y111.945 E.01489
G1 X142.908 Y112.137 E.02269
G1 X143.587 Y112.506 E.02424
G1 X144.179 Y113.04 E.02498
G1 X144.615 Y113.678 E.02424
G1 X144.895 Y114.424 E.02499
G1 X144.992 Y115.212 E.0249
G1 X144.95 Y115.572 E.01136
M204 S1000
G1 X145.214 Y115.812 F10800
;WIPE_START
G1 F8640
G1 X144.906 Y115.954 E-.08885
G1 X144.635 Y116.704 E-.18394
G1 X144.188 Y117.37 E-.18527
G1 X143.623 Y117.89 E-.17733
G1 X142.949 Y118.268 E-.17849
G1 X142.381 Y118.426 E-.13611
;WIPE_END
G1 E-.05 F2100
G1 Z.4 F720
G1 X88.062 Y111.802 F10800
G1 Z.2 F720
G1 E1 F2100
M204 S800
;TYPE:Perimeter
G1 F1200
G1 X88.769 Y112.176 E.02506
G1 X89.433 Y112.762 E.02777
G1 X89.927 Y113.468 E.02702
G1 X90.249 Y114.294 E.02779
G1 X90.365 Y115.145 E.02693
G1 X90.28 Y115.999 E.02691
G1 X89.989 Y116.834 E.02775
G1 X89.5 Y117.582 E.02803
G1 X88.877 Y118.169 E.02684
G1 X88.131 Y118.598 E.02699
G1 X87.28 Y118.846 E.02777
G1 X86.421 Y118.886 E.02695
G1 X85.55 Y118.716 E.02785
G1 X84.77 Y118.36 E.02687
G1 X84.092 Y117.831 E.02695
G1 X83.542 Y117.138 E.02776
G1 X83.171 Y116.324 E.02803
G1 X83.008 Y115.484 E.02683
G1 X83.044 Y114.626 E.02693
G1 X83.278 Y113.802 E.02687
G1 X83.713 Y113.03 E.02778
G1 X84.301 Y112.4 E.02701
G1 X85.04 Y111.913 E.02775
G1 X85.852 Y111.622 E.02704
G1 X86.702 Y111.528 E.02683
G1 X87.21 Y111.563 E.01595
G1 X88.009 Y111.774 E.02593
M204 S1000
G1 X88.007 Y112.191 F10800
M204 S800
;TYPE:External perimeter
G1 F1200
G1 X88.587 Y112.506 E.02068
G1 X89.179 Y113.04 E.02498
G1 X89.615 Y113.678 E.02424
G1 X89.895 Y114.424 E.02499
G1 X89.991 Y115.189 E.02416
G1 X89.906 Y115.954 E.02415
G1 X89.635 Y116.704 E.02498
G1 X89.188 Y117.37 E.02516
G1 X88.623 Y117.89 E.02408
G1 X87.949 Y118.268 E.02424
G1 X87.181 Y118.482 E.02498
G1 X86.411 Y118.509 E.02418
G1 X85.628 Y118.347 E.02504
G1 X84.933 Y118.02 E.02411
G1 X84.33 Y117.538 E.0242
G1 X83.841 Y116.909 E.02498
G1 X83.517 Y116.174 E.02516
G1 X83.38 Y115.419 E.02408
G1 X83.421 Y114.649 E.02419
G1 X83.639 Y113.911 E.02412
G1 X84.038 Y113.22 E.02501
G1 X84.572 Y112.662 E.02421
G1 X85.242 Y112.232 E.02498
G1 X85.973 Y111.979 E.02425
G1 X86.737 Y111.903 E.02408
G1 X87.21 Y111.945 E.01489
G1 X87.955 Y112.163 E.02433
M204 S1000
G1 X88.328 Y111.952 F10800
;WIPE_START
G1 F8640
G1 X88.587 Y112.506 E-.16617
G1 X89.179 Y113.04 E-.18398
G1 X89.615 Y113.678 E-.17848
G1 X89.895 Y114.424 E-.18405
G1 X89.991 Y115.189 E-.17794
G1 X89.962 Y115.444 E-.05938
;WIPE_END
G1 E-.05 F2100
G1 Z.4 F720
G1 X165.766 Y109.886 F10800
G1 Z.2 F720
G1 E1 F2100
M204 S800
;TYPE:Solid infill
;WIDTH:0.42138
G1 F1200
G1 X165.171 Y109.291 E.0265
G1 X164.636 Y109.291 E.01684
G1 X165.597 Y110.252 E.04277
G1 X165.597 Y110.787 E.01684
G1 X164.1 Y109.291 E.06659
G1 X163.565 Y109.291 E.01684
G1 X165.597 Y111.322 E.09041
G1 X165.597 Y111.857 E.01684
G1 X163.03 Y109.291 E.11423
G1 X162.495 Y109.291 E.01684
G1 X165.597 Y112.393 E.13805
G1 X165.597 Y112.928 E.01684
G1 X161.96 Y109.291 E.16187
G1 X161.424 Y109.291 E.01684
G1 X165.597 Y113.463 E.18568
G1 X165.597 Y113.998 E.01684
G1 X160.889 Y109.291 E.2095
G1 X160.354 Y109.291 E.01684
G1 X165.597 Y114.533 E.23332
G1 X165.597 Y115.069 E.01684
G1 X159.819 Y109.291 E.25714
G1 X159.283 Y109.291 E.01684
G1 X165.597 Y115.604 E.28096
G1 X165.596 Y116.139 E.01684
G1 X158.748 Y109.291 E.30478
G1 X158.213 Y109.291 E.01684
G1 X165.596 Y116.674 E.3286
G1 X165.596 Y117.209 E.01684
G1 X157.678 Y109.291 E.35242
G1 X157.142 Y109.291 E.01684
G1 X165.596 Y117.745 E.37624
G1 X165.596 Y118.28 E.01684
G1 X156.607 Y109.291 E.40006
G1 X156.072 Y109.291 E.01684
G1 X165.596 Y118.815 E.42388
G1 X165.596 Y119.35 E.01684
G1 X155.537 Y109.291 E.44769
G1 X155.002 Y109.291 E.01684
G1 X165.596 Y119.886 E.47151
G1 X165.596 Y120.421 E.01684
G1 X154.466 Y109.291 E.49533
G1 X153.931 Y109.291 E.01684
M73 Q1 S70
G1 X165.596 Y120.956 E.51915
G1 X165.596 Y121.491 E.01684
G1 X153.396 Y109.291 E.54297
G1 X152.861 Y109.291 E.01684
G1 X165.596 Y122.026 E.56679
G1 X165.575 Y122.54 E.01619
G1 X152.325 Y109.291 E.58966
G1 X151.79 Y109.291 E.01684
G1 X165.538 Y123.039 E.61186
G1 X165.47 Y123.506 E.01484
G1 X151.255 Y109.291 E.63263
G1 X150.72 Y109.291 E.01684
G1 X165.365 Y123.936 E.65177
G1 X165.251 Y124.357 E.01374
G1 X150.184 Y109.291 E.67052
G1 X149.649 Y109.291 E.01684
G1 X165.096 Y124.738 E.68746
G1 X165.028 Y124.906 E.00571
G1 X164.92 Y125.097 E.0069
G1 X149.114 Y109.291 E.70343
G1 X148.579 Y109.291 E.01684
G1 X164.726 Y125.438 E.71864
G1 X164.49 Y125.737 E.01199
G1 X148.044 Y109.291 E.73195
G1 X147.508 Y109.291 E.01684
G1 X164.25 Y126.033 E.74509
G1 X164.167 Y126.135 E.00416
G1 X163.979 Y126.297 E.00779
G1 X146.973 Y109.291 E.75683
G1 X146.438 Y109.291 E.01684
G1 X163.691 Y126.544 E.76784
G1 X163.375 Y126.763 E.0121
G1 X145.903 Y109.291 E.77759
G1 X145.367 Y109.291 E.01684
G1 X163.026 Y126.949 E.78586
G1 X162.663 Y127.121 E.01264
G1 X144.832 Y109.291 E.79354
G1 X144.297 Y109.291 E.01684
M73 P1 R69
G1 X162.277 Y127.27 E.80018
G1 X161.867 Y127.396 E.01349
G1 X143.762 Y109.291 E.80575
G1 X143.226 Y109.291 E.01684
G1 X161.435 Y127.499 E.81036
G1 X160.975 Y127.574 E.01467
G1 X142.691 Y109.291 E.8137
G1 X142.156 Y109.29 E.01684
M73 P2 R69
M73 Q2 S70
G1 X160.483 Y127.617 E.81562
G1 X159.974 Y127.644 E.01602
G1 X141.621 Y109.29 E.81681
G1 X141.086 Y109.29 E.01684
G1 X143.355 Y111.56 E.10099
G1 X143.941 Y111.883 E.02106
G1 X144.101 Y111.997 E.00619
G1 X144.669 Y112.517 E.02424
G1 X144.797 Y112.666 E.00618
G1 X145.214 Y113.286 E.02349
G1 X145.332 Y113.537 E.00872
G1 X159.466 Y127.671 E.62903
G1 X158.957 Y127.698 E.01602
G1 X145.611 Y114.351 E.59399
G1 X145.681 Y114.956 E.01918
G1 X158.449 Y127.724 E.56823
G1 X157.94 Y127.751 E.01602
G1 X145.678 Y115.489 E.54571
G1 X145.623 Y115.969 E.0152
G1 X157.432 Y127.778 E.52554
G1 X156.923 Y127.804 E.01602
G1 X145.508 Y116.389 E.50803
G1 X145.367 Y116.783 E.01318
G1 X156.415 Y127.831 E.49166
G1 X155.906 Y127.858 E.01602
G1 X145.202 Y117.154 E.47638
G1 X144.985 Y117.472 E.01212
G1 X155.398 Y127.884 E.46339
G1 X154.889 Y127.911 E.01602
G1 X144.767 Y117.789 E.45046
G1 X144.501 Y118.059 E.01191
G1 X154.381 Y127.938 E.43966
G1 X153.872 Y127.965 E.01602
G1 X144.219 Y118.312 E.42958
G1 X144.024 Y118.487 E.00826
G1 X143.918 Y118.546 E.00381
G1 X153.364 Y127.991 E.42036
G1 X152.855 Y128.018 E.01602
G1 X143.573 Y118.736 E.41309
G1 X143.228 Y118.926 E.0124
G1 X152.347 Y128.045 E.40582
G1 X151.838 Y128.071 E.01602
G1 X142.814 Y119.047 E.40163
G1 X142.393 Y119.161 E.01373
G1 X151.33 Y128.098 E.39773
G1 X150.821 Y128.125 E.01602
G1 X141.903 Y119.206 E.39691
G1 X141.382 Y119.221 E.01638
G1 X150.313 Y128.152 E.39744
G1 X149.804 Y128.178 E.01602
G1 X140.504 Y118.878 E.41388
M204 S1000
;WIPE_START
G1 F8640
G1 X143.413 Y121.788 E-.95
;WIPE_END
G1 E-.05 F2100
G1 Z.4 F720
G1 X142.8 Y111.541 F10800
G1 Z.2 F720
G1 E1 F2100
M204 S800
G1 F1200
G1 X140.55 Y109.29 E.10014
G1 X140.015 Y109.29 E.01684
G1 X141.935 Y111.211 E.08546
G1 X141.684 Y111.189 E.00793
G1 X141.405 Y111.215 E.00885
G1 X139.48 Y109.29 E.08566
G1 X138.945 Y109.29 E.01684
G1 X140.916 Y111.262 E.08773
G1 X140.505 Y111.386 E.01351
G1 X138.409 Y109.29 E.09326
G1 X137.874 Y109.29 E.01684
G1 X140.101 Y111.518 E.09912
G1 X139.866 Y111.622 E.00809
G1 X139.746 Y111.698 E.00447
G1 X137.339 Y109.29 E.10713
G1 X136.804 Y109.29 E.01684
G1 X139.418 Y111.905 E.11637
G1 X139.103 Y112.125 E.0121
G1 X136.268 Y109.29 E.12615
G1 X135.733 Y109.29 E.01684
G1 X138.835 Y112.393 E.13806
G1 X138.572 Y112.664 E.01191
G1 X135.198 Y109.29 E.15016
G1 X134.663 Y109.29 E.01684
G1 X138.35 Y112.978 E.1641
G1 X138.152 Y113.315 E.01231
G1 X134.128 Y109.29 E.17912
G1 X133.592 Y109.29 E.01684
G1 X137.969 Y113.667 E.19476
G1 X137.843 Y114.076 E.01349
G1 X133.057 Y109.29 E.213
G1 X132.522 Y109.29 E.01684
G1 X137.721 Y114.489 E.23138
G1 X137.685 Y114.988 E.01574
G1 X131.987 Y109.29 E.25358
G1 X131.451 Y109.29 E.01684
G1 X137.671 Y115.51 E.2768
G1 X137.782 Y116.156 E.02062
G1 X130.916 Y109.29 E.30554
G1 X130.381 Y109.29 E.01684
G1 X138.11 Y117.019 E.34397
G1 X138.225 Y117.277 E.00888
G1 X138.797 Y118.022 E.02955
G1 X139.528 Y118.615 E.02962
G1 X139.873 Y118.782 E.01207
G1 X149.296 Y128.205 E.41934
G1 X148.787 Y128.232 E.01602
G1 X129.846 Y109.29 E.84296
G1 X129.31 Y109.29 E.01684
G1 X148.278 Y128.258 E.84415
G1 X147.77 Y128.285 E.01602
G1 X128.775 Y109.29 E.84534
G1 X128.24 Y109.29 E.01684
G1 X147.261 Y128.312 E.84653
G1 X146.753 Y128.338 E.01602
G1 X127.705 Y109.29 E.84772
G1 X127.17 Y109.29 E.01684
G1 X146.244 Y128.365 E.84891
G1 X145.736 Y128.392 E.01602
M73 Q2 S69
G1 X126.634 Y109.29 E.8501
G1 X126.099 Y109.29 E.01684
G1 X145.227 Y128.419 E.85129
G1 X144.719 Y128.445 E.01602
G1 X125.564 Y109.29 E.85248
G1 X125.029 Y109.29 E.01684
G1 X144.21 Y128.472 E.85366
G1 X143.702 Y128.499 E.01602
G1 X124.493 Y109.29 E.85485
G1 X123.958 Y109.29 E.01684
G1 X143.193 Y128.525 E.85604
G1 X142.685 Y128.552 E.01602
M73 P3 R69
M73 Q3 S69
G1 X123.423 Y109.29 E.85723
G1 X122.888 Y109.29 E.01684
G1 X142.176 Y128.579 E.85842
G1 X141.668 Y128.606 E.01602
G1 X122.352 Y109.29 E.85961
G1 X121.817 Y109.29 E.01684
G1 X141.159 Y128.632 E.8608
G1 X140.651 Y128.659 E.01602
G1 X121.282 Y109.29 E.86199
G1 X120.747 Y109.29 E.01684
G1 X140.142 Y128.686 E.86317
G1 X139.634 Y128.712 E.01602
G1 X120.212 Y109.29 E.86436
G1 X119.676 Y109.29 E.01684
G1 X139.125 Y128.739 E.86555
G1 X138.617 Y128.766 E.01602
M73 P3 R68
G1 X119.141 Y109.29 E.86674
G1 X118.606 Y109.29 E.01684
G1 X138.108 Y128.792 E.86793
G1 X137.6 Y128.819 E.01602
G1 X118.071 Y109.29 E.86912
G1 X117.535 Y109.29 E.01684
G1 X137.091 Y128.846 E.87031
G1 X136.583 Y128.873 E.01602
G1 X117 Y109.29 E.8715
G1 X116.465 Y109.29 E.01684
G1 X136.074 Y128.899 E.87269
G1 X135.566 Y128.926 E.01602
G1 X115.93 Y109.29 E.87387
G1 X115.394 Y109.29 E.01684
G1 X135.057 Y128.953 E.87506
G1 X134.549 Y128.979 E.01602
G1 X114.859 Y109.29 E.87625
G1 X114.324 Y109.29 E.01684
G1 X134.04 Y129.006 E.87744
G1 X133.531 Y129.033 E.01602
G1 X113.789 Y109.29 E.87863
G1 X113.254 Y109.29 E.01684
G1 X133.023 Y129.06 E.87982
G1 X132.514 Y129.086 E.01602
G1 X112.718 Y109.29 E.88101
G1 X112.183 Y109.29 E.01684
G1 X132.006 Y129.113 E.8822
G1 X131.497 Y129.14 E.01602
G1 X111.648 Y109.29 E.88339
G1 X111.113 Y109.29 E.01684
G1 X130.989 Y129.166 E.88457
G1 X130.48 Y129.193 E.01602
G1 X110.577 Y109.29 E.88576
G1 X110.042 Y109.29 E.01684
G1 X129.972 Y129.22 E.88695
G1 X129.463 Y129.246 E.01602
G1 X109.507 Y109.29 E.88814
