; generated by PrusaSlicer 2.5.2+win64 on 2023-05-19 at 12:57:50 UTC


;
;
; 

; external perimeters extrusion width = 0.45mm
; perimeters extrusion width = 0.45mm
; infill extrusion width = 0.45mm
; solid infill extrusion width = 0.45mm
; top infill extrusion width = 0.40mm
; first layer extrusion width = 0.42mm

M73 P0 R98
M73 Q0 S99
M201 X1000 Y1000 Z200 E5000 ; sets maximum accelerations, mm/sec^2
M203 X200 Y200 Z12 E120 ; sets maximum feedrates, mm / sec
M204 P1250 R1250 T1250 ; sets acceleration (P, T) and retract acceleration (R), mm/sec^2
M205 X8.00 Y8.00 Z0.40 E4.50 ; sets the jerk limits, mm/sec
M205 S0 T0 ; sets the minimum extruding and travel feed rate, mm/sec
M107
;TYPE:Custom
M862.3 P "MK3S" ; printer model check
M862.1 P0.4 ; nozzle diameter check
M115 U3.12.2 ; tell printer latest fw version
G90 ; use absolute coordinates
M83 ; extruder relative mode
M104 S240 ; set extruder temp
M140 S85 ; set bed temp
M190 S85 ; wait for bed temp
M109 S240 ; wait for extruder temp
G28 W ; home all without mesh bed level
G80 ; mesh bed leveling

G1 Z0.2 F720
G1 Y-3 F1000 ; go outside print area
G92 E0
G1 X60 E9 F1000 ; intro line
G1 X100 E12.5 F1000 ; intro line

G92 E0
M221 S95

; Don't change E values below. Excessive value can damage the printer.

M907 E538 ; set extruder motor current
G21 ; set units to millimeters
G90 ; use absolute coordinates
M83 ; use relative distances for extrusion
M900 K0.08 ; Filament gcode LA 1.5
M900 K45 ; Filament gcode LA 1.0
M107
;LAYER_CHANGE
;Z:0.2
;HEIGHT:0.2
;BEFORE_LAYER_CHANGE
G92 E0.0
;0.2


G1 E-1 F2100
G1 Z.2 F720
;AFTER_LAYER_CHANGE
;0.2
G1 Z.4
G1 X73.793 Y60.707 F10800
G1 Z.2 F720
G1 E1 F2100
M204 S800
;TYPE:Skirt/Brim
;WIDTH:0.42
G1 F1200
G1 X74.293 Y60.207 E.02217
G1 X75.973 Y59.511 E.05704
G1 X165.543 Y59.512 E2.80838
G1 X167.422 Y59.622 E.05903
M73 Q0 S98
G1 X168.559 Y59.788 E.03602
G1 X170.391 Y60.222 E.05903
G1 X171.481 Y60.584 E.03602
G1 X173.21 Y61.329 E.05903
G1 X174.221 Y61.875 E.03602
G1 X175.794 Y62.909 E.05903
G1 X176.695 Y63.622 E.03602
G1 X178.065 Y64.914 E.05903
G1 X178.829 Y65.772 E.03602
G1 X179.953 Y67.282 E.05903
G1 X180.556 Y68.26 E.03603
G1 X181.401 Y69.942 E.05903
G1 X181.825 Y71.01 E.03603
G1 X182.365 Y72.814 E.05903
G1 X182.597 Y73.939 E.03602
G1 X182.816 Y75.809 E.05903
G1 X182.85 Y76.888 E.03386
G1 X182.85 Y122.308 E1.42411
G1 X182.74 Y124.257 E.06119
G1 X182.397 Y126.248 E.06336
G1 X182.1 Y127.358 E.03602
G1 X181.456 Y129.127 E.05903
G1 X180.97 Y130.168 E.03602
G1 X180.029 Y131.799 E.05903
G1 X179.362 Y132.75 E.03642
G1 X178.065 Y134.283 E.06297
G1 X176.695 Y135.575 E.05903
G1 X174.932 Y136.883 E.06885
G1 X173.334 Y137.805 E.05786
G1 X172.292 Y138.291 E.03603
G1 X170.523 Y138.935 E.05903
G1 X169.413 Y139.232 E.03602
G1 X167.559 Y139.559 E.05903
G1 X166.415 Y139.659 E.03602
G1 X75.473 Y139.685 E2.8514
G1 X74.166 Y139.294 E.04278
G1 X73.29 Y138.248 E.04278
G1 X73.096 Y137.308 E.03008
G1 X73.096 Y62.388 E2.34906
G1 X73.77 Y60.763 E.05516
M204 S1000
; printing object Body1 id:0 copy 0
;WIPE_START
G1 F8640
G1 X74.293 Y60.207 E-.17615
G1 X75.973 Y59.511 E-.42009
G1 X77.505 Y59.511 E-.35376
;WIPE_END
G1 E-.05 F2100
G1 Z.4 F720
G1 X76.26 Y136.521 F10800
G1 Z.2 F720
G1 E1 F2100
M204 S800
;TYPE:Perimeter
;WIDTH:0.419999
G1 F1200
G1 X76.26 Y62.742 E2.3133
G1 X76.299 Y62.675 E.00242
G1 X165.262 Y62.676 E2.78935
G1 X165.887 Y62.688 E.01959
G1 X166.712 Y62.736 E.02592
G1 X167.532 Y62.832 E.0259
G1 X168.346 Y62.975 E.02592
G1 X169.15 Y63.166 E.02591
G1 X169.942 Y63.403 E.02591
G1 X170.719 Y63.685 E.02591
G1 X171.477 Y64.013 E.02591
G1 X172.216 Y64.384 E.02591
G1 X172.932 Y64.797 E.02591
G1 X173.622 Y65.251 E.02591
G1 X174.285 Y65.744 E.02591
G1 X174.918 Y66.276 E.02592
G1 X175.519 Y66.843 E.02592
G1 X176.087 Y67.445 E.02594
G1 X176.616 Y68.076 E.02581
G1 X177.117 Y68.749 E.02632
G1 X177.566 Y69.432 E.02561
G1 X177.978 Y70.146 E.02587
G1 X178.349 Y70.885 E.02591
G1 X178.677 Y71.645 E.02595
G1 X178.958 Y72.418 E.02581
G1 X179.199 Y73.222 E.02632
G1 X179.387 Y74.017 E.02561
G1 X179.53 Y74.83 E.02587
G1 X179.626 Y75.65 E.0259
G1 X179.674 Y76.476 E.02593
G1 X179.686 Y122.297 E1.43668
G1 X179.662 Y123.135 E.02628
G1 X179.59 Y123.958 E.02592
G1 X179.47 Y124.776 E.02592
G1 X179.303 Y125.586 E.02592
G1 X179.089 Y126.384 E.02592
G1 X178.829 Y127.169 E.02592
G1 X178.524 Y127.938 E.02592
G1 X178.174 Y128.687 E.02592
G1 X177.782 Y129.415 E.02592
G1 X177.348 Y130.118 E.02592
G1 X176.874 Y130.795 E.02592
G1 X176.361 Y131.444 E.02592
G1 X175.811 Y132.062 E.02592
G1 X175.227 Y132.646 E.02592
G1 X174.609 Y133.196 E.02592
G1 X173.961 Y133.709 E.02592
G1 X173.283 Y134.183 E.02592
G1 X172.58 Y134.617 E.02592
G1 X171.852 Y135.009 E.02592
G1 X171.097 Y135.361 E.02613
G1 X170.334 Y135.664 E.02572
G1 X169.55 Y135.924 E.02592
G1 X168.751 Y136.138 E.02592
G1 X167.935 Y136.306 E.02613
G1 X167.123 Y136.425 E.02572
G1 X166.3 Y136.497 E.02592
G1 X165.462 Y136.521 E.02628
G1 X76.32 Y136.521 E2.79496
M204 S1000
G1 X75.883 Y136.898 F10800
M204 S800
;TYPE:External perimeter
G1 F1200
G1 X75.883 Y62.558 E2.33088
G1 X76.143 Y62.298 E.01152
G1 X165.262 Y62.299 E2.79424
G1 X165.897 Y62.311 E.01994
M73 P0 R97
G1 X166.745 Y62.36 E.0266
G1 X167.587 Y62.459 E.02659
G1 X168.423 Y62.606 E.0266
G1 X169.248 Y62.802 E.0266
G1 X170.061 Y63.045 E.0266
G1 X170.858 Y63.335 E.0266
G1 X171.637 Y63.671 E.0266
G1 X172.395 Y64.052 E.0266
G1 X173.13 Y64.476 E.0266
G1 X173.838 Y64.942 E.0266
G1 X174.519 Y65.449 E.0266
G1 X175.169 Y65.994 E.02661
G1 X175.786 Y66.576 E.02661
G1 X176.369 Y67.194 E.02663
G1 X176.912 Y67.842 E.0265
G1 X177.426 Y68.533 E.02701
G1 X177.887 Y69.234 E.02629
G1 X178.31 Y69.967 E.02656
G1 X178.691 Y70.725 E.0266
G1 X179.027 Y71.505 E.02663
G1 X179.316 Y72.299 E.0265
G1 X179.563 Y73.125 E.02701
G1 X179.756 Y73.941 E.02629
G1 X179.903 Y74.775 E.02656
G1 X180.002 Y75.618 E.02659
G1 X180.051 Y76.465 E.02662
G1 X180.063 Y122.302 E1.43719
G1 X180.039 Y123.157 E.0268
G1 X179.965 Y124.002 E.02661
G1 X179.842 Y124.842 E.02661
G1 X179.67 Y125.673 E.02661
G1 X179.45 Y126.493 E.02661
G1 X179.183 Y127.298 E.02661
G1 X178.87 Y128.087 E.02661
G1 X178.511 Y128.856 E.02661
G1 X178.109 Y129.603 E.02661
G1 X177.663 Y130.326 E.02661
G1 X177.176 Y131.021 E.02661
G1 X176.65 Y131.686 E.02661
G1 X176.086 Y132.32 E.02661
G1 X175.486 Y132.921 E.02661
G1 X174.852 Y133.485 E.02661
G1 X174.186 Y134.011 E.02661
G1 X173.491 Y134.498 E.02661
G1 X172.768 Y134.943 E.02661
G1 X172.021 Y135.346 E.02661
G1 X171.246 Y135.707 E.02682
G1 X170.463 Y136.018 E.0264
G1 X169.658 Y136.285 E.02661
G1 X168.838 Y136.505 E.02661
G1 X168 Y136.677 E.02682
G1 X167.167 Y136.799 E.0264
G1 X166.322 Y136.873 E.02661
G1 X165.467 Y136.898 E.0268
G1 X75.943 Y136.898 E2.80696
M204 S1000
G1 X76.083 Y136.552 F10800
;WIPE_START
M73 P1 R97
M73 Q1 S98
G1 F8640
G1 X75.94 Y132.784 E-.95
;WIPE_END
G1 E-.05 F2100
G1 Z.4 F720
G1 X173.728 Y65.532 F10800
G1 Z.2 F720
G1 E1 F2100
M204 S800
;TYPE:Solid infill
;WIDTH:0.420991
G1 F1200
G1 X175.571 Y67.375 E.08194
G1 X176.101 Y67.971 E.02507
G1 X176.601 Y68.604 E.02536
G1 X177.068 Y69.27 E.02558
G1 X177.287 Y69.626 E.01314
G1 X172.736 Y65.075 E.20235
G1 X172.41 Y64.874 E.01203
G1 X171.545 Y64.419 E.03073
G1 X177.943 Y70.817 E.28445
G1 X178.212 Y71.393 E.02
G1 X178.361 Y71.77 E.01274
G1 X170.592 Y64 E.34543
G1 X170.218 Y63.852 E.01263
G1 X169.755 Y63.698 E.01533
G1 X178.663 Y72.606 E.39603
G1 X178.885 Y73.363 E.02478
G1 X168.999 Y63.476 E.43952
G1 X168.3 Y63.312 E.02258
G1 X179.05 Y74.062 E.47792
G1 X179.171 Y74.718 E.02096
G1 X167.644 Y63.191 E.51246
G1 X167.022 Y63.104 E.01975
G1 X179.258 Y75.34 E.54401
G1 X179.309 Y75.926 E.01849
G1 X166.436 Y63.052 E.57234
G1 X165.876 Y63.027 E.01762
G1 X179.335 Y76.486 E.59837
G1 X179.347 Y77.033 E.0172
G1 X165.329 Y63.015 E.62321
G1 X164.794 Y63.015 E.01681
M73 Q1 S97
G1 X179.347 Y77.568 E.64698
G1 X179.347 Y78.102 E.01681
G1 X164.26 Y63.015 E.67075
G1 X163.725 Y63.015 E.01681
G1 X179.347 Y78.637 E.69452
G1 X179.347 Y79.172 E.01681
G1 X163.19 Y63.015 E.71829
G1 X162.656 Y63.015 E.01681
G1 X179.347 Y79.706 E.74206
G1 X179.347 Y80.241 E.01681
G1 X162.121 Y63.015 E.76583
G1 X161.586 Y63.015 E.01681
G1 X179.347 Y80.776 E.7896
G1 X179.347 Y81.31 E.01681
G1 X161.052 Y63.015 E.81337
G1 X160.517 Y63.015 E.01681
G1 X179.347 Y81.845 E.83714
G1 X179.347 Y82.38 E.01681
G1 X159.982 Y63.015 E.86091
G1 X159.448 Y63.015 E.01681
G1 X179.347 Y82.914 E.88469
G1 X179.347 Y83.449 E.01681
G1 X158.913 Y63.015 E.90846
G1 X158.378 Y63.015 E.01681
G1 X179.347 Y83.984 E.93223
G1 X179.347 Y84.518 E.01681
G1 X157.844 Y63.015 E.956
G1 X157.309 Y63.015 E.01681
G1 X179.347 Y85.053 E.97977
G1 X179.347 Y85.588 E.01681
G1 X156.774 Y63.015 E1.00354
G1 X156.24 Y63.015 E.01681
G1 X179.347 Y86.122 E1.02731
G1 X179.347 Y86.657 E.01681
G1 X155.705 Y63.015 E1.05108
G1 X155.17 Y63.015 E.01681
G1 X179.347 Y87.192 E1.07485
G1 X179.347 Y87.726 E.01681
G1 X154.636 Y63.015 E1.09862
G1 X154.101 Y63.015 E.01681
G1 X179.347 Y88.261 E1.12239
G1 X179.347 Y88.796 E.01681
G1 X153.566 Y63.015 E1.14616
G1 X153.032 Y63.015 E.01681
G1 X179.347 Y89.33 E1.16993
G1 X179.347 Y89.865 E.01681
G1 X152.497 Y63.015 E1.1937
G1 X151.962 Y63.015 E.01681
G1 X179.347 Y90.4 E1.21748
G1 X179.347 Y90.934 E.01681
M73 P1 R96
G1 X151.428 Y63.015 E1.24125
G1 X150.893 Y63.015 E.01681
G1 X179.347 Y91.469 E1.26502
G1 X179.347 Y92.004 E.01681
G1 X150.358 Y63.015 E1.28879
G1 X149.824 Y63.015 E.01681
G1 X179.347 Y92.538 E1.31256
G1 X179.347 Y93.073 E.01681
G1 X149.289 Y63.015 E1.33633
G1 X148.754 Y63.015 E.01681
M73 P2 R96
M73 Q2 S97
G1 X179.347 Y93.608 E1.3601
G1 X179.347 Y94.142 E.01681
G1 X148.22 Y63.015 E1.38387
G1 X147.685 Y63.015 E.01681
G1 X179.347 Y94.677 E1.40764
G1 X179.347 Y95.212 E.01681
G1 X147.15 Y63.015 E1.43141
G1 X146.616 Y63.015 E.01681
G1 X179.347 Y95.746 E1.45518
G1 X179.347 Y96.281 E.01681
M73 Q2 S96
G1 X146.081 Y63.015 E1.47895
G1 X145.546 Y63.015 E.01681
G1 X179.347 Y96.816 E1.50272
G1 X179.347 Y97.35 E.01681
G1 X145.012 Y63.015 E1.52649
G1 X144.477 Y63.015 E.01681
G1 X179.347 Y97.885 E1.55027
G1 X179.347 Y98.42 E.01681
G1 X143.942 Y63.015 E1.57404
G1 X143.407 Y63.015 E.01681
G1 X179.347 Y98.954 E1.59781
G1 X179.347 Y99.489 E.01681
G1 X142.873 Y63.015 E1.62158
G1 X142.338 Y63.015 E.01681
G1 X179.347 Y100.024 E1.64535
G1 X179.347 Y100.558 E.01681
G1 X141.803 Y63.015 E1.66912
G1 X141.269 Y63.015 E.01681
G1 X179.347 Y101.093 E1.69289
G1 X179.347 Y101.628 E.01681
G1 X140.734 Y63.015 E1.71666
G1 X140.199 Y63.015 E.01681
G1 X179.347 Y102.162 E1.74043
G1 X179.347 Y102.697 E.01681
G1 X139.665 Y63.015 E1.7642
G1 X139.13 Y63.015 E.01681
G1 X179.347 Y103.232 E1.78797
G1 X179.347 Y103.766 E.01681
G1 X138.595 Y63.015 E1.81174
G1 X138.061 Y63.015 E.01681
M73 P2 R95
G1 X179.347 Y104.301 E1.83551
G1 X179.347 Y104.836 E.01681
G1 X137.526 Y63.015 E1.85928
G1 X136.991 Y63.015 E.01681
G1 X179.347 Y105.371 E1.88306
G1 X179.347 Y105.905 E.01681
M73 P3 R95
M73 Q3 S96
G1 X136.457 Y63.015 E1.90683
G1 X135.922 Y63.015 E.01681
G1 X179.347 Y106.44 E1.9306
G1 X179.347 Y106.975 E.01681
G1 X135.387 Y63.015 E1.95437
G1 X134.853 Y63.015 E.01681
G1 X179.347 Y107.509 E1.97814
G1 X179.347 Y108.044 E.01681
M73 Q3 S95
G1 X134.318 Y63.015 E2.00191
G1 X133.783 Y63.015 E.01681
G1 X179.347 Y108.579 E2.02568
G1 X179.347 Y109.113 E.01681
G1 X133.249 Y63.015 E2.04945
G1 X132.714 Y63.015 E.01681
G1 X179.347 Y109.648 E2.07322
G1 X179.347 Y110.183 E.01681
G1 X132.179 Y63.015 E2.09699
G1 X131.645 Y63.015 E.01681
G1 X179.347 Y110.717 E2.12076
G1 X179.347 Y111.252 E.01681
G1 X131.11 Y63.015 E2.14453
G1 X130.575 Y63.015 E.01681
G1 X179.347 Y111.787 E2.1683
G1 X179.347 Y112.321 E.01681
G1 X130.041 Y63.015 E2.19207
G1 X129.506 Y63.015 E.01681
G1 X179.347 Y112.856 E2.21585
G1 X179.347 Y113.391 E.01681
G1 X128.971 Y63.015 E2.23962
G1 X128.437 Y63.015 E.01681
M73 P3 R94
G1 X179.347 Y113.925 E2.26339
G1 X179.347 Y114.46 E.01681
G1 X127.902 Y63.015 E2.28716
G1 X127.367 Y63.015 E.01681
G1 X179.347 Y114.995 E2.31093
G1 X179.347 Y115.529 E.01681
M73 P4 R94
M73 Q4 S95
G1 X126.833 Y63.015 E2.3347
G1 X126.298 Y63.015 E.01681
G1 X179.347 Y116.064 E2.35847
G1 X179.347 Y116.599 E.01681
G1 X125.763 Y63.015 E2.38224
G1 X125.229 Y63.015 E.01681
M73 Q4 S94
G1 X179.347 Y117.133 E2.40601
G1 X179.347 Y117.668 E.01681
G1 X124.694 Y63.015 E2.42978
G1 X124.159 Y63.015 E.01681
G1 X179.347 Y118.203 E2.45355
G1 X179.347 Y118.737 E.01681
G1 X123.625 Y63.015 E2.47732
G1 X123.09 Y63.015 E.01681
G1 X179.347 Y119.272 E2.50109
G1 X179.347 Y119.807 E.01681
G1 X122.555 Y63.015 E2.52486
G1 X122.02 Y63.015 E.01681
G1 X179.347 Y120.341 E2.54864
G1 X179.347 Y120.876 E.01681
G1 X121.486 Y63.015 E2.57241
G1 X120.951 Y63.015 E.01681
G1 X179.347 Y121.411 E2.59618
G1 X179.347 Y121.945 E.01681
G1 X120.416 Y63.015 E2.61995
G1 X119.882 Y63.015 E.01681
M73 P4 R93
G1 X179.342 Y122.475 E2.64348
G1 X179.327 Y122.994 E.01634
G1 X119.347 Y63.015 E2.66658
G1 X118.812 Y63.015 E.01681
M73 P5 R93
M73 Q5 S94
G1 X179.29 Y123.492 E2.68873
G1 X179.244 Y123.981 E.01542
G1 X118.278 Y63.015 E2.71044
G1 X117.743 Y63.015 E.01681
G1 X179.175 Y124.447 E2.73117
G1 X179.097 Y124.904 E.01456
M73 Q5 S93
G1 X117.208 Y63.015 E2.75147
G1 X116.674 Y63.015 E.01681
G1 X179.006 Y125.347 E2.77117
G1 X178.901 Y125.776 E.0139
G1 X116.139 Y63.015 E2.79027
G1 X115.604 Y63.015 E.01681
G1 X178.788 Y126.198 E2.80901
G1 X178.659 Y126.604 E.01339
G1 X115.07 Y63.015 E2.82706
G1 X114.535 Y63.015 E.01681
G1 X178.526 Y127.005 E2.84491
G1 X178.376 Y127.39 E.01298
G1 X114 Y63.015 E2.86202
G1 X113.466 Y63.015 E.01681
G1 X178.224 Y127.773 E2.87904
G1 X178.055 Y128.139 E.01267
M73 P5 R92
G1 X112.931 Y63.015 E2.89531
G1 X112.396 Y63.015 E.01681
G1 X177.885 Y128.504 E2.91152
G1 X177.699 Y128.853 E.01243
M73 P6 R92
M73 Q6 S93
G1 X111.862 Y63.015 E2.92703
G1 X111.327 Y63.015 E.01681
G1 X177.512 Y129.2 E2.94247
G1 X177.31 Y129.533 E.01224
G1 X110.792 Y63.015 E2.95727
G1 X110.258 Y63.015 E.01681
M73 Q6 S92
G1 X177.106 Y129.863 E2.97197
G1 X176.889 Y130.181 E.0121
G1 X109.723 Y63.015 E2.9861
G1 X109.188 Y63.015 E.01681
G1 X176.669 Y130.496 E3.00008
G1 X176.438 Y130.799 E.01199
G1 X108.654 Y63.015 E3.01358
G1 X108.119 Y63.015 E.01681
G1 X176.202 Y131.098 E3.02685
G1 X175.957 Y131.387 E.01193
G1 X107.584 Y63.015 E3.03973
G1 X107.05 Y63.015 E.01681
G1 X175.705 Y131.67 E3.05231
G1 X175.446 Y131.946 E.01189
G1 X106.515 Y63.015 E3.06458
G1 X105.98 Y63.015 E.01681
M73 P6 R91
G1 X175.179 Y132.214 E3.07646
G1 X174.907 Y132.476 E.01189
M73 P7 R91
M73 Q7 S92
G1 X105.446 Y63.015 E3.08814
G1 X104.911 Y63.015 E.01681
G1 X174.624 Y132.728 E3.09933
G1 X174.338 Y132.977 E.01191
G1 X104.376 Y63.015 E3.1104
G1 X103.842 Y63.015 E.01681
M73 Q7 S91
G1 X174.04 Y133.213 E3.1209
G1 X173.74 Y133.448 E.01197
G1 X103.307 Y63.015 E3.13135
G1 X102.772 Y63.015 E.01681
G1 X173.426 Y133.669 E3.14114
G1 X173.111 Y133.889 E.01207
G1 X102.238 Y63.015 E3.15093
G1 X101.703 Y63.015 E.01681
G1 X172.782 Y134.094 E3.16004
G1 X172.451 Y134.297 E.01221
G1 X101.168 Y63.015 E3.1691
G1 X100.633 Y63.015 E.01681
G1 X172.106 Y134.487 E3.17752
G1 X171.758 Y134.674 E.01241
G1 X100.099 Y63.015 E3.18585
G1 X99.564 Y63.015 E.01681
M73 P7 R90
G1 X171.396 Y134.847 E3.19353
G1 X171.032 Y135.017 E.01265
M73 P8 R90
M73 Q8 S91
G1 X99.029 Y63.015 E3.20109
G1 X98.495 Y63.015 E.01681
G1 X170.652 Y135.172 E3.208
G1 X170.27 Y135.324 E.01294
G1 X97.96 Y63.015 E3.21476
G1 X97.425 Y63.015 E.01681
M73 Q8 S90
G1 X169.871 Y135.46 E3.22078
G1 X169.469 Y135.593 E.0133
G1 X96.891 Y63.015 E3.2267
G1 X96.356 Y63.015 E.01681
G1 X169.048 Y135.707 E3.23176
G1 X168.624 Y135.817 E.01378
G1 X95.821 Y63.015 E3.23668
G1 X95.287 Y63.015 E.01681
G1 X168.181 Y135.909 E3.24074
G1 X167.73 Y135.993 E.01441
G1 X94.752 Y63.015 E3.24448
G1 X94.217 Y63.015 E.01681
G1 X167.264 Y136.061 E3.24752
G1 X166.782 Y136.114 E.01524
M73 P8 R89
G1 X93.683 Y63.015 E3.24986
G1 X93.148 Y63.015 E.01681
M73 P9 R89
G1 X166.29 Y136.157 E3.25178
G1 X165.771 Y136.173 E.01632
M73 Q9 S90
G1 X92.613 Y63.015 E3.25247
G1 X92.079 Y63.015 E.01681
G1 X165.246 Y136.182 E3.25288
G1 X164.711 Y136.182 E.01681
G1 X91.544 Y63.015 E3.25288
G1 X91.009 Y63.015 E.01681
M73 Q9 S89
