; generated by PrusaSlicer 2.5.2+win64 on 2023-05-19 at 12:54:14 UTC


;
;
; 

; external perimeters extrusion width = 0.45mm
; perimeters extrusion width = 0.45mm
; infill extrusion width = 0.45mm
; solid infill extrusion width = 0.45mm
; top infill extrusion width = 0.40mm
; first layer extrusion width = 0.42mm

M73 P0 R118
M73 Q0 S120
M201 X1000 Y1000 Z200 E5000 ; sets maximum accelerations, mm/sec^2
M203 X200 Y200 Z12 E120 ; sets maximum feedrates, mm / sec
M204 P1250 R1250 T1250 ; sets acceleration (P, T) and retract acceleration (R), mm/sec^2
M205 X8.00 Y8.00 Z0.40 E4.50 ; sets the jerk limits, mm/sec
M205 S0 T0 ; sets the minimum extruding and travel feed rate, mm/sec
M107
;TYPE:Custom
M862.3 P "MK3S" ; printer model check
M862.1 P0.4 ; nozzle diameter check
M115 U3.12.2 ; tell printer latest fw version
G90 ; use absolute coordinates
M83 ; extruder relative mode
M104 S240 ; set extruder temp
M140 S85 ; set bed temp
M190 S85 ; wait for bed temp
M109 S240 ; wait for extruder temp
G28 W ; home all without mesh bed level
G80 ; mesh bed leveling

G1 Z0.2 F720
G1 Y-3 F1000 ; go outside print area
G92 E0
G1 X60 E9 F1000 ; intro line
G1 X100 E12.5 F1000 ; intro line

G92 E0
M221 S95

; Don't change E values below. Excessive value can damage the printer.

M907 E538 ; set extruder motor current
G21 ; set units to millimeters
G90 ; use absolute coordinates
M83 ; use relative distances for extrusion
M900 K0.08 ; Filament gcode LA 1.5
M900 K45 ; Filament gcode LA 1.0
M107
;LAYER_CHANGE
;Z:0.2
;HEIGHT:0.2
;BEFORE_LAYER_CHANGE
G92 E0.0
;0.2


G1 E-1 F2100
G1 Z.2 F720
;AFTER_LAYER_CHANGE
;0.2
G1 Z.4
G1 X47.247 Y90.984 F10800
G1 Z.2 F720
G1 E1 F2100
M204 S800
;TYPE:Skirt/Brim
;WIDTH:0.42
G1 F1200
G1 X125.634 Y55.984 E2.69164
G1 X126.987 Y55.809 E.04278
G1 X127.786 Y56.092 E.02658
G1 X207.402 Y101.765 E2.87787
G1 X208.337 Y102.536 E.038
M73 Q0 S119
G1 X209.118 Y104.179 E.05704
G1 X209.415 Y109.971 E.18187
G1 X208.805 Y111.686 E.05704
G1 X207.135 Y112.496 E.05821
G1 X157.421 Y115.038 E1.56079
G1 X156.48 Y115.02 E.02952
G1 X48.468 Y99.3 E3.4223
G1 X47.662 Y99.096 E.02607
G1 X46.83 Y98.671 E.0293
G1 X46.024 Y97.943 E.03407
G1 X45.516 Y97.159 E.0293
G1 X45.274 Y96.529 E.02115
G1 X45.126 Y95.66 E.02764
G1 X45.073 Y94.454 E.03785
G1 X45.188 Y93.526 E.0293
G1 X45.596 Y92.52 E.03407
G1 X45.985 Y91.968 E.02116
G1 X46.669 Y91.331 E.0293
G1 X47.196 Y91.015 E.01928
M204 S1000
; printing object Body1 id:0 copy 0
;WIPE_START
G1 F8640
G1 X50.953 Y89.337 E-.95
;WIPE_END
G1 E-.05 F2100
G1 Z.4 F720
G1 X180.787 Y108.412 F10800
G1 Z.2 F720
G1 E1 F2100
M204 S800
;TYPE:Perimeter
;WIDTH:0.419999
G1 F1200
G1 X180.681 Y108.7 E.00963
G1 X180.736 Y108.927 E.00733
G1 X180.949 Y109.165 E.01001
G1 X182.52 Y110.13 E.05781
;WIDTH:0.413218
G1 X182.843 Y110.193 E.01013
G1 X182.504 Y110.19 E.01042
;WIDTH:0.419999
G1 X157.607 Y111.46 E.78166
G1 X156.922 Y111.473 E.02148
G1 X156.389 Y111.411 E.01682
G1 X155.869 Y111.249 E.01707
G1 X155.289 Y110.955 E.02038
G1 X154.832 Y110.613 E.0179
G1 X135.558 Y93.222 E.81396
G1 X135.094 Y92.851 E.01864
G1 X134.563 Y92.503 E.0199
G1 X134.034 Y92.224 E.01876
G1 X133.358 Y91.947 E.02291
G1 X132.785 Y91.778 E.01872
G1 X132.132 Y91.649 E.02086
G1 X131.47 Y91.587 E.02087
G1 X130.838 Y91.588 E.01979
G1 X49.069 Y95.769 E2.56716
G1 X48.814 Y95.702 E.00828
G1 X48.7 Y95.526 E.00657
G1 X48.666 Y94.988 E.0169
G1 X48.657 Y94.374 E.01925
G1 X48.78 Y94.211 E.00643
G1 X48.963 Y94.151 E.006
G1 X135.376 Y89.73 E2.71296
G1 X136.06 Y89.717 E.02148
G1 X136.592 Y89.779 E.01677
G1 X137.151 Y89.955 E.01837
G1 X137.665 Y90.216 E.01808
G1 X138.152 Y90.578 E.01904
G1 X157.264 Y107.83 E.80727
G1 X157.888 Y108.339 E.02526
G1 X158.421 Y108.689 E.01997
G1 X159.008 Y108.995 E.02077
G1 X159.56 Y109.22 E.01869
G1 X160.202 Y109.413 E.021
G1 X160.917 Y109.548 E.02281
G1 X161.513 Y109.603 E.01877
G1 X162.144 Y109.602 E.01979
G1 X168.179 Y109.293 E.18948
G1 X168.674 Y109.232 E.01564
G1 X169.205 Y109.088 E.01724
G1 X169.709 Y108.868 E.01724
G1 X170.174 Y108.574 E.01724
G1 X170.609 Y108.197 E.01806
G1 X170.969 Y107.771 E.01747
G1 X171.238 Y107.334 E.0161
G1 X171.442 Y106.885 E.01549
G1 X171.596 Y106.329 E.01809
G1 X171.663 Y105.819 E.0161
G1 X171.652 Y105.262 E.01748
G1 X171.553 Y104.695 E.01806
G1 X171.374 Y104.168 E.01744
G1 X171.14 Y103.711 E.0161
G1 X170.857 Y103.302 E.01559
G1 X170.46 Y102.879 E.01822
G1 X125.141 Y61.971 E1.91421
G1 X125.008 Y61.746 E.00818
G1 X126.983 Y59.558 E.09242
G1 X180.898 Y108.225 E2.27729
G1 X180.826 Y108.304 E.00334
G1 X180.807 Y108.355 E.0017
M204 S1000
;WIPE_START
G1 F8640
G1 X180.681 Y108.7 E-.08478
G1 X180.736 Y108.927 E-.054
G1 X180.949 Y109.165 E-.07372
G1 X182.52 Y110.13 E-.42573
G1 X182.843 Y110.193 E-.07597
G1 X182.504 Y110.19 E-.07814
G1 X181.823 Y110.225 E-.15767
;WIPE_END
G1 E-.05 F2100
G1 Z.4 F720
G1 X192.786 Y109.68 F10800
G1 Z.2 F720
G1 E1 F2100
M204 S800
;WIDTH:0.416758
G1 F1200
G1 X193.083 Y109.525 E.01041
;WIDTH:0.419999
G1 X195.861 Y106.45 E.12993
G1 X195.958 Y106.253 E.00691
G1 X196.632 Y105.506 E.03155
G1 X205.593 Y105.047 E.28134
G1 X205.796 Y108.996 E.12398
G1 X193.14 Y109.645 E.39734
;WIDTH:0.416758
G1 X192.846 Y109.674 E.00918
M204 S1000
;WIPE_START
G1 F8640
G1 X193.083 Y109.525 E-.06466
G1 X195.654 Y106.68 E-.88534
;WIPE_END
G1 E-.05 F2100
G1 Z.4 F720
G1 X181.106 Y108.557 F10800
G1 Z.2 F720
G1 E1 F2100
M204 S800
;TYPE:External perimeter
;WIDTH:0.419999
G1 F1200
G1 X181.058 Y108.689 E.00441
G1 X181.147 Y108.844 E.00561
G1 X182.716 Y109.812 E.05781
G1 X182.825 Y109.84 E.00352
M73 P0 R117
G1 X192.674 Y109.336 E.30922
G1 X192.805 Y109.274 E.00452
G1 X195.581 Y106.198 E.12993
G1 X195.629 Y106.054 E.00475
G1 X196.457 Y105.137 E.03874
G1 X205.907 Y104.654 E.29669
G1 X205.953 Y104.695 E.00193
G1 X206.192 Y109.354 E.14626
G1 X157.626 Y111.837 E1.52472
G1 X156.917 Y111.85 E.02224
G1 X156.311 Y111.78 E.01912
G1 X155.72 Y111.596 E.01941
G1 X155.095 Y111.279 E.02198
G1 X154.589 Y110.901 E.0198
G1 X135.473 Y93.646 E.80742
G1 X134.886 Y93.165 E.0238
G1 X134.386 Y92.836 E.01877
G1 X133.89 Y92.572 E.01762
G1 X133.249 Y92.308 E.02173
G1 X132.711 Y92.147 E.01761
G1 X132.095 Y92.025 E.01969
G1 X131.47 Y91.964 E.01969
G1 X130.858 Y91.965 E.0192
G1 X49.122 Y96.144 E2.5661
G1 X48.794 Y96.116 E.01032
G1 X48.583 Y96.008 E.00744
G1 X48.421 Y95.834 E.00745
G1 X48.328 Y95.614 E.00748
G1 X48.263 Y94.594 E.03203
G1 X48.29 Y94.262 E.01045
G1 X48.398 Y94.051 E.00744
G1 X48.572 Y93.889 E.00745
G1 X48.927 Y93.776 E.01167
G1 X135.159 Y89.363 E2.70727
G1 X135.777 Y89.336 E.01939
G1 X136.363 Y89.365 E.0184
G1 X136.87 Y89.466 E.0162
G1 X137.475 Y89.685 E.02018
G1 X137.976 Y89.963 E.01797
G1 X138.395 Y90.289 E.01665
G1 X157.517 Y107.55 E.8077
G1 X158.097 Y108.025 E.02349
G1 X158.597 Y108.355 E.01879
G1 X159.152 Y108.646 E.01966
G1 X159.671 Y108.859 E.01759
G1 X160.273 Y109.043 E.01973
G1 X160.953 Y109.173 E.0217
G1 X161.512 Y109.226 E.01762
G1 X162.125 Y109.225 E.0192
G1 X168.16 Y108.916 E.18948
G1 X168.627 Y108.858 E.01476
G1 X169.103 Y108.726 E.01548
G1 X169.553 Y108.524 E.01548
G1 X169.969 Y108.258 E.01548
G1 X170.305 Y107.969 E.01391
G1 X170.648 Y107.573 E.01639
G1 X170.917 Y107.136 E.0161
G1 X171.097 Y106.733 E.01387
G1 X171.222 Y106.279 E.01473
G1 X171.289 Y105.77 E.0161
G1 X171.275 Y105.274 E.01556
G1 X171.2 Y104.837 E.01392
G1 X171.039 Y104.34 E.01637
G1 X170.804 Y103.883 E.0161
G1 X170.55 Y103.52 E.01392
G1 X170.207 Y103.158 E.01561
G1 X124.906 Y62.266 E1.91348
G1 X124.758 Y62.093 E.00714
G1 X124.649 Y61.859 E.00808
G1 X124.635 Y61.597 E.00825
G1 X126.956 Y59.025 E.10862
G1 X181.43 Y108.198 E2.30094
G1 X181.146 Y108.513 E.01329
M204 S1000
M73 P1 R117
M73 Q1 S118
G1 X180.987 Y108.632 F10800
;WIPE_START
G1 F8640
G1 X181.058 Y108.689 E-.04559
G1 X181.147 Y108.844 E-.04131
G1 X182.716 Y109.812 E-.42573
G1 X182.825 Y109.84 E-.02589
G1 X184.604 Y109.749 E-.41148
;WIPE_END
G1 E-.05 F2100
G1 Z.4 F720
G1 X182.843 Y110.193 F10800
G1 Z.2 F720
G1 E1 F2100
M204 S800
;TYPE:Perimeter
;WIDTH:0.373704
G1 F1200
G1 X192.692 Y109.689 E.27126
;WIDTH:0.381926
G1 X192.786 Y109.68 E.00266
M204 S1000
;WIPE_START
G1 F8640
G1 X192.692 Y109.689 E-.02182
G1 X188.678 Y109.895 E-.92818
;WIPE_END
G1 E-.05 F2100
G1 Z.4 F720
G1 X205.475 Y106.05 F10800
G1 Z.2 F720
G1 E1 F2100
M204 S800
;TYPE:Solid infill
;WIDTH:0.429485
G1 F1200
G1 X204.85 Y105.425 E.02841
G1 X204.33 Y105.452 E.01674
G1 X205.325 Y106.447 E.04525
G1 X205.355 Y107.023 E.01855
G1 X203.81 Y105.478 E.07024
G1 X203.29 Y105.505 E.01674
G1 X205.385 Y107.6 E.09522
G1 X205.414 Y108.176 E.01855
G1 X202.77 Y105.531 E.1202
G1 X202.25 Y105.558 E.01674
G1 X205.37 Y108.678 E.14183
G1 X204.85 Y108.705 E.01674
G1 X201.73 Y105.585 E.14183
G1 X201.209 Y105.611 E.01674
G1 X204.33 Y108.731 E.14183
G1 X203.809 Y108.758 E.01674
G1 X200.689 Y105.638 E.14183
G1 X200.169 Y105.664 E.01674
G1 X203.289 Y108.785 E.14183
G1 X202.769 Y108.811 E.01674
G1 X199.649 Y105.691 E.14183
G1 X199.129 Y105.718 E.01674
G1 X202.249 Y108.838 E.14183
G1 X201.729 Y108.864 E.01674
G1 X198.609 Y105.744 E.14183
G1 X198.089 Y105.771 E.01674
G1 X201.209 Y108.891 E.14183
G1 X200.689 Y108.917 E.01674
G1 X197.569 Y105.798 E.14182
G1 X197.049 Y105.824 E.01674
G1 X200.169 Y108.944 E.14182
G1 X199.649 Y108.971 E.01674
G1 X196.66 Y105.982 E.13587
G1 X196.4 Y106.269 E.01244
G1 X199.129 Y108.997 E.12402
G1 X198.609 Y109.024 E.01674
G1 X196.176 Y106.591 E.11058
G1 X195.925 Y106.887 E.01247
G1 X198.088 Y109.05 E.09836
G1 X197.568 Y109.077 E.01674
G1 X195.665 Y107.174 E.08651
G1 X195.406 Y107.461 E.01244
G1 X197.048 Y109.104 E.07466
G1 X196.528 Y109.13 E.01674
G1 X195.147 Y107.749 E.06281
G1 X194.887 Y108.036 E.01244
G1 X196.008 Y109.157 E.05095
G1 X195.488 Y109.183 E.01674
G1 X194.628 Y108.323 E.0391
G1 X194.368 Y108.611 E.01244
G1 X194.968 Y109.21 E.02725
G1 X194.448 Y109.237 E.01674
G1 X194.109 Y108.898 E.0154
G1 X193.85 Y109.185 E.01244
G1 X194.089 Y109.425 E.01089
M204 S1000
;WIPE_START
G1 F8640
G1 X193.85 Y109.185 E-.07825
G1 X194.109 Y108.898 E-.08938
G1 X194.448 Y109.237 E-.11061
G1 X194.968 Y109.21 E-.12025
G1 X194.368 Y108.611 E-.19575
G1 X194.628 Y108.323 E-.08938
G1 X195.444 Y109.139 E-.2664
;WIPE_END
G1 E-.05 F2100
G1 Z.4 F720
G1 X172.726 Y101.078 F10800
G1 Z.2 F720
G1 E1 F2100
M204 S800
;WIDTH:0.42066
G1 F1200
G1 X180.338 Y108.689 E.33809
G1 X180.428 Y109.081 E.01264
G1 X180.752 Y109.442 E.01525
G1 X181.493 Y109.899 E.02732
G1 X181.037 Y109.922 E.01434
G1 X169.586 Y98.472 E.50863
G1 X164.097 Y93.516 E.23227
G1 X180.528 Y109.948 E.72989
G1 X180.02 Y109.974 E.01598
G1 X158.607 Y88.561 E.95114
G1 X153.118 Y83.606 E.23227
G1 X179.512 Y110 E1.1724
G1 X179.004 Y110.026 E.01598
G1 X147.629 Y78.651 E1.39365
G1 X142.14 Y73.696 E.23227
G1 X178.496 Y110.052 E1.61491
G1 X177.987 Y110.078 E.01598
G1 X136.65 Y68.741 E1.83616
G1 X131.161 Y63.786 E.23227
G1 X163.646 Y96.271 E1.44295
G1 X158.157 Y91.316 E.23224
G1 X126.946 Y60.105 E1.38637
G1 X126.693 Y60.386 E.01188
G1 X152.668 Y86.362 E1.15382
G1 X147.18 Y81.407 E.23224
G1 X126.439 Y60.667 E.92128
G1 X126.186 Y60.948 E.01188
G1 X141.691 Y76.453 E.68873
G1 X136.202 Y71.499 E.23224
G1 X125.932 Y61.229 E.45619
G1 X125.679 Y61.509 E.01188
G1 X133.062 Y68.893 E.32797
M204 S1000
;WIPE_START
G1 F8640
G1 X130.153 Y65.983 E-.95
;WIPE_END
G1 E-.05 F2100
G1 Z.4 F720
G1 X171.566 Y104.191 F10800
G1 Z.2 F720
G1 E1 F2100
M204 S800
G1 F1200
G1 X177.479 Y110.104 E.26264
G1 X176.971 Y110.13 E.01598
G1 X171.98 Y105.14 E.22168
G1 X171.996 Y105.69 E.01728
G1 X176.463 Y110.156 E.1984
G1 X175.954 Y110.182 E.01598
G1 X171.954 Y106.181 E.17771
G1 X171.91 Y106.485 E.00964
G1 X171.87 Y106.632 E.00477
M73 P1 R116
G1 X175.446 Y110.208 E.15885
G1 X174.938 Y110.234 E.01598
G1 X171.74 Y107.036 E.14206
G1 X171.581 Y107.411 E.0128
G1 X174.43 Y110.26 E.12654
G1 X173.922 Y110.286 E.01598
G1 X171.381 Y107.745 E.11287
G1 X171.252 Y107.959 E.00785
G1 X171.163 Y108.062 E.00426
G1 X173.413 Y110.312 E.09995
G1 X172.905 Y110.338 E.01598
G1 X170.916 Y108.349 E.08836
G1 X170.782 Y108.504 E.00643
G1 X170.649 Y108.616 E.00547
G1 X172.397 Y110.364 E.07765
G1 X171.889 Y110.39 E.01598
G1 X170.358 Y108.859 E.06799
G1 X170.03 Y109.065 E.01217
G1 X171.38 Y110.416 E.06001
G1 X170.872 Y110.442 E.01598
G1 X169.68 Y109.25 E.05295
G1 X169.308 Y109.412 E.01275
G1 X170.364 Y110.468 E.04691
G1 X169.856 Y110.494 E.01598
G1 X168.887 Y109.525 E.04305
G1 X168.727 Y109.567 E.0052
G1 X168.431 Y109.604 E.00935
G1 X169.348 Y110.52 E.04071
G1 X168.839 Y110.546 E.01598
G1 X167.939 Y109.645 E.04002
G1 X167.43 Y109.671 E.01598
G1 X168.331 Y110.572 E.04001
G1 X167.823 Y110.598 E.01598
G1 X166.922 Y109.697 E.04001
G1 X166.414 Y109.723 E.01598
G1 X167.315 Y110.624 E.04001
G1 X166.807 Y110.65 E.01598
G1 X165.906 Y109.749 E.04001
G1 X165.398 Y109.775 E.01598
G1 X166.298 Y110.676 E.04001
G1 X165.79 Y110.702 E.01598
G1 X164.889 Y109.801 E.04001
G1 X164.381 Y109.827 E.01598
G1 X165.282 Y110.728 E.04001
G1 X164.774 Y110.754 E.01598
G1 X163.873 Y109.853 E.04001
G1 X163.365 Y109.879 E.01598
G1 X164.265 Y110.78 E.04001
G1 X163.757 Y110.806 E.01598
G1 X162.857 Y109.905 E.04001
G1 X162.348 Y109.931 E.01598
G1 X163.249 Y110.832 E.04001
G1 X162.741 Y110.858 E.01598
G1 X161.823 Y109.94 E.04076
G1 X161.272 Y109.923 E.01733
G1 X162.233 Y110.884 E.04268
G1 X161.724 Y110.91 E.01598
G1 X160.662 Y109.848 E.04718
G1 X160.13 Y109.745 E.01704
G1 X159.98 Y109.699 E.00492
G1 X161.216 Y110.936 E.05492
G1 X160.708 Y110.962 E.01598
G1 X159.176 Y109.43 E.06803
G1 X158.808 Y109.276 E.01256
G1 X158.256 Y108.985 E.01957
G1 X158.083 Y108.871 E.0065
G1 X160.2 Y110.988 E.094
G1 X159.691 Y111.014 E.01598
G1 X154.195 Y105.517 E.24414
G1 X148.705 Y100.562 E.23229
G1 X159.183 Y111.04 E.46543
G1 X158.675 Y111.066 E.01598
G1 X143.215 Y95.606 E.68671
G1 X137.842 Y90.767 E.22712
G1 X158.167 Y111.092 E.90281
G1 X157.659 Y111.118 E.01598
G1 X136.705 Y90.164 E.93074
G1 X136.521 Y90.112 E.00601
G1 X136.145 Y90.057 E.01194
G1 X136.063 Y90.056 E.00256
G1 X157.143 Y111.137 E.93637
G1 X156.838 Y111.132 E.00959
G1 X156.566 Y111.093 E.00863
G1 X135.534 Y90.062 E.93422
G1 X135.026 Y90.088 E.01598
G1 X155.78 Y110.841 E.92187
G1 X155.38 Y110.614 E.01443
G1 X155.051 Y110.354 E.01317
G1 X152.039 Y107.635 E.12747
G1 X134.518 Y90.114 E.77828
G1 X134.01 Y90.14 E.01598
G1 X146.554 Y102.684 E.55721
G1 X141.069 Y97.733 E.23208
G1 X133.501 Y90.166 E.33614
G1 X132.993 Y90.192 E.01598
G1 X135.709 Y92.907 E.12063
G1 X135.356 Y92.62 E.01429
G1 X134.792 Y92.244 E.02131
G1 X134.192 Y91.925 E.02133
G1 X132.485 Y90.218 E.07583
G1 X131.977 Y90.244 E.01598
G1 X133.316 Y91.583 E.0595
G1 X132.928 Y91.464 E.01274
G1 X132.596 Y91.397 E.01065
G1 X131.468 Y90.27 E.05009
G1 X130.96 Y90.296 E.01598
G1 X131.957 Y91.292 E.04427
G1 X131.378 Y91.248 E.01823
G1 X130.452 Y90.322 E.04114
G1 X129.944 Y90.348 E.01598
G1 X130.845 Y91.249 E.04005
G1 X130.336 Y91.274 E.01601
G1 X129.436 Y90.374 E.04
G1 X128.927 Y90.4 E.01598
G1 X129.828 Y91.3 E.04
G1 X129.32 Y91.326 E.01598
G1 X128.419 Y90.426 E.04
G1 X127.911 Y90.452 E.01598
G1 X128.812 Y91.352 E.04
G1 X128.303 Y91.378 E.01598
G1 X127.403 Y90.478 E.04
G1 X126.895 Y90.504 E.01598
G1 X127.795 Y91.404 E.04
G1 X127.287 Y91.43 E.01598
G1 X126.386 Y90.53 E.04
G1 X125.878 Y90.556 E.01598
G1 X126.779 Y91.456 E.04
G1 X126.271 Y91.482 E.01598
G1 X125.37 Y90.582 E.04
G1 X124.862 Y90.608 E.01598
G1 X125.762 Y91.508 E.04
G1 X125.254 Y91.534 E.01598
G1 X124.354 Y90.634 E.04
G1 X123.845 Y90.66 E.01598
G1 X124.746 Y91.56 E.03999
G1 X124.238 Y91.586 E.01598
G1 X123.337 Y90.686 E.03999
G1 X122.829 Y90.712 E.01598
G1 X123.729 Y91.612 E.03999
G1 X123.221 Y91.638 E.01598
G1 X122.321 Y90.738 E.03999
G1 X121.813 Y90.764 E.01598
G1 X122.713 Y91.664 E.03999
G1 X122.205 Y91.69 E.01598
G1 X121.304 Y90.79 E.03999
G1 X120.796 Y90.816 E.01598
G1 X121.697 Y91.716 E.03999
G1 X121.188 Y91.742 E.01598
G1 X120.288 Y90.842 E.03999
G1 X119.78 Y90.868 E.01598
G1 X120.68 Y91.768 E.03999
G1 X120.172 Y91.794 E.01598
G1 X119.272 Y90.894 E.03999
G1 X118.763 Y90.92 E.01598
G1 X119.664 Y91.82 E.03999
G1 X119.155 Y91.846 E.01598
G1 X118.255 Y90.946 E.03999
G1 X117.747 Y90.972 E.01598
G1 X118.647 Y91.872 E.03998
G1 X118.139 Y91.898 E.01598
