; generated by PrusaSlicer 2.5.2+win64 on 2023-05-19 at 12:54:55 UTC


;
;
; 

; external perimeters extrusion width = 0.45mm
; perimeters extrusion width = 0.45mm
; infill extrusion width = 0.45mm
; solid infill extrusion width = 0.45mm
; top infill extrusion width = 0.40mm
; first layer extrusion width = 0.42mm

M73 P0 R71
M73 Q0 S72
M201 X1000 Y1000 Z200 E5000 ; sets maximum accelerations, mm/sec^2
M203 X200 Y200 Z12 E120 ; sets maximum feedrates, mm / sec
M204 P1250 R1250 T1250 ; sets acceleration (P, T) and retract acceleration (R), mm/sec^2
M205 X8.00 Y8.00 Z0.40 E4.50 ; sets the jerk limits, mm/sec
M205 S0 T0 ; sets the minimum extruding and travel feed rate, mm/sec
M107
;TYPE:Custom
M862.3 P "MK3S" ; printer model check
M862.1 P0.4 ; nozzle diameter check
M115 U3.12.2 ; tell printer latest fw version
G90 ; use absolute coordinates
M83 ; extruder relative mode
M104 S240 ; set extruder temp
M140 S85 ; set bed temp
M190 S85 ; wait for bed temp
M109 S240 ; wait for extruder temp
G28 W ; home all without mesh bed level
G80 ; mesh bed leveling

G1 Z0.2 F720
G1 Y-3 F1000 ; go outside print area
G92 E0
G1 X60 E9 F1000 ; intro line
G1 X100 E12.5 F1000 ; intro line

G92 E0
M221 S95

; Don't change E values below. Excessive value can damage the printer.

M907 E538 ; set extruder motor current
G21 ; set units to millimeters
G90 ; use absolute coordinates
M83 ; use relative distances for extrusion
M900 K0.08 ; Filament gcode LA 1.5
M900 K45 ; Filament gcode LA 1.0
M107
;LAYER_CHANGE
;Z:0.2
;HEIGHT:0.2
;BEFORE_LAYER_CHANGE
G92 E0.0
;0.2


G1 E-1 F2100
G1 Z.2 F720
;AFTER_LAYER_CHANGE
;0.2
G1 Z.4
G1 X90.433 Y71.846 F10800
G1 Z.2 F720
G1 E1 F2100
M204 S800
;TYPE:Skirt/Brim
;WIDTH:0.42
G1 F1200
G1 X92.527 Y69.243 E.10472
G1 X95.025 Y66.605 E.11393
G1 X97.717 Y64.204 E.1131
G1 X100.436 Y62.151 E.10682
G1 X101.94 Y61.152 E.05662
G1 X105.073 Y59.345 E.11337
G1 X106.703 Y58.538 E.05706
G1 X109.779 Y57.236 E.10471
G1 X113.255 Y56.089 E.11476
G1 X116.737 Y55.257 E.11226
G1 X120.037 Y54.744 E.10471
G1 X121.849 Y54.572 E.05706
G1 X125.463 Y54.459 E.11337
G1 X127.268 Y54.517 E.05662
G1 X130.66 Y54.831 E.10682
G1 X134.213 Y55.455 E.1131
G1 X137.726 Y56.383 E.11393
G1 X140.876 Y57.493 E.10471
G1 X142.491 Y58.173 E.05495
G1 X145.754 Y59.793 E.11421
G1 X148.831 Y61.658 E.11282
G1 X151.537 Y63.615 E.10472
G1 X152.946 Y64.767 E.05706
G1 X155.583 Y67.215 E.11282
G1 X158.033 Y69.91 E.11421
G1 X160.073 Y72.555 E.10471
G1 X161.106 Y74.074 E.05761
G1 X162.961 Y77.219 E.11449
G1 X163.756 Y78.781 E.05495
G1 X165.089 Y81.843 E.10471
G1 X166.266 Y85.272 E.11365
G1 X167.146 Y88.779 E.11338
G1 X167.476 Y90.568 E.05706
G1 X167.886 Y93.883 E.10472
G1 X168.038 Y97.616 E.11714
G1 X167.9 Y100.953 E.10472
G1 X167.724 Y102.697 E.05495
G1 X167.13 Y106.299 E.11449
G1 X166.716 Y108.089 E.05761
G1 X165.769 Y111.292 E.10472
G1 X164.458 Y114.691 E.11421
G1 X162.884 Y117.926 E.11282
G1 X161.149 Y120.859 E.10682
G1 X160.133 Y122.362 E.0569
G1 X157.928 Y125.216 E.1131
G1 X156.726 Y126.583 E.05706
G1 X154.376 Y128.956 E.10471
G1 X151.591 Y131.344 E.11504
G1 X150.136 Y132.438 E.05706
G1 X147.352 Y134.282 E.10471
G1 X144.218 Y136.013 E.11226
G1 X140.876 Y137.507 E.11477
G1 X137.726 Y138.617 E.10471
G1 X135.977 Y139.119 E.05706
M73 Q0 S71
G1 X132.445 Y139.894 E.11338
G1 X128.852 Y140.369 E.11365
G1 X125.516 Y140.54 E.10472
G1 X123.728 Y140.525 E.05606
G1 X120.037 Y140.256 E.11603
G1 X116.737 Y139.743 E.10471
G1 X115.024 Y139.372 E.05495
G1 X111.52 Y138.38 E.11421
G1 X108.153 Y137.111 E.11282
G1 X106.554 Y136.392 E.05495
G1 X103.536 Y134.812 E.10682
G1 X100.494 Y132.89 E.11282
G1 X97.59 Y130.691 E.11421
G1 X95.099 Y128.466 E.10472
G1 X93.805 Y127.162 E.05761
G1 X91.403 Y124.412 E.11449
G1 X89.418 Y121.726 E.10472
G1 X88.421 Y120.193 E.05733
G1 X86.625 Y117.004 E.11476
G1 X85.229 Y113.97 E.10471
G1 X84.568 Y112.275 E.05706
G1 X83.47 Y108.829 E.11337
G1 X82.665 Y105.295 E.11366
G1 X82.187 Y101.99 E.10471
G1 X82.04 Y100.243 E.05495
G1 X81.962 Y96.593 E.11449
G1 X82.04 Y94.757 E.05761
G1 X82.383 Y91.435 E.10472
G1 X83.047 Y87.853 E.11421
G1 X84 Y84.384 E.11282
G1 X84.568 Y82.725 E.05495
G1 X85.863 Y79.574 E.10682
G1 X87.496 Y76.368 E.11282
G1 X89.418 Y73.274 E.11421
G1 X90.399 Y71.895 E.05307
M204 S1000
; printing object Body1 id:0 copy 0
;WIPE_START
G1 F8640
G1 X92.527 Y69.243 E-.78499
G1 X93.018 Y68.724 E-.16501
;WIPE_END
G1 E-.05 F2100
G1 Z.4 F720
G1 X127.016 Y58.206 F10800
G1 Z.2 F720
G1 E1 F2100
M204 S800
;TYPE:Perimeter
;WIDTH:0.419999
G1 F1200
G1 X128.617 Y58.321 E.05031
G1 X130.23 Y58.504 E.0509
G1 X131.824 Y58.751 E.05058
G1 X133.416 Y59.065 E.05088
G1 X134.985 Y59.443 E.05061
G1 X136.546 Y59.888 E.05088
G1 X138.07 Y60.39 E.0503
G1 X139.58 Y60.957 E.05059
G1 X141.066 Y61.586 E.05059
G1 X142.534 Y62.279 E.0509
G1 X143.963 Y63.028 E.0506
G1 X145.361 Y63.834 E.05059
G1 X146.732 Y64.703 E.05088
G1 X148.059 Y65.622 E.05061
G1 X149.346 Y66.594 E.05057
G1 X150.593 Y67.618 E.05061
G1 X151.803 Y68.699 E.05088
G1 X152.961 Y69.823 E.05059
G1 X154.079 Y71 E.0509
G1 X155.135 Y72.207 E.05031
G1 X156.147 Y73.464 E.05059
G1 X157.112 Y74.769 E.05088
G1 X158.017 Y76.106 E.05061
G1 X158.866 Y77.477 E.05057
G1 X159.663 Y78.891 E.05091
G1 X160.397 Y80.328 E.05059
G1 X161.071 Y81.794 E.05059
G1 X161.681 Y83.278 E.0503
G1 X162.237 Y84.803 E.0509
G1 X162.726 Y86.341 E.05059
G1 X163.154 Y87.906 E.05088
G1 X163.516 Y89.479 E.05061
G1 X163.813 Y91.074 E.05088
G1 X164.043 Y92.662 E.0503
G1 X164.209 Y94.267 E.05059
G1 X164.309 Y95.886 E.05088
G1 X164.34 Y97.57 E.05281
G1 X164.309 Y99.113 E.0484
G1 X164.21 Y100.724 E.05059
G1 X164.044 Y102.329 E.05059
G1 X163.812 Y103.936 E.0509
G1 X163.516 Y105.521 E.05057
G1 X163.154 Y107.094 E.05061
G1 X162.726 Y108.659 E.05088
G1 X162.237 Y110.197 E.05059
G1 X161.688 Y111.704 E.0503
G1 X161.071 Y113.206 E.05091
G1 X160.397 Y114.672 E.05058
G1 X159.659 Y116.117 E.05088
G1 X158.866 Y117.523 E.05061
G1 X158.017 Y118.894 E.05057
G1 X157.112 Y120.231 E.05061
G1 X156.147 Y121.536 E.05088
G1 X155.136 Y122.793 E.05059
G1 X154.066 Y124.014 E.05091
G1 X152.961 Y125.177 E.0503
G1 X151.803 Y126.301 E.05059
G1 X150.593 Y127.382 E.05088
G1 X149.346 Y128.406 E.05061
G1 X148.05 Y129.384 E.05088
G1 X146.732 Y130.297 E.0503
G1 X145.369 Y131.161 E.05059
G1 X143.963 Y131.972 E.05088
G1 X142.534 Y132.721 E.0506
G1 X141.075 Y133.411 E.0506
G1 X139.58 Y134.043 E.05088
G1 X138.07 Y134.61 E.05059
G1 X136.546 Y135.112 E.0503
G1 X134.985 Y135.557 E.05088
G1 X133.416 Y135.935 E.05061
G1 X131.824 Y136.249 E.05088
G1 X130.23 Y136.496 E.05058
G1 X128.617 Y136.679 E.0509
G1 X127.016 Y136.794 E.05031
G1 X125.404 Y136.844 E.05059
G1 X123.79 Y136.828 E.05059
G1 X122.169 Y136.744 E.05091
G1 X120.562 Y136.596 E.05059
G1 X118.963 Y136.381 E.05059
G1 X117.365 Y136.099 E.05088
G1 X115.789 Y135.754 E.05059
G1 X114.238 Y135.347 E.05029
G1 X112.685 Y134.871 E.05091
G1 X111.164 Y134.335 E.05059
G1 X109.656 Y133.733 E.05088
G1 X108.183 Y133.073 E.05061
G1 X106.74 Y132.354 E.05057
G1 X105.325 Y131.576 E.05061
G1 X103.937 Y130.736 E.05088
G1 X102.592 Y129.845 E.05059
G1 X101.277 Y128.893 E.05091
G1 X100.017 Y127.9 E.0503
G1 X98.791 Y126.85 E.05059
G1 X97.603 Y125.745 E.05088
G1 X96.468 Y124.598 E.05061
G1 X95.375 Y123.398 E.05088
G1 X94.344 Y122.169 E.0503
G1 X93.358 Y120.892 E.05059
G1 X92.421 Y119.567 E.05088
G1 X91.543 Y118.213 E.0506
G1 X90.722 Y116.824 E.0506
G1 X89.954 Y115.394 E.05088
G1 X89.25 Y113.942 E.05059
G1 X88.61 Y112.472 E.0503
G1 X88.023 Y110.959 E.05088
G1 X87.502 Y109.431 E.05061
G1 X87.042 Y107.874 E.05088
G1 X86.649 Y106.31 E.05059
G1 X86.318 Y104.72 E.0509
G1 X86.056 Y103.138 E.0503
G1 X85.857 Y101.536 E.05059
G1 X85.725 Y99.928 E.05059
G1 X85.658 Y98.306 E.0509
G1 X85.658 Y96.694 E.05057
G1 X85.724 Y95.081 E.05061
G1 X85.857 Y93.464 E.05088
G1 X86.056 Y91.862 E.05059
G1 X86.318 Y90.28 E.0503
G1 X86.649 Y88.69 E.0509
G1 X87.042 Y87.126 E.05059
G1 X87.502 Y85.569 E.05088
G1 X88.023 Y84.041 E.05061
G1 X88.61 Y82.528 E.05088
G1 X89.25 Y81.058 E.0503
G1 X89.954 Y79.606 E.05059
G1 X90.717 Y78.184 E.05059
G1 X91.543 Y76.787 E.05089
G1 X92.421 Y75.433 E.0506
G1 X93.353 Y74.116 E.05059
G1 X94.344 Y72.831 E.05088
G1 X95.381 Y71.595 E.05059
G1 X96.468 Y70.402 E.05061
G1 X97.603 Y69.255 E.05059
G1 X98.791 Y68.15 E.05088
G1 X100.017 Y67.1 E.05059
M73 P0 R70
G1 X101.292 Y66.096 E.0509
G1 X102.592 Y65.155 E.0503
G1 X103.937 Y64.264 E.05059
G1 X105.325 Y63.424 E.05088
G1 X106.739 Y62.646 E.05061
G1 X108.192 Y61.923 E.05088
G1 X109.656 Y61.267 E.0503
G1 X111.155 Y60.669 E.05059
G1 X112.685 Y60.129 E.05088
G1 X114.228 Y59.656 E.0506
G1 X115.789 Y59.246 E.0506
G1 X117.374 Y58.899 E.05088
G1 X118.963 Y58.619 E.05059
G1 X120.553 Y58.406 E.0503
G1 X122.17 Y58.256 E.0509
G1 X123.781 Y58.173 E.05059
G1 X125.404 Y58.156 E.05088
G1 X126.956 Y58.204 E.04871
M204 S1000
G1 X127.036 Y57.829 F10800
M204 S800
;TYPE:External perimeter
G1 F1200
G1 X128.652 Y57.945 E.05079
G1 X130.28 Y58.13 E.05138
G1 X131.89 Y58.38 E.05107
G1 X133.497 Y58.697 E.05137
G1 X135.081 Y59.078 E.0511
G1 X136.657 Y59.527 E.05137
G1 X138.195 Y60.034 E.05078
G1 X139.72 Y60.607 E.05107
G1 X141.22 Y61.241 E.05107
G1 X142.702 Y61.941 E.05138
G1 X144.145 Y62.697 E.05108
G1 X145.556 Y63.512 E.05108
G1 X146.94 Y64.388 E.05137
G1 X148.28 Y65.316 E.0511
G1 X149.579 Y66.297 E.05105
G1 X150.838 Y67.332 E.0511
G1 X152.06 Y68.423 E.05136
G1 X153.229 Y69.557 E.05108
G1 X154.358 Y70.746 E.05138
G1 X155.424 Y71.965 E.05079
G1 X156.446 Y73.234 E.05107
G1 X157.419 Y74.551 E.05137
G1 X158.333 Y75.901 E.0511
G1 X159.191 Y77.285 E.05105
G1 X159.995 Y78.713 E.05139
G1 X160.736 Y80.164 E.05107
G1 X161.417 Y81.643 E.05107
G1 X162.033 Y83.141 E.05078
G1 X162.594 Y84.681 E.05139
G1 X163.088 Y86.234 E.05107
G1 X163.52 Y87.814 E.05137
G1 X163.885 Y89.402 E.0511
G1 X164.186 Y91.013 E.05137
G1 X164.418 Y92.616 E.05079
G1 X164.585 Y94.236 E.05107
G1 X164.686 Y95.871 E.05137
G1 X164.717 Y97.578 E.05353
G1 X164.686 Y99.129 E.04864
G1 X164.585 Y100.755 E.05107
G1 X164.419 Y102.375 E.05107
G1 X164.184 Y103.997 E.05139
G1 X163.885 Y105.598 E.05105
G1 X163.52 Y107.186 E.0511
G1 X163.088 Y108.766 E.05137
G1 X162.594 Y110.319 E.05108
G1 X162.04 Y111.841 E.05078
G1 X161.417 Y113.357 E.05139
G1 X160.736 Y114.836 E.05107
G1 X159.991 Y116.295 E.05137
G1 X159.191 Y117.715 E.0511
G1 X158.333 Y119.099 E.05105
G1 X157.419 Y120.449 E.0511
G1 X156.446 Y121.766 E.05137
G1 X155.424 Y123.035 E.05107
G1 X154.345 Y124.268 E.05139
G1 X153.23 Y125.443 E.05078
G1 X152.06 Y126.577 E.05108
G1 X150.838 Y127.668 E.05136
G1 X149.579 Y128.703 E.0511
G1 X148.271 Y129.69 E.05137
G1 X146.94 Y130.612 E.05078
G1 X145.564 Y131.484 E.05108
G1 X144.145 Y132.303 E.05137
G1 X142.702 Y133.059 E.05108
G1 X141.229 Y133.755 E.05109
G1 X139.72 Y134.393 E.05137
G1 X138.195 Y134.966 E.05107
G1 X136.657 Y135.473 E.05078
G1 X135.081 Y135.922 E.05137
G1 X133.497 Y136.303 E.0511
G1 X131.89 Y136.62 E.05137
G1 X130.28 Y136.87 E.05107
G1 X128.652 Y137.055 E.05138
G1 X127.036 Y137.171 E.05079
G1 X125.408 Y137.221 E.05107
G1 X123.779 Y137.205 E.05107
G1 X122.142 Y137.121 E.05139
G1 X120.52 Y136.97 E.05107
G1 X118.906 Y136.754 E.05107
G1 X117.292 Y136.469 E.05137
G1 X115.701 Y136.121 E.05107
G1 X114.135 Y135.709 E.05078
G1 X112.567 Y135.229 E.05139
G1 X111.031 Y134.688 E.05108
G1 X109.509 Y134.08 E.05136
G1 X108.022 Y133.414 E.0511
G1 X106.565 Y132.688 E.05105
G1 X105.137 Y131.903 E.0511
G1 X103.735 Y131.055 E.05137
G1 X102.377 Y130.155 E.05107
G1 X101.049 Y129.194 E.05139
G1 X99.777 Y128.191 E.05078
G1 X98.54 Y127.132 E.05107
G1 X97.341 Y126.016 E.05137
G1 X96.195 Y124.857 E.0511
G1 X95.091 Y123.647 E.05137
G1 X94.05 Y122.406 E.05078
G1 X93.055 Y121.116 E.05108
G1 X92.108 Y119.779 E.05137
G1 X91.222 Y118.412 E.05108
G1 X90.393 Y117.009 E.05109
G1 X89.618 Y115.566 E.05136
G1 X88.907 Y114.1 E.05107
G1 X88.261 Y112.615 E.05078
G1 X87.669 Y111.088 E.05136
G1 X87.143 Y109.545 E.0511
G1 X86.678 Y107.974 E.05137
G1 X86.281 Y106.394 E.05107
G1 X85.947 Y104.79 E.05139
G1 X85.682 Y103.192 E.05078
G1 X85.482 Y101.575 E.05107
G1 X85.348 Y99.952 E.05107
G1 X85.281 Y98.314 E.05139
G1 X85.281 Y96.686 E.05105
G1 X85.348 Y95.058 E.0511
G1 X85.482 Y93.425 E.05137
M73 P1 R70
G1 X85.682 Y91.808 E.05107
M73 Q1 S71
G1 X85.947 Y90.21 E.05078
G1 X86.281 Y88.606 E.05139
G1 X86.678 Y87.026 E.05107
G1 X87.143 Y85.455 E.05137
G1 X87.669 Y83.912 E.0511
G1 X88.261 Y82.385 E.05136
G1 X88.907 Y80.9 E.05079
G1 X89.618 Y79.434 E.05107
G1 X90.389 Y77.999 E.05108
G1 X91.222 Y76.588 E.05138
G1 X92.108 Y75.221 E.05108
G1 X93.049 Y73.891 E.05108
G1 X94.05 Y72.594 E.05137
G1 X95.097 Y71.346 E.05107
G1 X96.195 Y70.142 E.0511
G1 X97.341 Y68.984 E.05108
G1 X98.54 Y67.868 E.05137
G1 X99.777 Y66.809 E.05107
G1 X101.065 Y65.795 E.05139
G1 X102.377 Y64.845 E.05079
G1 X103.735 Y63.945 E.05107
G1 X105.137 Y63.097 E.05137
G1 X106.565 Y62.312 E.0511
G1 X108.031 Y61.582 E.05137
G1 X109.509 Y60.92 E.05078
G1 X111.022 Y60.316 E.05108
G1 X112.567 Y59.771 E.05137
G1 X114.125 Y59.293 E.05109
G1 X115.701 Y58.879 E.05109
G1 X117.301 Y58.529 E.05137
G1 X118.905 Y58.246 E.05107
G1 X120.511 Y58.031 E.05078
G1 X122.143 Y57.879 E.05139
G1 X123.77 Y57.796 E.05108
G1 X125.408 Y57.779 E.05136
G1 X126.976 Y57.827 E.04919
M204 S1000
G1 X127.218 Y58.185 F10800
;WIPE_START
G1 F8640
G1 X128.652 Y57.945 E-.3879
G1 X130.28 Y58.13 E-.3784
G1 X131.066 Y58.252 E-.1837
;WIPE_END
G1 E-.05 F2100
G1 Z.4 F720
G1 X151.623 Y97.736 F10800
G1 Z.2 F720
G1 E1 F2100
M204 S800
;TYPE:Perimeter
G1 F1200
G1 X151.617 Y97.273 E.01451
G1 X151.697 Y96.734 E.01709
G1 X151.863 Y96.215 E.01709
G1 X152.11 Y95.729 E.01709
G1 X152.431 Y95.289 E.01709
G1 X152.819 Y94.906 E.01709
G1 X153.263 Y94.59 E.01709
G1 X153.753 Y94.35 E.01709
G1 X154.274 Y94.192 E.01709
G1 X154.792 Y94.121 E.01639
G1 X155.354 Y94.133 E.01764
G1 X155.894 Y94.235 E.01722
G1 X156.406 Y94.421 E.01709
G1 X156.882 Y94.688 E.01709
G1 X157.308 Y95.026 E.01709
G1 X157.675 Y95.43 E.01709
G1 X157.973 Y95.886 E.01709
G1 X158.184 Y96.364 E.01639
G1 X158.33 Y96.908 E.01764
G1 X158.382 Y97.454 E.01722
G1 X158.345 Y97.998 E.01709
G1 X158.227 Y98.508 E.01639
G1 X158.017 Y99.029 E.01764
G1 X157.73 Y99.498 E.01722
G1 X157.374 Y99.91 E.01709
G1 X156.957 Y100.261 E.01709
G1 X156.488 Y100.54 E.01709
G1 X155.982 Y100.74 E.01709
G1 X155.449 Y100.856 E.01709
G1 X154.905 Y100.885 E.01709
G1 X154.363 Y100.827 E.01709
G1 X153.838 Y100.682 E.01709
G1 X153.342 Y100.455 E.01709
G1 X152.89 Y100.152 E.01709
G1 X152.492 Y99.779 E.01709
G1 X152.158 Y99.348 E.01709
G1 X151.899 Y98.869 E.01709
G1 X151.719 Y98.354 E.01709
G1 X151.624 Y97.796 E.01777
M204 S1000
G1 X152.008 Y97.815 F10800
M204 S800
;TYPE:External perimeter
G1 F1200
G1 X151.997 Y97.243 E.01793
G1 X152.077 Y96.765 E.01519
G1 X152.221 Y96.334 E.01424
G1 X152.46 Y95.878 E.01614
G1 X152.753 Y95.493 E.01519
G1 X153.104 Y95.159 E.01519
G1 X153.504 Y94.886 E.01519
G1 X153.943 Y94.68 E.01519
G1 X154.409 Y94.548 E.01519
G1 X154.866 Y94.494 E.01445
G1 X155.374 Y94.514 E.01592
G1 X155.848 Y94.613 E.01519
G1 X156.3 Y94.787 E.01519
G1 X156.718 Y95.031 E.01519
G1 X157.197 Y95.459 E.02013
G1 X157.411 Y95.704 E.0102
G1 X157.668 Y96.115 E.01519
G1 X157.847 Y96.539 E.01445
G1 X157.969 Y97.032 E.01591
G1 X158.006 Y97.515 E.01519
G1 X157.923 Y98.167 E.02059
G1 X157.852 Y98.445 E.009
G1 X157.654 Y98.912 E.01591
G1 X157.393 Y99.32 E.01519
G1 X157.07 Y99.681 E.01519
G1 X156.693 Y99.986 E.01519
G1 X156.272 Y100.226 E.01519
G1 X155.819 Y100.395 E.01519
G1 X155.344 Y100.49 E.01519
G1 X154.859 Y100.507 E.01519
G1 X154.379 Y100.446 E.01519
G1 X153.914 Y100.309 E.01519
G1 X153.478 Y100.099 E.01519
G1 X153.08 Y99.822 E.01519
G1 X152.733 Y99.485 E.01519
G1 X152.444 Y99.096 E.01519
G1 X152.221 Y98.666 E.01519
G1 X152.069 Y98.206 E.01519
G1 X152.017 Y97.874 E.01053
M204 S1000
G1 X151.644 Y97.648 F10800
;WIPE_START
G1 F8640
G1 X151.997 Y97.243 E-.14581
G1 X152.077 Y96.765 E-.11185
G1 X152.221 Y96.334 E-.10487
G1 X152.46 Y95.878 E-.11884
G1 X152.753 Y95.493 E-.11185
G1 X153.104 Y95.159 E-.11186
G1 X153.504 Y94.886 E-.11186
G1 X153.943 Y94.68 E-.11185
G1 X154.031 Y94.655 E-.0212
;WIPE_END
G1 E-.05 F2100
G1 Z.4 F720
G1 X142.59 Y93.26 F10800
