; generated by PrusaSlicer 2.5.2+win64 on 2023-05-19 at 12:56:46 UTC


;
;
; 

; external perimeters extrusion width = 0.45mm
; perimeters extrusion width = 0.45mm
; infill extrusion width = 0.45mm
; solid infill extrusion width = 0.45mm
; top infill extrusion width = 0.40mm
; first layer extrusion width = 0.42mm

M73 P0 R85
M73 Q0 S85
M201 X1000 Y1000 Z200 E5000 ; sets maximum accelerations, mm/sec^2
M203 X200 Y200 Z12 E120 ; sets maximum feedrates, mm / sec
M204 P1250 R1250 T1250 ; sets acceleration (P, T) and retract acceleration (R), mm/sec^2
M205 X8.00 Y8.00 Z0.40 E4.50 ; sets the jerk limits, mm/sec
M205 S0 T0 ; sets the minimum extruding and travel feed rate, mm/sec
M107
;TYPE:Custom
M862.3 P "MK3S" ; printer model check
M862.1 P0.4 ; nozzle diameter check
M115 U3.12.2 ; tell printer latest fw version
G90 ; use absolute coordinates
M83 ; extruder relative mode
M104 S240 ; set extruder temp
M140 S85 ; set bed temp
M190 S85 ; wait for bed temp
M109 S240 ; wait for extruder temp
G28 W ; home all without mesh bed level
G80 ; mesh bed leveling

G1 Z0.2 F720
G1 Y-3 F1000 ; go outside print area
G92 E0
G1 X60 E9 F1000 ; intro line
G1 X100 E12.5 F1000 ; intro line

G92 E0
M221 S95

; Don't change E values below. Excessive value can damage the printer.

M907 E538 ; set extruder motor current
G21 ; set units to millimeters
G90 ; use absolute coordinates
M83 ; use relative distances for extrusion
M900 K0.08 ; Filament gcode LA 1.5
M900 K45 ; Filament gcode LA 1.0
M107
;LAYER_CHANGE
;Z:0.2
;HEIGHT:0.2
;BEFORE_LAYER_CHANGE
G92 E0.0
;0.2


G1 E-1 F2100
M73 P0 R84
G1 Z.2 F720
;AFTER_LAYER_CHANGE
;0.2
G1 Z.4
G1 X93.438 Y78.248 F10800
G1 Z.2 F720
G1 E1 F2100
M204 S800
;TYPE:Skirt/Brim
;WIDTH:0.42
G1 F1200
G1 X96.364 Y75.136 E.13394
G1 X97.492 Y74.094 E.04815
G1 X99.662 Y72.291 E.08844
G1 X102.088 Y70.548 E.09367
G1 X105.762 Y68.369 E.13394
G1 X107.135 Y67.68 E.04815
G1 X109.719 Y66.55 E.08845
G1 X111.156 Y66.009 E.04815
G1 X113.845 Y65.156 E.08845
G1 X115.331 Y64.769 E.04815
G1 X118.095 Y64.204 E.08844
G1 X121.057 Y63.812 E.09367
G1 X123.872 Y63.639 E.08844
G1 X125.408 Y63.625 E.04815
G1 X129.672 Y63.887 E.13394
G1 X131.194 Y64.089 E.04815
G1 X133.967 Y64.606 E.08844
G1 X136.858 Y65.358 E.09367
G1 X139.532 Y66.258 E.08844
G1 X140.96 Y66.824 E.04815
G1 X143.524 Y68 E.08844
G1 X144.884 Y68.712 E.04815
G1 X148.519 Y70.956 E.13394
G1 X149.766 Y71.852 E.04815
G1 X151.967 Y73.616 E.08844
G1 X153.113 Y74.638 E.04815
G1 X155.117 Y76.624 E.08845
G1 X157.149 Y78.952 E.09689
G1 X158.792 Y81.118 E.08523
G1 X159.655 Y82.388 E.04815
G1 X161.115 Y84.801 E.08844
G1 X161.839 Y86.155 E.04815
G1 X163.038 Y88.709 E.08844
G1 X163.616 Y90.132 E.04815
G1 X164.539 Y92.797 E.08844
G1 X164.965 Y94.273 E.04815
G1 X165.858 Y98.45 E.13394
G1 X166.073 Y99.971 E.04815
G1 X166.32 Y102.781 E.08845
G1 X166.373 Y105.768 E.09367
G1 X166.073 Y110.029 E.13394
G1 X165.858 Y111.55 E.04815
G1 X165.317 Y114.318 E.08844
G1 X164.943 Y115.808 E.04815
G1 X164.114 Y118.504 E.08844
G1 X162.968 Y121.447 E.09903
G1 X161.839 Y123.844 E.08308
G1 X161.115 Y125.198 E.04815
G1 X159.655 Y127.612 E.08844
G1 X158.792 Y128.882 E.04815
G1 X156.149 Y132.239 E.13394
G1 X155.117 Y133.376 E.04815
G1 X153.114 Y135.362 E.08844
G1 X150.714 Y137.416 E.09903
G1 X148.588 Y138.997 E.08308
G1 X147.31 Y139.849 E.04815
G1 X144.884 Y141.288 E.08844
G1 X143.524 Y142 E.04815
G1 X139.61 Y143.713 E.13394
G1 X136.778 Y144.666 E.09367
G1 X134.049 Y145.376 E.08844
G1 X132.544 Y145.684 E.04815
G1 X128.309 Y146.244 E.13394
G1 X126.776 Y146.339 E.04815
G1 X123.956 Y146.363 E.08844
G1 X122.421 Y146.296 E.04815
G1 X119.614 Y146.024 E.08844
G1 X116.567 Y145.506 E.09689
G1 X113.926 Y144.866 E.08523
G1 X112.454 Y144.428 E.04815
G1 X109.797 Y143.481 E.08844
G1 X108.379 Y142.89 E.04815
G1 X105.836 Y141.67 E.08844
G1 X104.488 Y140.933 E.04815
G1 X100.893 Y138.626 E.13394
G1 X99.662 Y137.709 E.04815
G1 X97.492 Y135.906 E.08844
G1 X95.334 Y133.84 E.09367
G1 X93.438 Y131.752 E.08844
G1 X92.467 Y130.562 E.04815
G1 X90.004 Y127.071 E.13394
G1 X88.503 Y124.488 E.09367
G1 X87.26 Y121.956 E.08844
G1 X86.657 Y120.544 E.04815
G1 X85.687 Y117.895 E.08844
G1 X85.235 Y116.427 E.04815
G1 X84.269 Y112.266 E.13394
G1 X84.028 Y110.749 E.04815
G1 X83.731 Y107.944 E.08845
G1 X83.626 Y104.958 E.09367
G1 X83.725 Y102.139 E.08844
G1 X83.86 Y100.609 E.04815
G1 X84.532 Y96.391 E.13394
G1 X84.879 Y94.895 E.04815
G1 X85.661 Y92.185 E.08844
G1 X86.702 Y89.348 E.09474
G1 X87.842 Y86.805 E.08737
G1 X88.542 Y85.438 E.04815
G1 X89.96 Y83 E.08844
G1 X90.801 Y81.714 E.04815
G1 X92.467 Y79.438 E.08844
G1 X93.4 Y78.295 E.04627
M204 S1000
; printing object Body1 id:0 copy 0
;WIPE_START
G1 F8640
G1 X96.215 Y75.295 E-.95
;WIPE_END
G1 E-.05 F2100
G1 Z.4 F720
G1 X91.62 Y104.996 F10800
G1 Z.2 F720
G1 E1 F2100
M204 S800
;TYPE:Perimeter
;WIDTH:0.419999
G1 F1200
G1 X91.652 Y104.513 E.01517
G1 X91.747 Y104.071 E.01418
G1 X91.9 Y103.645 E.01418
G1 X92.109 Y103.244 E.01418
G1 X92.369 Y102.874 E.01418
G1 X92.676 Y102.542 E.01418
G1 X93.057 Y102.234 E.01536
G1 X93.717 Y101.873 E.02358
G1 X94.291 Y101.694 E.01885
G1 X95.017 Y101.62 E.02289
G1 X95.525 Y101.656 E.01595
G1 X96.042 Y101.779 E.01668
G1 X96.463 Y101.946 E.01418
G1 X96.857 Y102.168 E.01418
G1 X97.218 Y102.441 E.01418
G1 X97.54 Y102.759 E.01418
G1 X97.816 Y103.117 E.01418
G1 X98.042 Y103.509 E.01418
G1 X98.214 Y103.927 E.01418
G1 X98.337 Y104.422 E.01598
G1 X98.384 Y104.814 E.01237
G1 X98.379 Y105.266 E.01418
G1 X98.314 Y105.714 E.01418
G1 X98.19 Y106.149 E.01418
G1 X98.008 Y106.563 E.01418
G1 X97.773 Y106.95 E.01418
G1 X97.489 Y107.302 E.01418
G1 X97.16 Y107.613 E.01418
G1 X96.793 Y107.877 E.01418
G1 X96.394 Y108.09 E.01418
G1 X95.97 Y108.248 E.01418
G1 X95.529 Y108.348 E.01418
G1 X95.078 Y108.388 E.01418
G1 X94.626 Y108.368 E.01418
G1 X94.181 Y108.288 E.01418
G1 X93.751 Y108.149 E.01418
G1 X93.342 Y107.954 E.01418
G1 X92.964 Y107.706 E.01418
G1 X92.622 Y107.41 E.01418
G1 X92.313 Y107.057 E.01471
G1 X92.07 Y106.695 E.01366
G1 X91.871 Y106.289 E.01418
G1 X91.707 Y105.762 E.01732
G1 X91.619 Y105.056 E.0223
M204 S1000
G1 X92.051 Y104.529 F10800
M204 S800
;TYPE:External perimeter
G1 F1200
G1 X92.077 Y104.313 E.00681
G1 X92.235 Y103.819 E.01628
G1 X92.42 Y103.457 E.01271
G1 X92.649 Y103.127 E.01261
G1 X92.919 Y102.83 E.01261
G1 X93.238 Y102.565 E.013
G1 X93.898 Y102.204 E.02358
G1 X94.33 Y102.07 E.01417
G1 X95.056 Y101.995 E.02289
G1 X95.516 Y102.036 E.01448
G1 X95.907 Y102.131 E.01261
G1 X96.281 Y102.277 E.01261
G1 X96.633 Y102.472 E.01261
G1 X96.956 Y102.712 E.01261
G1 X97.244 Y102.992 E.01261
G1 X97.492 Y103.309 E.01261
G1 X97.695 Y103.656 E.01261
G1 X97.851 Y104.027 E.01261
G1 X97.963 Y104.472 E.01441
G1 X98.007 Y105.191 E.02257
G1 X97.95 Y105.614 E.0134
G1 X97.842 Y106.002 E.01261
G1 X97.684 Y106.371 E.01261
G1 X97.478 Y106.716 E.01261
G1 X97.227 Y107.031 E.01261
G1 X96.937 Y107.309 E.01261
G1 X96.612 Y107.546 E.01261
G1 X96.259 Y107.738 E.01261
G1 X95.883 Y107.881 E.01261
G1 X95.491 Y107.972 E.01261
G1 X95.091 Y108.011 E.01261
G1 X94.689 Y107.996 E.01261
G1 X94.293 Y107.927 E.01261
G1 X93.909 Y107.807 E.01261
G1 X93.545 Y107.636 E.01261
G1 X93.207 Y107.418 E.01261
G1 X92.901 Y107.157 E.01261
G1 X92.623 Y106.844 E.01313
G1 X92.407 Y106.525 E.01208
G1 X92.227 Y106.166 E.01261
G1 X92.077 Y105.687 E.01574
G1 X91.993 Y105.015 E.02123
G1 X92.044 Y104.589 E.01346
M204 S1000
G1 X91.872 Y104.407 F10800
;WIPE_START
G1 F8640
G1 X92.077 Y104.313 E-.064
G1 X92.235 Y103.819 E-.11991
G1 X92.42 Y103.457 E-.09362
G1 X92.649 Y103.127 E-.09285
G1 X92.919 Y102.83 E-.09285
G1 X93.238 Y102.565 E-.09572
G1 X93.898 Y102.204 E-.17368
G1 X94.33 Y102.07 E-.10432
G1 X94.817 Y102.02 E-.11305
;WIPE_END
G1 E-.05 F2100
G1 Z.4 F720
G1 X109.367 Y103.871 F10800
G1 Z.2 F720
G1 E1 F2100
M204 S800
;TYPE:Perimeter
G1 F1200
G1 X109.415 Y103.244 E.01971
G1 X109.504 Y102.613 E.02
G1 X109.715 Y101.485 E.03598
G1 X109.939 Y100.623 E.02791
G1 X110.167 Y99.915 E.02331
G1 X110.532 Y98.945 E.03251
G1 X110.862 Y98.213 E.02516
G1 X111.31 Y97.347 E.03059
G1 X111.741 Y96.624 E.0264
G1 X112.172 Y95.982 E.02423
G1 X112.633 Y95.362 E.02423
G1 X113.123 Y94.763 E.02426
G1 X114.001 Y93.818 E.04044
G1 X114.655 Y93.211 E.02798
G1 X115.34 Y92.643 E.02791
G1 X116 Y92.157 E.0257
G1 X116.645 Y91.731 E.02423
G1 X117.31 Y91.334 E.02427
G1 X117.994 Y90.973 E.02427
G1 X118.7 Y90.642 E.02445
G1 X119.751 Y90.223 E.03547
G1 X120.608 Y89.948 E.02821
G1 X121.561 Y89.698 E.03089
G1 X122.138 Y89.583 E.01844
G1 X123.028 Y89.444 E.02826
G1 X123.876 Y89.365 E.02669
G1 X123.518 Y88.98 E.01648
G1 X123.269 Y88.407 E.0196
G1 X123.234 Y88.212 E.00621
G1 X123.241 Y87.697 E.01617
G1 X123.413 Y87.195 E.01662
G1 X123.648 Y86.862 E.01278
G1 X123.935 Y86.574 E.01275
G1 X124.399 Y86.317 E.01664
G1 X124.905 Y86.221 E.01615
G1 X125.237 Y86.245 E.01044
G1 X125.704 Y86.362 E.01509
G1 X126.222 Y86.7 E.01941
G1 X126.582 Y87.166 E.01846
G1 X126.763 Y87.687 E.0173
G1 X126.772 Y88.212 E.01647
G1 X126.604 Y88.77 E.01824
G1 X126.488 Y88.981 E.00756
G1 X126.148 Y89.358 E.01593
G1 X126.961 Y89.436 E.02562
G1 X127.898 Y89.585 E.02973
G1 X128.567 Y89.727 E.02144
G1 X129.559 Y89.99 E.03219
G1 X130.077 Y90.165 E.01714
G1 X131.243 Y90.607 E.0391
G1 X132.029 Y90.975 E.0272
G1 X132.71 Y91.34 E.02423
G1 X133.372 Y91.738 E.02423
G1 X134.015 Y92.167 E.02422
G1 X135.032 Y92.937 E.04001
G1 X135.691 Y93.518 E.02754
G1 X136.326 Y94.143 E.02792
G1 X136.895 Y94.771 E.02659
G1 X137.383 Y95.371 E.02425
G1 X137.841 Y95.996 E.02428
G1 X138.268 Y96.637 E.02415
G1 X138.664 Y97.3 E.02422
G1 X138.913 Y97.748 E.01605
G1 X139.302 Y98.548 E.02791
G1 X139.645 Y99.37 E.02791
G1 X139.815 Y99.852 E.01604
G1 X140.054 Y100.596 E.02448
G1 X140.298 Y101.548 E.03081
G1 X140.417 Y102.109 E.01799
G1 X140.536 Y102.81 E.0223
G1 X140.641 Y103.884 E.03382
G1 X140.933 Y103.578 E.01325
G1 X141.397 Y103.318 E.01668
G1 X141.904 Y103.221 E.01617
G1 X142.359 Y103.249 E.0143
G1 X142.849 Y103.427 E.01633
G1 X143.268 Y103.752 E.01662
G1 X143.429 Y103.932 E.00758
G1 X143.686 Y104.396 E.01664
G1 X143.782 Y104.902 E.01615
G1 X143.782 Y105.098 E.00616
G1 X143.686 Y105.604 E.01615
G1 X143.429 Y106.068 E.01664
G1 X142.978 Y106.492 E.0194
G1 X142.739 Y106.615 E.00841
G1 X142.22 Y106.769 E.017
G1 X141.596 Y106.734 E.01959
G1 X141.022 Y106.485 E.0196
G1 X140.638 Y106.127 E.01648
G1 X140.54 Y107.159 E.03249
G1 X140.417 Y107.88 E.02294
G1 X140.278 Y108.549 E.02143
G1 X140.012 Y109.546 E.03236
G1 X139.842 Y110.071 E.0173
G1 X139.656 Y110.6 E.01758
G1 X139.36 Y111.313 E.0242
G1 X139.026 Y112.015 E.02438
G1 X138.665 Y112.699 E.02426
G1 X138.268 Y113.363 E.02425
G1 X137.84 Y114.007 E.02422
G1 X137.502 Y114.479 E.01822
G1 X136.944 Y115.173 E.02792
G1 X136.368 Y115.812 E.02697
G1 X135.808 Y116.368 E.02475
G1 X135.234 Y116.881 E.02413
G1 X134.636 Y117.374 E.02429
G1 X133.591 Y118.127 E.0404
G1 X132.86 Y118.577 E.0269
G1 X132.078 Y119.001 E.02791
G1 X131.296 Y119.369 E.02708
G1 X130.446 Y119.712 E.02875
G1 X129.603 Y119.997 E.02791
G1 X129.053 Y120.15 E.01787
G1 X127.877 Y120.421 E.03786
G1 X126.994 Y120.56 E.028
G1 X126.126 Y120.644 E.02737
G1 X126.425 Y120.93 E.01299
G1 X126.708 Y121.483 E.01948
G1 X126.786 Y122.074 E.01869
G1 X126.705 Y122.533 E.01462
G1 X126.429 Y123.068 E.01888
G1 X126.303 Y123.219 E.00616
G1 X125.808 Y123.59 E.0194
G1 X125.327 Y123.758 E.01597
G1 X124.791 Y123.769 E.01681
G1 X124.597 Y123.735 E.00616
G1 X124.028 Y123.492 E.01941
G1 X123.606 Y123.114 E.01775
G1 X123.328 Y122.624 E.01767
G1 X123.224 Y122.098 E.01682
G1 X123.224 Y121.901 E.00618
G1 X123.304 Y121.454 E.01423
G1 X123.575 Y120.941 E.0182
G1 X123.89 Y120.635 E.01376
G1 X123.002 Y120.553 E.02798
G1 X122.201 Y120.427 E.02541
G1 X121.685 Y120.332 E.01647
G1 X120.469 Y120.011 E.03942
G1 X119.967 Y119.856 E.01646
G1 X119.133 Y119.547 E.02791
G1 X118.317 Y119.19 E.02791
G1 X117.523 Y118.788 E.02791
G1 X116.828 Y118.388 E.02513
G1 X116.01 Y117.853 E.03065
G1 X115.364 Y117.376 E.02517
G1 X114.758 Y116.876 E.02464
G1 X114.187 Y116.355 E.02423
G1 X113.642 Y115.808 E.02422
G1 X112.771 Y114.82 E.04129
G1 X112.285 Y114.182 E.02515
G1 X111.785 Y113.447 E.02788
G1 X111.33 Y112.688 E.02774
G1 X110.97 Y112.004 E.02423
G1 X110.644 Y111.298 E.02438
G1 X110.222 Y110.254 E.03531
G1 X109.948 Y109.408 E.0279
G1 X109.722 Y108.547 E.02791
G1 X109.509 Y107.421 E.03594
G1 X109.419 Y106.793 E.01989
G1 X109.366 Y106.115 E.02133
G1 X109.073 Y106.422 E.01331
G1 X108.52 Y106.705 E.01948
G1 X107.929 Y106.783 E.01869
G1 X107.408 Y106.686 E.01661
G1 X106.935 Y106.426 E.01694
G1 X106.784 Y106.3 E.00616
G1 X106.413 Y105.805 E.0194
G1 X106.245 Y105.324 E.01598
G1 X106.234 Y104.814 E.01599
G1 X106.268 Y104.594 E.00696
G1 X106.511 Y104.025 E.01941
G1 X106.889 Y103.603 E.01775
G1 X107.379 Y103.325 E.01767
G1 X108.053 Y103.214 E.02141
G1 X108.41 Y103.266 E.01133
G1 X108.901 Y103.456 E.01651
G1 X109.329 Y103.824 E.0177
M204 S1000
G1 X109.335 Y104.689 F10800
M204 S800
;TYPE:External perimeter
;WIDTH:0.437707
G1 F1200
G1 X109.358 Y105.192 E.01656
;WIDTH:0.422086
G1 X109.21 Y105.702 E.01673
;WIDTH:0.419999
G1 X108.882 Y106.096 E.01608
G1 X108.454 Y106.334 E.01535
G1 X107.97 Y106.408 E.01534
G1 X107.479 Y106.305 E.01572
G1 X107.073 Y106.058 E.01493
G1 X106.767 Y105.676 E.01534
G1 X106.611 Y105.191 E.01598
G1 X106.622 Y104.723 E.01466
G1 X106.8 Y104.268 E.01534
G1 X107.123 Y103.9 E.01534
G1 X107.552 Y103.666 E.01534
G1 X108.02 Y103.59 E.01484
G1 X108.28 Y103.619 E.00823
G1 X108.737 Y103.8 E.0154
G1 X109.1 Y104.131 E.01539
;WIDTH:0.437707
G1 X109.33 Y104.579 E.01653
G1 X109.332 Y104.629 E.00164
M204 S1000
G1 X109.709 Y104.83 F10800
;WIPE_START
G1 F8640
G1 X109.358 Y105.192 E-.13033
G1 X109.21 Y105.702 E-.12253
G1 X108.882 Y106.096 E-.11844
G1 X108.454 Y106.334 E-.11306
G1 X107.97 Y106.408 E-.11297
G1 X107.479 Y106.305 E-.11578
G1 X107.073 Y106.058 E-.10995
G1 X106.767 Y105.676 E-.11294
G1 X106.749 Y105.618 E-.01401
;WIPE_END
G1 E-.05 F2100
G1 Z.4 F720
G1 X124.275 Y89.168 F10800
G1 Z.2 F720
G1 E1 F2100
M204 S800
;WIDTH:0.431581
G1 F1200
G1 X124.08 Y89.054 E.00731
;WIDTH:0.419999
G1 X123.769 Y88.676 E.01536
G1 X123.611 Y88.212 E.01535
G1 X123.622 Y87.723 E.01534
G1 X123.8 Y87.268 E.01534
G1 X124.123 Y86.9 E.01534
G1 X124.552 Y86.666 E.01534
G1 X125.036 Y86.592 E.01534
G1 X125.515 Y86.688 E.01534
G1 X125.963 Y86.978 E.0167
G1 X126.239 Y87.324 E.0139
G1 X126.395 Y87.817 E.01622
G1 X126.384 Y88.277 E.01442
G1 X126.203 Y88.734 E.0154
G1 X125.872 Y89.097 E.01538
;WIDTH:0.438987
G1 X125.425 Y89.327 E.01658
G1 X124.811 Y89.356 E.02024
;WIDTH:0.431581
G1 X124.501 Y89.301 E.01016
G1 X124.327 Y89.199 E.00653
M204 S1000
G1 X124.086 Y89.293 F10800
;WIPE_START
G1 F8640
G1 X124.08 Y89.054 E-.06605
G1 X123.769 Y88.676 E-.11315
G1 X123.611 Y88.212 E-.11301
G1 X123.622 Y87.723 E-.11295
G1 X123.8 Y87.268 E-.11294
G1 X124.123 Y86.9 E-.11294
G1 X124.552 Y86.666 E-.11294
G1 X125.036 Y86.592 E-.11294
G1 X125.431 Y86.671 E-.09308
;WIPE_END
G1 E-.05 F2100
G1 Z.4 F720
G1 X126.474 Y71.954 F10800
G1 Z.2 F720
G1 E1 F2100
M204 S800
;TYPE:Perimeter
;WIDTH:0.419999
G1 F1200
G1 X126.858 Y72.166 E.01377
G1 X127.22 Y72.438 E.01418
G1 X127.541 Y72.757 E.01418
G1 X127.818 Y73.115 E.01418
G1 X128.044 Y73.506 E.01418
G1 X128.216 Y73.925 E.01418
G1 X128.33 Y74.363 E.01418
G1 X128.386 Y74.812 E.01418
G1 X128.381 Y75.264 E.01418
G1 X128.315 Y75.712 E.01418
G1 X128.191 Y76.146 E.01418
G1 X128.036 Y76.511 E.01243
G1 X127.564 Y77.213 E.02652
G1 X127.162 Y77.61 E.01772
G1 X126.795 Y77.875 E.01418
G1 X126.396 Y78.088 E.01418
G1 X125.972 Y78.245 E.01418
G1 X125.393 Y78.359 E.01848
G1 X124.703 Y78.373 E.02164
G1 X124.183 Y78.285 E.01655
G1 X123.752 Y78.146 E.01418
G1 X123.344 Y77.951 E.01418
G1 X122.965 Y77.704 E.01418
G1 X122.623 Y77.408 E.01418
G1 X122.323 Y77.069 E.01418
G1 X122.072 Y76.693 E.01418
G1 X121.872 Y76.287 E.01418
G1 X121.729 Y75.858 E.01418
G1 X121.643 Y75.414 E.01418
G1 X121.618 Y74.962 E.01418
G1 X121.653 Y74.511 E.01418
G1 X121.748 Y74.069 E.01418
G1 X121.902 Y73.643 E.01418
G1 X122.11 Y73.242 E.01418
G1 X122.502 Y72.727 E.02029
G1 X122.965 Y72.296 E.01984
G1 X123.41 Y72.012 E.01655
G1 X123.823 Y71.826 E.01418
G1 X124.311 Y71.69 E.01589
